will-d-chen/ur3e-codebase/joint_states_20240803_220859.csv
time,shoulder_pan_joint_position,shoulder_pan_joint_velocity,shoulder_pan_joint_effort,shoulder_lift_joint_position,shoulder_lift_joint_velocity,shoulder_lift_joint_effort,elbow_joint_position,elbow_joint_velocity,elbow_joint_effort,wrist_1_joint_position,wrist_1_joint_velocity,wrist_1_joint_effort,wrist_2_joint_position,wrist_2_joint_velocity,wrist_2_joint_effort,wrist_3_joint_position,wrist_3_joint_velocity,wrist_3_joint_effort,force_x,force_y,force_z,torque_x,torque_y,torque_z
2024-08-03 22:09:01.032372,-0.06239328396641319,0.004187515955155284,0.0,-1.4030036946113673,0.007201961662369228,0.0,1.588549434143788,0.03869978265884709,0.0,-0.1855479852666031,-0.04814695478148452,0.0,1.508403386325539,0.004529871797352264,0.0,7.611677803609496e-07,0.0004021391482299328,0.0,,,,,,
2024-08-03 22:09:01.032587,-0.06239328396641319,0.004187515955133631,0.0,-1.4030036946113673,0.007201961662264823,0.0,1.588549434143788,0.03869978265913627,0.0,-0.1855479852666031,-0.04814695478161219,0.0,1.508403386325539,0.004529871797164576,0.0,7.611677821373064e-07,0.00040213914837637383,0.0,,,,,,
2024-08-03 22:09:01.032745,-0.062393283966412305,0.004187515955145664,0.0,-1.4030036946113673,0.007201961662316581,0.0,1.588549434143788,0.03869978265901715,0.0,-0.1855479852666031,-0.04814695478140307,0.0,1.508403386325539,0.004529871797158898,0.0,7.611677803609496e-07,0.0004021391482151005,0.0,,,,,,
2024-08-03 22:09:01.032894,-0.06239328396641319,0.0041875159551836745,0.0,-1.4030036946113673,0.007201961662320076,0.0,1.588549434143788,0.03869978265900637,0.0,-0.185547985266604,-0.04814695478168653,0.0,1.50840338632554,0.004529871797201036,0.0,7.611677803609496e-07,0.00040213914821151915,0.0,,,,,,
2024-08-03 22:09:01.033054,-0.06239328396641319,0.004187515955142356,0.0,-1.4030036946113673,0.0072019616622975785,0.0,1.588549434143789,0.03869978265894376,0.0,-0.1855479852666022,-0.04814695478157633,0.0,1.508403386325539,0.004529871797124492,0.0,7.61167781249128e-07,0.00040213914848439116,0.0,,,,,,
2024-08-03 22:09:01.033196,-0.06239328396641319,0.004187515955173286,0.0,-1.4030036946113673,0.007201961662307983,0.0,1.588549434143788,0.038699782658946164,0.0,-0.1855479852666031,-0.048146954781520326,0.0,1.508403386325539,0.004529871797062247,0.0,7.61167781249128e-07,0.0004021391483378829,0.0,,,,,,
2024-08-03 22:09:01.033341,-0.06239328396641319,0.004187515955179696,0.0,-1.4030036946113673,0.0072019616623685365,0.0,1.588549434143788,0.038699782658915875,0.0,-0.1855479852666031,-0.04814695478155976,0.0,1.508403386325539,0.004529871797244682,0.0,7.61167781249128e-07,0.0004021391482095728,0.0,,,,,,
2024-08-03 22:09:01.033490,-0.06239328396641319,0.004187515955177135,0.0,-1.4030036946113673,0.007201961662372761,0.0,1.588549434143788,0.038699782658904516,0.0,-0.1855479852666031,-0.04814695478153121,0.0,1.508403386325539,0.004529871797177396,0.0,7.61167781249128e-07,0.00040213914831558175,0.0,,,,,,
2024-08-03 22:09:01.033636,-0.06239328396641319,0.00418751595515094,0.0,-1.4030036946113673,0.007201961662367322,0.0,1.588549434143789,0.03869978265884143,0.0,-0.1855479852666031,-0.04814695478137865,0.0,1.508403386325539,0.004529871797295154,0.0,7.611677821373064e-07,0.0004021391483585205,0.0,,,,,,
2024-08-03 22:09:01.033783,-0.06239328396641319,0.004187515955228952,0.0,-1.4030036946113673,0.007201961662369652,0.0,1.588549434143788,0.03869978265880941,0.0,-0.1855479852666031,-0.048146954781459014,0.0,1.508403386325539,0.004529871797223859,0.0,7.611677803609496e-07,0.0004021391483184267,0.0,,,,,,
2024-08-03 22:09:01.035564,-0.06239328396641319,0.00418751595519158,0.0,-1.4030036946113673,0.007201961662337096,0.0,1.588549434143788,0.038699782658881375,0.0,-0.1855479852666031,-0.048146954781487575,0.0,1.508403386325539,0.004529871797069793,0.0,7.61167781249128e-07,0.00040213914835683564,0.0,,,,,,
2024-08-03 22:09:01.045449,-0.06239328396641319,0.004187515955111458,0.0,-1.4030036946113673,0.007201961662340527,0.0,1.588549434143788,0.03869978265909872,0.0,-0.1855479852666031,-0.04814695478162421,0.0,1.508403386325539,0.004529871797042188,0.0,7.61167781249128e-07,0.00040213914835341173,0.0,,,,,,
2024-08-03 22:09:01.055850,-0.06239328396641319,0.004187515955123562,0.0,-1.4030036946113673,0.007201961662485261,0.0,1.588549434143788,0.03869978265868829,0.0,-0.1855479852666031,-0.048146954781496554,0.0,1.508403386325539,0.004529871796973827,0.0,7.61167781249128e-07,0.0004021391483607457,0.0,,,,,,
2024-08-03 22:09:01.065464,-0.06239328396641319,0.00418751595516577,0.0,-1.4030036946113673,0.007201961662346743,0.0,1.588549434143788,0.03869978265904391,0.0,-0.1855479852666031,-0.048146954781665315,0.0,1.50840338632554,0.004529871797218667,0.0,7.61167781249128e-07,0.00040213914834211087,0.0,,,,,,
2024-08-03 22:09:01.075770,-0.06239328396641319,0.0041875159551492975,0.0,-1.4030036946113673,0.007201961662456473,0.0,1.588549434143788,0.03869978265883018,0.0,-0.1855479852666031,-0.04814695478155965,0.0,1.5084033863255382,0.004529871796882165,0.0,7.611677803609496e-07,0.0004021391483948569,0.0,,,,,,
2024-08-03 22:09:01.085350,-0.06239328396641319,0.004187515955149229,0.0,-1.4030036946113673,0.007201961662294124,0.0,1.588549434143788,0.03869978265900448,0.0,-0.1855479852666031,-0.04814695478155599,0.0,1.508403386325539,0.004529871796950109,0.0,7.611677803609496e-07,0.0004021391481640888,0.0,,,,,,
2024-08-03 22:09:01.095672,-0.06239328396641319,0.004187515955161047,0.0,-1.4030036946113673,0.007201961662341636,0.0,1.588549434143788,0.038699782659031734,0.0,-0.1855479852666031,-0.048146954781700085,0.0,1.508403386325539,0.004529871797305285,0.0,7.611677803609496e-07,0.0004021391482854431,0.0,,,,,,
2024-08-03 22:09:01.105403,-0.062393283966412305,0.004187515955171428,0.0,-1.4030036946113673,0.0072019616622816815,0.0,1.588549434143788,0.03869978265904621,0.0,-0.1855479852666031,-0.048146954781481316,0.0,1.508403386325539,0.004529871797310408,0.0,7.611677821373064e-07,0.00040213914849015044,0.0,,,,,,
2024-08-03 22:09:01.115721,-0.06239328396641319,0.004187515955208966,0.0,-1.4030036946113673,0.007201961662319144,0.0,1.588549434143788,0.03869978265900022,0.0,-0.1855479852666031,-0.04814695478146191,0.0,1.50840338632554,0.004529871797237533,0.0,7.611677803609496e-07,0.00040213914825604083,0.0,,,,,,
2024-08-03 22:09:01.125413,-0.06239328396641319,0.004187515955142699,0.0,-1.4030036946113673,0.007201961662475046,0.0,1.588549434143788,0.03869978265874618,0.0,-0.1855479852666031,-0.04814695478141842,0.0,1.5084033863255382,0.004529871797073639,0.0,7.61167781249128e-07,0.00040213914838719373,0.0,,,,,,
2024-08-03 22:09:01.135769,-0.062393283966412305,0.004187515955129763,0.0,-1.4030036946113673,0.00720196166228723,0.0,1.588549434143788,0.038699782659210494,0.0,-0.1855479852666031,-0.04814695478176703,0.0,1.508403386325539,0.00452987179703744,0.0,7.611677803609496e-07,0.0004021391480287799,0.0,,,,,,
2024-08-03 22:09:01.145413,-0.062393283966412305,0.004187515955100473,0.0,-1.4030036946113673,0.007201961662188625,0.0,1.588549434143788,0.03869978265908347,0.0,-0.1855479852666031,-0.04814695478161227,0.0,1.508403386325539,0.004529871797033515,0.0,7.611677803609496e-07,0.00040213914844782536,0.0,,,,,,
2024-08-03 22:09:01.155645,-0.06239328396641319,0.004187515955178537,0.0,-1.4030036946113682,0.007201961662395864,0.0,1.588549434143788,0.038699782658837695,0.0,-0.1855479852666031,-0.04814695478161269,0.0,1.508403386325539,0.004529871796791271,0.0,7.611677803609496e-07,0.00040213914834556384,0.0,,,,,,
2024-08-03 22:09:01.165320,-0.06239328396641319,0.004187515955164494,0.0,-1.4030036946113673,0.007201961662332687,0.0,1.588549434143788,0.03869978265902585,0.0,-0.1855479852666031,-0.048146954781557894,0.0,1.508403386325539,0.004529871797039518,0.0,7.611677830254848e-07,0.00040213914842920874,0.0,,,,,,
2024-08-03 22:09:01.175644,-0.06239328396641319,0.004187515955095736,0.0,-1.4030036946113673,0.0072019616622572905,0.0,1.5885494341437871,0.03869978265898195,0.0,-0.1855479852666031,-0.04814695478147743,0.0,1.508403386325539,0.00452987179689417,0.0,7.61167781249128e-07,0.00040213914834269504,0.0,,,,,,
2024-08-03 22:09:01.185349,-0.06239328396641319,0.004187515955116994,0.0,-1.4030036946113673,0.007201961662298845,0.0,1.588549434143789,0.03869978265908211,0.0,-0.1855479852666031,-0.048146954781663615,0.0,1.508403386325539,0.004529871797056018,0.0,7.61167781249128e-07,0.00040213914818966554,0.0,,,,,,
2024-08-03 22:09:01.195587,-0.06239328396641319,0.004187515955133906,0.0,-1.4030036946113673,0.007201961662352267,0.0,1.588549434143788,0.03869978265868036,0.0,-0.1855479852666031,-0.04814695478125318,0.0,1.508403386325539,0.004529871797185406,0.0,7.61167781249128e-07,0.00040213914836993584,0.0,,,,,,
2024-08-03 22:09:01.205787,-0.06239328396641319,0.004187515955171894,0.0,-1.4030036946113673,0.007201961662374792,0.0,1.588549434143788,0.03869978265889478,0.0,-0.1855479852666031,-0.04814695478147012,0.0,1.508403386325539,0.004529871797268041,0.0,7.611677803609496e-07,0.00040213914826855556,0.0,,,,,,
2024-08-03 22:09:01.215545,-0.062393283966412305,0.004187515955060168,0.0,-1.4030036946113673,0.007201961662244335,0.0,1.588549434143789,0.03869978265891241,0.0,-0.1855479852666031,-0.048146954781239266,0.0,1.5084033863255382,0.004529871796824806,0.0,7.61167781249128e-07,0.00040213914830178636,0.0,,,,,,
2024-08-03 22:09:01.225768,-0.06239328396641319,0.004187515955098733,0.0,-1.4030036946113673,0.007201961662342113,0.0,1.588549434143788,0.038699782658908735,0.0,-0.1855479852666031,-0.048146954781464316,0.0,1.5084033863255382,0.0045298717970144505,0.0,7.611677821373064e-07,0.00040213914834027944,0.0,,,,,,
2024-08-03 22:09:01.235431,-0.06239328396641319,0.004187515955059926,0.0,-1.4030036946113673,0.007201961662375788,0.0,1.588549434143788,0.038699782658908846,0.0,-0.1855479852666031,-0.04814695478145942,0.0,1.508403386325539,0.004529871796928654,0.0,7.61167781249128e-07,0.00040213914837766316,0.0,,,,,,
2024-08-03 22:09:01.245730,-0.062393283966412305,0.004187515955173389,0.0,-1.4030036946113673,0.007201961662399785,0.0,1.588549434143789,0.03869978265908487,0.0,-0.1855479852666031,-0.04814695478162813,0.0,1.508403386325539,0.004529871797153174,0.0,7.61167781249128e-07,0.00040213914827766026,0.0,,,,,,
2024-08-03 22:09:01.255385,-0.06239328396641319,0.004187515955159463,0.0,-1.4030036946113673,0.007201961662383116,0.0,1.588549434143788,0.03869978265896137,0.0,-0.185547985266604,-0.04814695478166271,0.0,1.508403386325539,0.004529871797156605,0.0,7.61167781249128e-07,0.0004021391483819189,0.0,,,,,,
2024-08-03 22:09:01.265646,-0.062393283966412305,0.004187515955151427,0.0,-1.4030036946113673,0.007201961662263992,0.0,1.588549434143788,0.03869978265909268,0.0,-0.1855479852666031,-0.04814695478169308,0.0,1.508403386325539,0.004529871797000348,0.0,7.611677803609496e-07,0.00040213914839376747,0.0,,,,,,
2024-08-03 22:09:01.275445,-0.06239328396641319,0.004187515955096883,0.0,-1.4030036946113673,0.007201961662341853,0.0,1.588549434143788,0.038699782658968035,0.0,-0.1855479852666031,-0.04814695478159064,0.0,1.508403386325539,0.004529871796912553,0.0,7.611677803609496e-07,0.0004021391482368964,0.0,,,,,,
2024-08-03 22:09:01.285629,-0.06239328396641319,0.004187515955202286,0.0,-1.4030036946113673,0.007201961662379283,0.0,1.588549434143789,0.038699782659029736,0.0,-0.1855479852666031,-0.04814695478167636,0.0,1.508403386325539,0.004529871797084214,0.0,7.611677794727711e-07,0.00040213914852500364,0.0,,,,,,
2024-08-03 22:09:01.295651,-0.06239328396641319,0.004187515955122454,0.0,-1.4030036946113673,0.007201961662287251,0.0,1.588549434143788,0.03869978265907077,0.0,-0.1855479852666031,-0.04814695478156086,0.0,1.508403386325539,0.004529871797173924,0.0,7.61167781249128e-07,0.0004021391482470337,0.0,,,,,,
2024-08-03 22:09:01.305796,-0.06239328396641319,0.004187515955126123,0.0,-1.4030036946113673,0.007201961662338257,0.0,1.588549434143788,0.038699782658999884,0.0,-0.1855479852666031,-0.048146954781711666,0.0,1.50840338632554,0.004529871797320099,0.0,7.611677803609496e-07,0.00040213914838674097,0.0,,,,,,
2024-08-03 22:09:01.315555,-0.06239328396641319,0.0041875159550201655,0.0,-1.4030036946113682,0.007201961662096192,0.0,1.588549434143788,0.038699782659257304,0.0,-0.1855479852666022,-0.048146954781646475,0.0,1.508403386325539,0.004529871796966521,0.0,7.61167781249128e-07,0.00040213914827456855,0.0,,,,,,
2024-08-03 22:09:01.325921,-0.06239328396641319,0.004187515955101667,0.0,-1.4030036946113673,0.007201961662350695,0.0,1.588549434143788,0.038699782658926166,0.0,-0.1855479852666031,-0.04814695478151501,0.0,1.508403386325539,0.004529871797095417,0.0,7.611677821373064e-07,0.0004021391482653476,0.0,,,,,,
2024-08-03 22:09:01.335601,-0.06239328396641319,0.0041875159551525406,0.0,-1.4030036946113673,0.00720196166245792,0.0,1.588549434143788,0.038699782658816115,0.0,-0.1855479852666031,-0.04814695478176419,0.0,1.508403386325539,0.004529871797097702,0.0,7.61167781249128e-07,0.0004021391481934828,0.0,,,,,,
2024-08-03 22:09:01.345929,-0.06239328396641319,0.004187515955190034,0.0,-1.4030036946113673,0.007201961662338216,0.0,1.588549434143789,0.03869978265907364,0.0,-0.1855479852666031,-0.04814695478186855,0.0,1.508403386325539,0.004529871797122766,0.0,7.61167781249128e-07,0.00040213914858198627,0.0,,,,,,
2024-08-03 22:09:01.355650,-0.06239328396641319,0.004187515955166165,0.0,-1.4030036946113673,0.007201961662463624,0.0,1.588549434143788,0.03869978265898548,0.0,-0.1855479852666031,-0.04814695478162778,0.0,1.508403386325539,0.004529871797030373,0.0,7.61167781249128e-07,0.0004021391483274286,0.0,,,,,,
2024-08-03 22:09:01.365928,-0.06239328396641319,0.004187515955154854,0.0,-1.4030036946113673,0.007201961662519745,0.0,1.588549434143788,0.038699782658725396,0.0,-0.1855479852666031,-0.048146954781749504,0.0,1.508403386325539,0.0045298717970088005,0.0,7.611677803609496e-07,0.0004021391483491838,0.0,,,,,,
2024-08-03 22:09:01.375742,-0.062393283966412305,0.00418751595515734,0.0,-1.4030036946113673,0.007201961662463226,0.0,1.588549434143788,0.03869978265883543,0.0,-0.1855479852666031,-0.048146954781557415,0.0,1.508403386325539,0.004529871797026906,0.0,7.61167781249128e-07,0.00040213914834613326,0.0,,,,,,
2024-08-03 22:09:01.386126,-0.06239328396641319,0.00418751595520956,0.0,-1.4030036946113673,0.007201961662387773,0.0,1.588549434143789,0.03869978265907923,0.0,-0.1855479852666031,-0.04814695478174155,0.0,1.508403386325539,0.004529871797154453,0.0,7.611677821373064e-07,0.00040213914832492583,0.0,,,,,,
2024-08-03 22:09:01.396282,-0.06239328396641319,0.004187515955093199,0.0,-1.4030036946113673,0.007201961662294465,0.0,1.588549434143788,0.03869978265888428,0.0,-0.1855479852666031,-0.04814695478139747,0.0,1.508403386325539,0.0045298717968703444,0.0,7.611677803609496e-07,0.00040213914814772513,0.0,,,,,,
2024-08-03 22:09:01.405979,-0.06239328396641319,0.0041875159550845914,0.0,-1.4030036946113673,0.007201961662321045,0.0,1.588549434143788,0.038699782658908555,0.0,-0.1855479852666031,-0.048146954781516205,0.0,1.5084033863255382,0.004529871796976673,0.0,7.611677803609496e-07,0.0004021391482906577,0.0,,,,,,
2024-08-03 22:09:01.416245,-0.06239328396641319,0.0041875159551448314,0.0,-1.4030036946113673,0.007201961662339421,0.0,1.588549434143788,0.03869978265902491,0.0,-0.1855479852666031,-0.04814695478164188,0.0,1.508403386325539,0.004529871797194837,0.0,7.61167781249128e-07,0.00040213914840902826,0.0,,,,,,
2024-08-03 22:09:01.425850,-0.06239328396641319,0.0041875159551009004,0.0,-1.4030036946113673,0.007201961662222855,0.0,1.588549434143788,0.0386997826590318,0.0,-0.1855479852666031,-0.04814695478154936,0.0,1.508403386325539,0.004529871797094497,0.0,7.611677803609496e-07,0.0004021391483519693,0.0,,,,,,
2024-08-03 22:09:01.436095,-0.06239328396641319,0.004187515955129796,0.0,-1.4030036946113673,0.007201961662301616,0.0,1.588549434143788,0.03869978265910577,0.0,-0.1855479852666031,-0.04814695478166542,0.0,1.5084033863255382,0.0045298717971312625,0.0,7.61167781249128e-07,0.00040213914820982,0.0,,,,,,
2024-08-03 22:09:01.445883,-0.06239328396641319,0.004187515955131309,0.0,-1.4030036946113673,0.007201961662385064,0.0,1.588549434143789,0.03869978265893199,0.0,-0.1855479852666031,-0.04814695478155559,0.0,1.5084033863255382,0.004529871797072883,0.0,7.61167781249128e-07,0.00040213914820566533,0.0,,,,,,
2024-08-03 22:09:01.456082,-0.06239328396641319,0.0041875159551346,0.0,-1.4030036946113673,0.007201961662403878,0.0,1.588549434143788,0.03869978265880876,0.0,-0.1855479852666031,-0.04814695478144579,0.0,1.508403386325539,0.004529871797039008,0.0,7.61167781249128e-07,0.0004021391482873383,0.0,,,,,,
2024-08-03 22:09:01.465827,-0.062393283966412305,0.004187515955118284,0.0,-1.4030036946113673,0.007201961662399496,0.0,1.588549434143788,0.038699782658938656,0.0,-0.1855479852666031,-0.0481469547815856,0.0,1.508403386325539,0.0045298717969444145,0.0,7.61167781249128e-07,0.00040213914825649316,0.0,,,,,,
2024-08-03 22:09:01.476105,-0.062393283966412305,0.004187515955089556,0.0,-1.4030036946113673,0.0072019616623165555,0.0,1.588549434143788,0.03869978265903515,0.0,-0.1855479852666031,-0.04814695478160399,0.0,1.508403386325539,0.0045298717969865475,0.0,7.61167781249128e-07,0.0004021391483039964,0.0,,,,,,
2024-08-03 22:09:01.486250,-0.06239328396641319,0.004187515955167642,0.0,-1.4030036946113673,0.007201961662382045,0.0,1.588549434143788,0.03869978265886196,0.0,-0.1855479852666031,-0.048146954781482065,0.0,1.508403386325539,0.004529871797245423,0.0,7.611677821373064e-07,0.0004021391484411458,0.0,,,,,,
2024-08-03 22:09:01.496048,-0.06239328396641319,0.004187515955045306,0.0,-1.4030036946113673,0.007201961662209482,0.0,1.588549434143788,0.0386997826589833,0.0,-0.185547985266604,-0.04814695478135619,0.0,1.508403386325539,0.004529871797034334,0.0,7.61167781249128e-07,0.00040213914822030596,0.0,,,,,,
2024-08-03 22:09:01.506367,-0.06239328396641319,0.004187515955144952,0.0,-1.4030036946113673,0.007201961662345078,0.0,1.588549434143789,0.038699782658990496,0.0,-0.1855479852666031,-0.04814695478158196,0.0,1.5084033863255382,0.004529871796939756,0.0,7.61167781249128e-07,0.0004021391482847375,0.0,,,,,,
2024-08-03 22:09:01.516118,-0.06239328396641319,0.004187515955175924,0.0,-1.4030036946113673,0.007201961662425351,0.0,1.588549434143788,0.038699782658877954,0.0,-0.1855479852666031,-0.04814695478163405,0.0,1.508403386325539,0.004529871797010587,0.0,7.61167781249128e-07,0.0004021391485489593,0.0,,,,,,
2024-08-03 22:09:01.526388,-0.06239328396641319,0.004187515955156924,0.0,-1.4030036946113673,0.00720196166237264,0.0,1.588549434143788,0.03869978265880488,0.0,-0.1855479852666031,-0.04814695478154051,0.0,1.508403386325539,0.004529871797068246,0.0,7.611677803609496e-07,0.00040213914832798545,0.0,,,,,,
2024-08-03 22:09:01.536045,-0.06239328396641319,0.004187515955111437,0.0,-1.4030036946113673,0.007201961662373993,0.0,1.588549434143788,0.03869978265893585,0.0,-0.1855479852666031,-0.0481469547817982,0.0,1.5084033863255382,0.0045298717970867295,0.0,7.611677803609496e-07,0.0004021391483568998,0.0,,,,,,
2024-08-03 22:09:01.546391,-0.06239328396641319,0.004187515955196611,0.0,-1.4030036946113673,0.007201961662323248,0.0,1.588549434143788,0.038699782658887266,0.0,-0.1855479852666031,-0.04814695478146126,0.0,1.508403386325539,0.004529871797182235,0.0,7.611677821373064e-07,0.0004021391483474946,0.0,,,,,,
2024-08-03 22:09:01.555896,-0.06239328396641319,0.004187515955113409,0.0,-1.4030036946113673,0.007201961662339539,0.0,1.588549434143788,0.038699782658869884,0.0,-0.185547985266604,-0.04814695478146135,0.0,1.508403386325539,0.004529871796915903,0.0,7.611677803609496e-07,0.0004021391483606854,0.0,,,,,,
2024-08-03 22:09:01.566281,-0.06239328396641319,0.004187515955069054,0.0,-1.4030036946113673,0.007201961662335001,0.0,1.588549434143788,0.03869978265882013,0.0,-0.1855479852666031,-0.048146954781446115,0.0,1.508403386325539,0.004529871796950176,0.0,7.61167781249128e-07,0.00040213914826605236,0.0,,,,,,
2024-08-03 22:09:01.576125,-0.06239328396641319,0.0041875159551494215,0.0,-1.4030036946113673,0.007201961662277403,0.0,1.588549434143789,0.03869978265899316,0.0,-0.1855479852666022,-0.04814695478154791,0.0,1.508403386325539,0.004529871797057902,0.0,7.611677794727711e-07,0.00040213914839010764,0.0,,,,,,
2024-08-03 22:09:01.586354,-0.06239328396641319,0.004187515955145969,0.0,-1.4030036946113673,0.00720196166245618,0.0,1.588549434143788,0.038699782658796415,0.0,-0.185547985266604,-0.04814695478155555,0.0,1.5084033863255382,0.004529871797004689,0.0,7.611677794727711e-07,0.0004021391485514395,0.0,,,,,,
2024-08-03 22:09:01.596024,-0.06239328396641319,0.004187515955191149,0.0,-1.4030036946113673,0.007201961662354249,0.0,1.588549434143788,0.03869978265894784,0.0,-0.1855479852666031,-0.048146954781557165,0.0,1.508403386325539,0.004529871796948743,0.0,7.611677803609496e-07,0.00040213914843548063,0.0,,,,,,
2024-08-03 22:09:01.606249,-0.06239328396641319,0.00418751595518432,0.0,-1.4030036946113673,0.007201961662348671,0.0,1.588549434143788,0.0386997826588303,0.0,-0.1855479852666031,-0.04814695478135658,0.0,1.508403386325539,0.0045298717972098185,0.0,7.611677803609496e-07,0.000402139148337794,0.0,,,,,,
2024-08-03 22:09:01.615922,-0.06239328396641319,0.004187515955198778,0.0,-1.4030036946113673,0.007201961662258498,0.0,1.588549434143788,0.038699782658915244,0.0,-0.1855479852666031,-0.04814695478140823,0.0,1.508403386325539,0.0045298717973418536,0.0,7.61167781249128e-07,0.0004021391482467167,0.0,,,,,,
2024-08-03 22:09:01.626240,-0.06239328396641319,0.0041875159550941055,0.0,-1.4030036946113673,0.007201961662287778,0.0,1.588549434143788,0.03869978265897164,0.0,-0.1855479852666031,-0.0481469547815152,0.0,1.5084033863255382,0.004529871797204982,0.0,7.61167781249128e-07,0.0004021391484257341,0.0,,,,,,
2024-08-03 22:09:01.636436,-0.06239328396641319,0.004187515955186039,0.0,-1.4030036946113673,0.007201961662384352,0.0,1.588549434143788,0.03869978265880729,0.0,-0.1855479852666031,-0.048146954781437844,0.0,1.508403386325539,0.004529871796931635,0.0,7.61167781249128e-07,0.00040213914841663286,0.0,,,,,,
2024-08-03 22:09:01.646272,-0.06239328396641319,0.004187515955147344,0.0,-1.4030036946113673,0.007201961662481599,0.0,1.588549434143788,0.038699782658809224,0.0,-0.18554798526660488,-0.04814695478169946,0.0,1.5084033863255382,0.004529871797028236,0.0,7.611677794727711e-07,0.0004021391483852682,0.0,,,,,,
2024-08-03 22:09:01.655940,-0.06239328396641319,0.004187515955133581,0.0,-1.4030036946113673,0.007201961662468884,0.0,1.588549434143788,0.038699782658770665,0.0,-0.1855479852666031,-0.048146954781599645,0.0,1.508403386325539,0.004529871797083871,0.0,7.61167781249128e-07,0.00040213914819974775,0.0,,,,,,
2024-08-03 22:09:01.666124,-0.06239328396641319,0.004187515955138769,0.0,-1.4030036946113673,0.007201961662415249,0.0,1.588549434143788,0.03869978265895098,0.0,-0.1855479852666031,-0.04814695478161898,0.0,1.5084033863255382,0.004529871797018701,0.0,7.611677803609496e-07,0.00040213914825302935,0.0,,,,,,
2024-08-03 22:09:01.676364,-0.06239328396641319,0.004187515955103686,0.0,-1.4030036946113673,0.007201961662434861,0.0,1.588549434143788,0.03869978265893978,0.0,-0.1855479852666031,-0.04814695478170151,0.0,1.508403386325539,0.004529871797225656,0.0,7.611677803609496e-07,0.0004021391482110586,0.0,,,,,,
2024-08-03 22:09:01.686082,-0.06239328396641319,0.004187515955152203,0.0,-1.4030036946113673,0.007201961662321537,0.0,1.588549434143788,0.03869978265916348,0.0,-0.185547985266604,-0.048146954781748484,0.0,1.508403386325539,0.004529871796995145,0.0,7.611677803609496e-07,0.0004021391482826385,0.0,,,,,,
2024-08-03 22:09:01.696452,-0.06239328396641319,0.004187515955136797,0.0,-1.4030036946113673,0.0072019616623166674,0.0,1.588549434143789,0.038699782659111046,0.0,-0.185547985266604,-0.048146954781665516,0.0,1.508403386325539,0.004529871797129187,0.0,7.61167781249128e-07,0.00040213914833971,0.0,,,,,,
2024-08-03 22:09:01.706127,-0.062393283966412305,0.004187515955206012,0.0,-1.4030036946113673,0.007201961662412052,0.0,1.588549434143788,0.03869978265904788,0.0,-0.1855479852666031,-0.0481469547816965,0.0,1.508403386325539,0.00452987179721419,0.0,7.611677821373064e-07,0.0004021391484355999,0.0,,,,,,
2024-08-03 22:09:01.716406,-0.06239328396641319,0.004187515955107711,0.0,-1.4030036946113673,0.0072019616622614625,0.0,1.588549434143788,0.03869978265899588,0.0,-0.1855479852666031,-0.04814695478148916,0.0,1.508403386325539,0.0045298717972055485,0.0,7.611677821373064e-07,0.00040213914826160626,0.0,,,,,,
2024-08-03 22:09:01.726044,-0.06239328396641319,0.004187515955130886,0.0,-1.4030036946113673,0.007201961662325276,0.0,1.588549434143789,0.03869978265900785,0.0,-0.1855479852666031,-0.04814695478152745,0.0,1.508403386325539,0.0045298717972087925,0.0,7.61167781249128e-07,0.00040213914838981837,0.0,,,,,,
2024-08-03 22:09:01.736371,-0.06239328396641319,0.004187515955153475,0.0,-1.4030036946113673,0.0072019616623398034,0.0,1.588549434143788,0.038699782659008086,0.0,-0.1855479852666031,-0.04814695478180494,0.0,1.508403386325539,0.004529871797110789,0.0,7.611677803609496e-07,0.0004021391484105275,0.0,,,,,,
2024-08-03 22:09:01.745981,-0.06239328396641319,0.004187515955173428,0.0,-1.4030036946113673,0.007201961662494431,0.0,1.588549434143788,0.0386997826587716,0.0,-0.1855479852666031,-0.04814695478152867,0.0,1.508403386325539,0.004529871797141692,0.0,7.61167781249128e-07,0.0004021391484208153,0.0,,,,,,
2024-08-03 22:09:01.756262,-0.06239328396641319,0.004187515955107902,0.0,-1.4030036946113673,0.007201961662337108,0.0,1.588549434143788,0.03869978265910368,0.0,-0.1855479852666031,-0.04814695478164209,0.0,1.508403386325539,0.0045298717970014,0.0,7.611677794727711e-07,0.0004021391483571557,0.0,,,,,,
2024-08-03 22:09:01.765985,-0.062393283966412305,0.0041875159551437785,0.0,-1.4030036946113673,0.00720196166243912,0.0,1.588549434143788,0.03869978265903372,0.0,-0.1855479852666031,-0.04814695478169005,0.0,1.508403386325539,0.004529871797304393,0.0,7.611677803609496e-07,0.0004021391482576732,0.0,,,,,,
2024-08-03 22:09:01.776237,-0.06239328396641319,0.004187515955203835,0.0,-1.4030036946113673,0.007201961662387558,0.0,1.588549434143788,0.038699782658752915,0.0,-0.1855479852666031,-0.04814695478133688,0.0,1.508403386325539,0.004529871797323923,0.0,7.611677821373064e-07,0.0004021391483986412,0.0,,,,,,
2024-08-03 22:09:01.786034,-0.06239328396641319,0.0041875159551837,0.0,-1.4030036946113673,0.007201961662359188,0.0,1.588549434143788,0.038699782658976944,0.0,-0.185547985266604,-0.048146954781675466,0.0,1.508403386325539,0.0045298717972708635,0.0,7.61167781249128e-07,0.0004021391482873977,0.0,,,,,,
2024-08-03 22:09:01.796215,-0.06239328396641319,0.004187515955135749,0.0,-1.4030036946113673,0.007201961662313947,0.0,1.588549434143789,0.03869978265895051,0.0,-0.1855479852666031,-0.04814695478152495,0.0,1.508403386325539,0.004529871796895189,0.0,7.61167781249128e-07,0.00040213914842317363,0.0,,,,,,
2024-08-03 22:09:01.805899,-0.06239328396641319,0.004187515955173266,0.0,-1.4030036946113673,0.0072019616624888,0.0,1.588549434143788,0.038699782658809107,0.0,-0.1855479852666031,-0.04814695478150027,0.0,1.508403386325539,0.00452987179720781,0.0,7.611677803609496e-07,0.00040213914836774965,0.0,,,,,,
2024-08-03 22:09:01.816264,-0.06239328396641319,0.00418751595509387,0.0,-1.4030036946113673,0.007201961662333765,0.0,1.588549434143788,0.038699782659005345,0.0,-0.1855479852666031,-0.04814695478146512,0.0,1.508403386325539,0.00452987179719343,0.0,7.611677803609496e-07,0.0004021391482663,0.0,,,,,,
2024-08-03 22:09:01.826410,-0.06239328396641319,0.004187515955141277,0.0,-1.4030036946113673,0.007201961662236785,0.0,1.588549434143789,0.03869978265902829,0.0,-0.185547985266604,-0.048146954781495666,0.0,1.5084033863255382,0.004529871796941155,0.0,7.611677803609496e-07,0.00040213914832453335,0.0,,,,,,
2024-08-03 22:09:01.836150,-0.06239328396641319,0.004187515955105311,0.0,-1.4030036946113673,0.007201961662275855,0.0,1.588549434143788,0.03869978265910864,0.0,-0.1855479852666031,-0.04814695478159226,0.0,1.5084033863255382,0.004529871797165391,0.0,7.611677803609496e-07,0.000402139148297234,0.0,,,,,,
2024-08-03 22:09:01.846331,-0.06239328396641319,0.004187515955156414,0.0,-1.4030036946113673,0.007201961662294103,0.0,1.588549434143788,0.03869978265914051,0.0,-0.1855479852666031,-0.04814695478158349,0.0,1.508403386325539,0.0045298717970699166,0.0,7.611677803609496e-07,0.0004021391482115625,0.0,,,,,,
2024-08-03 22:09:01.856049,-0.06239328396641319,0.004187515955178946,0.0,-1.4030036946113673,0.007201961662352038,0.0,1.588549434143788,0.03869978265888363,0.0,-0.1855479852666031,-0.04814695478153258,0.0,1.508403386325539,0.004529871797071028,0.0,7.61167781249128e-07,0.00040213914829433355,0.0,,,,,,
2024-08-03 22:09:01.866394,-0.06239328396641319,0.0041875159552070594,0.0,-1.4030036946113673,0.007201961662406015,0.0,1.588549434143788,0.038699782659023525,0.0,-0.1855479852666031,-0.0481469547817961,0.0,1.50840338632554,0.004529871797102394,0.0,7.611677803609496e-07,0.0004021391484160643,0.0,,,,,,
2024-08-03 22:09:01.876396,-0.06239328396641408,0.004187515955044364,0.0,-1.4030036946113673,0.007201961662317388,0.0,1.588549434143788,0.038699782659009106,0.0,-0.1855479852666031,-0.04814695478161737,0.0,1.508403386325539,0.004529871797181079,0.0,7.611677803609496e-07,0.00040213914820296393,0.0,,,,,,
2024-08-03 22:09:01.886022,-0.06239328396641319,0.004187515955150115,0.0,-1.4030036946113673,0.00720196166225082,0.0,1.588549434143788,0.03869978265900659,0.0,-0.1855479852666031,-0.04814695478147769,0.0,1.508403386325539,0.004529871797313171,0.0,7.611677803609496e-07,0.000402139148292977,0.0,,,,,,
2024-08-03 22:09:01.896480,-0.06239328396641319,0.004187515955120119,0.0,-1.4030036946113673,0.007201961662338298,0.0,1.588549434143788,0.03869978265910055,0.0,-0.1855479852666031,-0.04814695478169546,0.0,1.508403386325539,0.004529871797157547,0.0,7.611677803609496e-07,0.0004021391483894402,0.0,,,,,,
2024-08-03 22:09:01.906050,-0.06239328396641319,0.00418751595514308,0.0,-1.4030036946113673,0.007201961662310281,0.0,1.588549434143788,0.03869978265907155,0.0,-0.1855479852666031,-0.0481469547817556,0.0,1.5084033863255382,0.0045298717967957956,0.0,7.611677803609496e-07,0.0004021391484397732,0.0,,,,,,
2024-08-03 22:09:01.916245,-0.06239328396641408,0.004187515955097498,0.0,-1.4030036946113673,0.007201961662258418,0.0,1.588549434143788,0.03869978265904849,0.0,-0.1855479852666031,-0.04814695478153595,0.0,1.508403386325539,0.004529871796958935,0.0,7.611677803609496e-07,0.0004021391483219573,0.0,,,,,,
2024-08-03 22:09:01.925929,-0.06239328396641319,0.004187515955137458,0.0,-1.4030036946113673,0.0072019616623989514,0.0,1.588549434143788,0.03869978265893454,0.0,-0.1855479852666031,-0.048146954781664,0.0,1.5084033863255382,0.004529871797102189,0.0,7.611677803609496e-07,0.00040213914838857934,0.0,,,,,,
2024-08-03 22:09:01.936151,-0.06239328396641319,0.004187515955139317,0.0,-1.4030036946113673,0.007201961662397232,0.0,1.588549434143788,0.03869978265889017,0.0,-0.1855479852666031,-0.048146954781589486,0.0,1.508403386325539,0.0045298717968768705,0.0,7.61167781249128e-07,0.00040213914841372633,0.0,,,,,,
2024-08-03 22:09:01.946342,-0.06239328396641408,0.004187515955109371,0.0,-1.4030036946113673,0.007201961662399934,0.0,1.588549434143788,0.03869978265888962,0.0,-0.1855479852666031,-0.048146954781562,0.0,1.5084033863255382,0.004529871797030083,0.0,7.611677821373064e-07,0.0004021391482872229,0.0,,,,,,
2024-08-03 22:09:01.956227,-0.06239328396641319,0.0041875159551442945,0.0,-1.4030036946113673,0.007201961662361824,0.0,1.588549434143788,0.03869978265881745,0.0,-0.1855479852666031,-0.04814695478135577,0.0,1.508403386325539,0.004529871797192042,0.0,7.611677821373064e-07,0.0004021391481363254,0.0,,,,,,
2024-08-03 22:09:01.966273,-0.06239328396641319,0.004187515955141566,0.0,-1.4030036946113673,0.00720196166241431,0.0,1.588549434143788,0.03869978265879641,0.0,-0.185547985266604,-0.04814695478142105,0.0,1.508403386325539,0.004529871797096532,0.0,7.611677803609496e-07,0.0004021391482325223,0.0,,,,,,
2024-08-03 22:09:01.975994,-0.06239328396641319,0.004187515955207151,0.0,-1.4030036946113673,0.007201961662360154,0.0,1.588549434143788,0.03869978265879379,0.0,-0.1855479852666031,-0.04814695478138302,0.0,1.50840338632554,0.004529871797305188,0.0,7.611677821373064e-07,0.00040213914835956653,0.0,,,,,,
2024-08-03 22:09:01.986182,-0.06239328396641319,0.004187515955099693,0.0,-1.4030036946113682,0.0072019616623557655,0.0,1.588549434143788,0.0386997826590016,0.0,-0.1855479852666031,-0.04814695478155717,0.0,1.508403386325539,0.004529871797184084,0.0,7.611677803609496e-07,0.0004021391482639338,0.0,,,,,,
2024-08-03 22:09:01.996352,-0.06239328396641319,0.004187515955091706,0.0,-1.4030036946113673,0.007201961662262231,0.0,1.588549434143788,0.03869978265912847,0.0,-0.1855479852666031,-0.04814695478150948,0.0,1.5084033863255382,0.004529871797067608,0.0,7.611677821373064e-07,0.0004021391484173493,0.0,,,,,,
2024-08-03 22:09:02.006234,-0.06239328396641319,0.004187515955079231,0.0,-1.4030036946113673,0.007201961662286063,0.0,1.588549434143788,0.03869978265896528,0.0,-0.1855479852666031,-0.048146954781461325,0.0,1.508403386325539,0.004529871797035104,0.0,7.611677803609496e-07,0.00040213914826365844,0.0,,,,,,
2024-08-03 22:09:02.016318,-0.06239328396641319,0.004187515955148792,0.0,-1.4030036946113673,0.007201961662344726,0.0,1.588549434143789,0.038699782658999385,0.0,-0.1855479852666031,-0.048146954781502896,0.0,1.508403386325539,0.0045298717972049015,0.0,7.61167781249128e-07,0.0004021391483671113,0.0,,,,,,
2024-08-03 22:09:02.026080,-0.06239328396641319,0.004187515955183977,0.0,-1.4030036946113673,0.007201961662375812,0.0,1.588549434143788,0.038699782659135366,0.0,-0.1855479852666031,-0.04814695478162514,0.0,1.508403386325539,0.004529871797168365,0.0,7.611677803609496e-07,0.00040213914838909586,0.0,,,,,,
2024-08-03 22:09:02.036254,-0.062393283966412305,0.00418751595514431,0.0,-1.4030036946113673,0.007201961662399259,0.0,1.588549434143788,0.03869978265887315,0.0,-0.1855479852666031,-0.04814695478153595,0.0,1.508403386325539,0.004529871797003043,0.0,7.611677794727711e-07,0.0004021391484143725,0.0,,,,,,
2024-08-03 22:09:02.045892,-0.06239328396641319,0.004187515955149125,0.0,-1.4030036946113673,0.00720196166233472,0.0,1.588549434143788,0.03869978265895502,0.0,-0.18554798526660488,-0.0481469547815203,0.0,1.508403386325539,0.004529871796946627,0.0,7.61167781249128e-07,0.0004021391483512403,0.0,,,,,,
2024-08-03 22:09:02.056287,-0.06239328396641319,0.004187515955121212,0.0,-1.4030036946113682,0.007201961662222738,0.0,1.588549434143789,0.03869978265904385,0.0,-0.1855479852666031,-0.048146954781464434,0.0,1.508403386325539,0.004529871797176715,0.0,7.611677821373064e-07,0.0004021391483020162,0.0,,,,,,
2024-08-03 22:09:02.065827,-0.06239328396641319,0.004187515955173377,0.0,-1.4030036946113673,0.007201961662175181,0.0,1.588549434143789,0.03869978265906394,0.0,-0.1855479852666031,-0.048146954781323976,0.0,1.508403386325539,0.00452987179714261,0.0,7.61167781249128e-07,0.0004021391482884264,0.0,,,,,,
2024-08-03 22:09:02.075996,-0.06239328396641319,0.004187515955099276,0.0,-1.4030036946113673,0.007201961662353377,0.0,1.588549434143788,0.03869978265887928,0.0,-0.1855479852666031,-0.04814695478139217,0.0,1.508403386325539,0.004529871797228199,0.0,7.61167781249128e-07,0.00040213914832043073,0.0,,,,,,
2024-08-03 22:09:02.086168,-0.06239328396641408,0.0041875159551486235,0.0,-1.4030036946113673,0.0072019616622480895,0.0,1.588549434143788,0.038699782659172566,0.0,-0.1855479852666031,-0.04814695478169959,0.0,1.508403386325539,0.004529871796941119,0.0,7.61167781249128e-07,0.00040213914834422897,0.0,,,,,,
2024-08-03 22:09:02.096003,-0.06239328396641319,0.004187515955132809,0.0,-1.4030036946113673,0.007201961662314376,0.0,1.588549434143788,0.038699782658843225,0.0,-0.1855479852666031,-0.04814695478149251,0.0,1.50840338632554,0.004529871797229276,0.0,7.611677803609496e-07,0.00040213914827038916,0.0,,,,,,
2024-08-03 22:09:02.106372,-0.06239328396641319,0.004187515955143947,0.0,-1.4030036946113673,0.007201961662338078,0.0,1.588549434143788,0.038699782658898355,0.0,-0.1855479852666031,-0.048146954781416465,0.0,1.508403386325539,0.004529871796954677,0.0,7.611677803609496e-07,0.00040213914822825967,0.0,,,,,,
2024-08-03 22:09:02.116422,-0.06239328396641319,0.004187515955246822,0.0,-1.4030036946113673,0.0072019616624876505,0.0,1.588549434143788,0.03869978265889383,0.0,-0.1855479852666031,-0.04814695478170242,0.0,1.508403386325539,0.004529871797276222,0.0,7.611677803609496e-07,0.0004021391485061394,0.0,,,,,,
2024-08-03 22:09:02.126466,-0.06239328396641319,0.004187515955217717,0.0,-1.4030036946113673,0.007201961662366819,0.0,1.588549434143788,0.03869978265902049,0.0,-0.1855479852666031,-0.04814695478160786,0.0,1.508403386325539,0.004529871797177898,0.0,7.611677803609496e-07,0.00040213914838806456,0.0,,,,,,
2024-08-03 22:09:02.136207,-0.062393283966412305,0.004187515955096161,0.0,-1.4030036946113673,0.007201961662382006,0.0,1.588549434143788,0.038699782658740675,0.0,-0.1855479852666031,-0.04814695478130418,0.0,1.508403386325539,0.0045298717970439495,0.0,7.611677821373064e-07,0.00040213914828785,0.0,,,,,,
2024-08-03 22:09:02.146487,-0.06239328396641319,0.004187515955145356,0.0,-1.4030036946113673,0.007201961662357453,0.0,1.588549434143788,0.03869978265887516,0.0,-0.1855479852666031,-0.048146954781453144,0.0,1.508403386325539,0.004529871797113372,0.0,7.61167781249128e-07,0.00040213914841176566,0.0,,,,,,
2024-08-03 22:09:02.156617,-0.06239328396641319,0.004187515955125308,0.0,-1.4030036946113673,0.007201961662388966,0.0,1.588549434143788,0.03869978265890517,0.0,-0.1855479852666031,-0.04814695478165081,0.0,1.5084033863255382,0.004529871797079391,0.0,7.61167781249128e-07,0.00040213914829950433,0.0,,,,,,
2024-08-03 22:09:02.166717,-0.06239328396641319,0.004187515955114106,0.0,-1.4030036946113673,0.007201961662427253,0.0,1.588549434143788,0.03869978265888893,0.0,-0.1855479852666031,-0.04814695478165841,0.0,1.508403386325539,0.0045298717970922355,0.0,7.611677803609496e-07,0.0004021391482789214,0.0,,,,,,
2024-08-03 22:09:02.180926,-0.062393283966412305,0.004187515955143374,0.0,-1.4030036946113673,0.007201961662367516,0.0,1.588549434143789,0.038699782658941306,0.0,-0.1855479852666031,-0.04814695478156063,0.0,1.5084033863255382,0.004529871796855617,0.0,7.61167781249128e-07,0.0004021391482736201,0.0,,,,,,
2024-08-03 22:09:02.190658,-0.06239328396641319,0.00418751595521752,0.0,-1.4030036946113673,0.007201961662408497,0.0,1.588549434143788,0.03869978265886066,0.0,-0.1855479852666031,-0.04814695478161715,0.0,1.508403386325539,0.004529871797325312,0.0,7.611677821373064e-07,0.00040213914839261605,0.0,,,,,,
2024-08-03 22:09:02.200508,-0.06239328396641319,0.004187515955237712,0.0,-1.4030036946113673,0.0072019616623712505,0.0,1.588549434143788,0.03869978265884945,0.0,-0.185547985266604,-0.04814695478155872,0.0,1.508403386325539,0.004529871797123311,0.0,7.611677794727711e-07,0.0004021391482818947,0.0,,,,,,
2024-08-03 22:09:02.210234,-0.06239328396641319,0.004187515955194031,0.0,-1.4030036946113673,0.0072019616623683795,0.0,1.588549434143788,0.03869978265900162,0.0,-0.1855479852666031,-0.048146954781592616,0.0,1.508403386325539,0.004529871797068272,0.0,7.611677803609496e-07,0.00040213914843960277,0.0,,,,,,
2024-08-03 22:09:02.219371,-0.062393283966412305,0.004187515955119385,0.0,-1.4030036946113673,0.007201961662349387,0.0,1.588549434143789,0.03869978265888402,0.0,-0.185547985266604,-0.04814695478164557,0.0,1.508403386325539,0.004529871796964705,0.0,7.61167781249128e-07,0.0004021391483549478,0.0,,,,,,
2024-08-03 22:09:02.229572,-0.06239328396641408,0.004187515955076916,0.0,-1.4030036946113673,0.0072019616621916225,0.0,1.588549434143788,0.03869978265907356,0.0,-0.185547985266604,-0.04814695478156096,0.0,1.5084033863255382,0.004529871796989637,0.0,7.61167781249128e-07,0.0004021391482295247,0.0,,,,,,
2024-08-03 22:09:02.239202,-0.06239328396641319,0.004187515955162934,0.0,-1.4030036946113673,0.007201961662286422,0.0,1.588549434143788,0.03869978265910487,0.0,-0.1855479852666031,-0.04814695478183502,0.0,1.50840338632554,0.004529871797188268,0.0,7.61167781249128e-07,0.0004021391483995762,0.0,,,,,,
2024-08-03 22:09:02.248926,-0.06239328396641319,0.004187515955141742,0.0,-1.4030036946113673,0.007201961662380468,0.0,1.588549434143788,0.03869978265891972,0.0,-0.1855479852666031,-0.04814695478163658,0.0,1.508403386325539,0.004529871797159039,0.0,7.611677803609496e-07,0.0004021391482992437,0.0,,,,,,
2024-08-03 22:09:02.258581,-0.06239328396641319,0.004187515955171725,0.0,-1.4030036946113673,0.007201961662296318,0.0,1.588549434143788,0.03869978265891362,0.0,-0.1855479852666031,-0.04814695478149097,0.0,1.508403386325539,0.004529871797179231,0.0,7.611677821373064e-07,0.0004021391483375134,0.0,,,,,,
2024-08-03 22:09:02.268562,-0.06239328396641319,0.004187515955160431,0.0,-1.4030036946113673,0.007201961662310168,0.0,1.588549434143788,0.03869978265907101,0.0,-0.1855479852666031,-0.048146954781733975,0.0,1.508403386325539,0.004529871797122616,0.0,7.611677803609496e-07,0.00040213914833516417,0.0,,,,,,
2024-08-03 22:09:02.278409,-0.06239328396641319,0.004187515955119824,0.0,-1.4030036946113673,0.0072019616623088065,0.0,1.588549434143788,0.03869978265902411,0.0,-0.1855479852666031,-0.048146954781704485,0.0,1.508403386325539,0.0045298717968362484,0.0,7.611677794727711e-07,0.00040213914834035013,0.0,,,,,,
2024-08-03 22:09:02.287880,-0.06239328396641319,0.004187515955156124,0.0,-1.4030036946113673,0.007201961662386792,0.0,1.588549434143789,0.03869978265898634,0.0,-0.1855479852666031,-0.048146954781633035,0.0,1.508403386325539,0.004529871797224706,0.0,7.61167781249128e-07,0.0004021391483340622,0.0,,,,,,
2024-08-03 22:09:02.297660,-0.062393283966412305,0.004187515955131919,0.0,-1.4030036946113673,0.007201961662406543,0.0,1.588549434143788,0.03869978265882042,0.0,-0.1855479852666031,-0.048146954781412336,0.0,1.508403386325539,0.00452987179697046,0.0,7.61167781249128e-07,0.0004021391483229526,0.0,,,,,,
2024-08-03 22:09:02.307900,-0.06239328396641319,0.004187515955104171,0.0,-1.4030036946113673,0.007201961662223813,0.0,1.588549434143789,0.038699782659183626,0.0,-0.185547985266604,-0.04814695478159513,0.0,1.508403386325539,0.004529871796991524,0.0,7.611677803609496e-07,0.00040213914851517773,0.0,,,,,,
2024-08-03 22:09:02.317686,-0.062393283966412305,0.004187515955204717,0.0,-1.4030036946113673,0.007201961662365307,0.0,1.588549434143788,0.0386997826590173,0.0,-0.1855479852666031,-0.048146954781603746,0.0,1.508403386325539,0.004529871797273732,0.0,7.61167781249128e-07,0.00040213914843673657,0.0,,,,,,
2024-08-03 22:09:02.327356,-0.06239328396641319,0.004187515955134577,0.0,-1.4030036946113673,0.0072019616624418616,0.0,1.588549434143788,0.03869978265881485,0.0,-0.1855479852666031,-0.048146954781519674,0.0,1.508403386325539,0.004529871797046839,0.0,7.61167781249128e-07,0.00040213914839809604,0.0,,,,,,
2024-08-03 22:09:02.337573,-0.06239328396641319,0.004187515955212103,0.0,-1.4030036946113673,0.007201961662386315,0.0,1.588549434143788,0.038699782659004096,0.0,-0.1855479852666031,-0.04814695478157419,0.0,1.508403386325539,0.004529871797183286,0.0,7.61167781249128e-07,0.00040213914833067774,0.0,,,,,,
2024-08-03 22:09:02.347306,-0.06239328396641319,0.004187515955134046,0.0,-1.4030036946113673,0.007201961662361356,0.0,1.588549434143788,0.03869978265885162,0.0,-0.1855479852666031,-0.048146954781554493,0.0,1.508403386325539,0.004529871797233366,0.0,7.61167781249128e-07,0.0004021391483041551,0.0,,,,,,
2024-08-03 22:09:02.356927,-0.06239328396641319,0.004187515955201657,0.0,-1.4030036946113673,0.00720196166233807,0.0,1.588549434143788,0.03869978265905281,0.0,-0.1855479852666031,-0.0481469547817505,0.0,1.508403386325539,0.00452987179716675,0.0,7.611677803609496e-07,0.00040213914844872784,0.0,,,,,,
2024-08-03 22:09:02.367353,-0.06239328396641408,0.004187515955104947,0.0,-1.4030036946113673,0.007201961662285501,0.0,1.588549434143788,0.0386997826588616,0.0,-0.1855479852666031,-0.04814695478150959,0.0,1.508403386325539,0.004529871797192,0.0,7.61167781249128e-07,0.0004021391481884304,0.0,,,,,,
2024-08-03 22:09:02.376961,-0.06239328396641319,0.004187515955148127,0.0,-1.4030036946113673,0.007201961662416059,0.0,1.588549434143788,0.03869978265879049,0.0,-0.1855479852666031,-0.04814695478149545,0.0,1.508403386325539,0.0045298717972768274,0.0,7.611677803609496e-07,0.00040213914836445845,0.0,,,,,,
2024-08-03 22:09:02.387135,-0.06239328396641319,0.004187515955089646,0.0,-1.4030036946113673,0.007201961662422197,0.0,1.588549434143788,0.03869978265870439,0.0,-0.1855479852666031,-0.048146954781504145,0.0,1.508403386325539,0.004529871797112143,0.0,7.611677794727711e-07,0.00040213914813634274,0.0,,,,,,
2024-08-03 22:09:02.396900,-0.06239328396641319,0.004187515955086714,0.0,-1.4030036946113673,0.007201961662358964,0.0,1.588549434143788,0.03869978265906161,0.0,-0.1855479852666031,-0.04814695478155509,0.0,1.50840338632554,0.0045298717972059865,0.0,7.61167781249128e-07,0.00040213914828573236,0.0,,,,,,
2024-08-03 22:09:02.407157,-0.06239328396641319,0.004187515955108271,0.0,-1.4030036946113673,0.007201961662290552,0.0,1.588549434143789,0.038699782659042246,0.0,-0.1855479852666031,-0.04814695478147088,0.0,1.508403386325539,0.004529871796974703,0.0,7.61167781249128e-07,0.00040213914827338893,0.0,,,,,,
2024-08-03 22:09:02.416752,-0.06239328396641319,0.004187515955131961,0.0,-1.4030036946113673,0.0072019616624133965,0.0,1.588549434143788,0.03869978265858522,0.0,-0.1855479852666031,-0.048146954781218165,0.0,1.508403386325539,0.004529871797230221,0.0,7.611677803609496e-07,0.0004021391482899681,0.0,,,,,,
2024-08-03 22:09:02.426942,-0.06239328396641319,0.0041875159551695955,0.0,-1.4030036946113673,0.00720196166234916,0.0,1.588549434143788,0.038699782658974356,0.0,-0.1855479852666031,-0.048146954781548984,0.0,1.508403386325539,0.004529871797153697,0.0,7.61167781249128e-07,0.00040213914840103206,0.0,,,,,,
2024-08-03 22:09:02.436669,-0.06239328396641319,0.004187515955085457,0.0,-1.4030036946113673,0.007201961662407942,0.0,1.588549434143788,0.038699782658853536,0.0,-0.1855479852666031,-0.04814695478145466,0.0,1.508403386325539,0.004529871797082093,0.0,7.611677803609496e-07,0.00040213914841568136,0.0,,,,,,
2024-08-03 22:09:02.446887,-0.06239328396641319,0.004187515955067572,0.0,-1.4030036946113673,0.007201961662453357,0.0,1.588549434143788,0.03869978265881766,0.0,-0.1855479852666031,-0.048146954781527584,0.0,1.508403386325539,0.00452987179692778,0.0,7.611677803609496e-07,0.000402139148368143,0.0,,,,,,
2024-08-03 22:09:02.456605,-0.06239328396641408,0.004187515955085515,0.0,-1.4030036946113673,0.007201961662254152,0.0,1.588549434143788,0.03869978265912444,0.0,-0.185547985266604,-0.048146954781591714,0.0,1.5084033863255382,0.004529871796841939,0.0,7.611677803609496e-07,0.0004021391481969835,0.0,,,,,,
2024-08-03 22:09:02.466871,-0.06239328396641319,0.0041875159551627945,0.0,-1.4030036946113673,0.00720196166224891,0.0,1.588549434143788,0.03869978265916083,0.0,-0.185547985266604,-0.04814695478172821,0.0,1.508403386325539,0.0045298717970648356,0.0,7.611677803609496e-07,0.000402139148479818,0.0,,,,,,
2024-08-03 22:09:02.476496,-0.06239328396641319,0.004187515955123118,0.0,-1.4030036946113673,0.0072019616623446026,0.0,1.588549434143788,0.03869978265904363,0.0,-0.1855479852666031,-0.04814695478165973,0.0,1.508403386325539,0.004529871796830414,0.0,7.611677803609496e-07,0.0004021391485297559,0.0,,,,,,
2024-08-03 22:09:02.486785,-0.06239328396641319,0.004187515955201906,0.0,-1.4030036946113673,0.007201961662375635,0.0,1.588549434143788,0.03869978265892107,0.0,-0.1855479852666031,-0.04814695478160277,0.0,1.508403386325539,0.004529871797227868,0.0,7.611677803609496e-07,0.00040213914849572324,0.0,,,,,,
2024-08-03 22:09:02.496975,-0.06239328396641319,0.004187515955170277,0.0,-1.4030036946113673,0.007201961662461531,0.0,1.588549434143788,0.03869978265876198,0.0,-0.1855479852666031,-0.048146954781487825,0.0,1.50840338632554,0.00452987179710255,0.0,7.61167781249128e-07,0.0004021391483802579,0.0,,,,,,
2024-08-03 22:09:02.506773,-0.06239328396641319,0.004187515955114182,0.0,-1.4030036946113673,0.007201961662488703,0.0,1.588549434143788,0.038699782658642504,0.0,-0.1855479852666031,-0.048146954781392734,0.0,1.5084033863255382,0.0045298717969291,0.0,7.61167781249128e-07,0.00040213914836061777,0.0,,,,,,
2024-08-03 22:09:02.517017,-0.062393283966412305,0.0041875159551104475,0.0,-1.4030036946113673,0.007201961662262833,0.0,1.588549434143788,0.03869978265916872,0.0,-0.1855479852666031,-0.04814695478160344,0.0,1.508403386325539,0.004529871796902233,0.0,7.611677803609496e-07,0.0004021391482603785,0.0,,,,,,
2024-08-03 22:09:02.526668,-0.06239328396641319,0.004187515955085351,0.0,-1.4030036946113673,0.0072019616624166595,0.0,1.588549434143788,0.03869978265875551,0.0,-0.1855479852666031,-0.048146954781407875,0.0,1.508403386325539,0.004529871796806577,0.0,7.611677803609496e-07,0.00040213914832339234,0.0,,,,,,
2024-08-03 22:09:02.536937,-0.06239328396641319,0.004187515955133779,0.0,-1.4030036946113673,0.0072019616622778435,0.0,1.588549434143788,0.038699782659066345,0.0,-0.1855479852666031,-0.04814695478143955,0.0,1.5084033863255382,0.004529871796836247,0.0,7.611677803609496e-07,0.0004021391482981673,0.0,,,,,,
2024-08-03 22:09:02.546502,-0.062393283966412305,0.004187515955092418,0.0,-1.4030036946113673,0.007201961662459482,0.0,1.588549434143788,0.038699782658775946,0.0,-0.1855479852666031,-0.048146954781575706,0.0,1.508403386325539,0.004529871797064141,0.0,7.611677803609496e-07,0.00040213914837185704,0.0,,,,,,
2024-08-03 22:09:02.556775,-0.06239328396641319,0.00418751595521875,0.0,-1.4030036946113673,0.007201961662486286,0.0,1.588549434143788,0.038699782658785854,0.0,-0.1855479852666031,-0.04814695478162366,0.0,1.50840338632554,0.004529871797444103,0.0,7.611677821373064e-07,0.0004021391484566937,0.0,,,,,,
2024-08-03 22:09:02.566621,-0.06239328396641319,0.004187515955210957,0.0,-1.4030036946113673,0.007201961662402157,0.0,1.588549434143788,0.038699782658908964,0.0,-0.1855479852666031,-0.04814695478163849,0.0,1.508403386325539,0.004529871797145589,0.0,7.61167781249128e-07,0.000402139148413771,0.0,,,,,,
2024-08-03 22:09:02.576773,-0.06239328396641319,0.004187515955189537,0.0,-1.4030036946113673,0.0072019616622957475,0.0,1.588549434143789,0.03869978265907678,0.0,-0.185547985266604,-0.04814695478181105,0.0,1.508403386325539,0.00452987179716342,0.0,7.61167781249128e-07,0.0004021391484526427,0.0,,,,,,
2024-08-03 22:09:02.587018,-0.06239328396641408,0.004187515955161339,0.0,-1.4030036946113673,0.007201961662352861,0.0,1.588549434143788,0.038699782658828,0.0,-0.1855479852666031,-0.04814695478159045,0.0,1.50840338632554,0.004529871797186777,0.0,7.611677803609496e-07,0.00040213914852235515,0.0,,,,,,
2024-08-03 22:09:02.596645,-0.06239328396641319,0.004187515955209299,0.0,-1.4030036946113673,0.0072019616624175746,0.0,1.588549434143788,0.03869978265901797,0.0,-0.1855479852666031,-0.04814695478172502,0.0,1.50840338632554,0.004529871797104452,0.0,7.611677803609496e-07,0.00040213914846139176,0.0,,,,,,
2024-08-03 22:09:02.606934,-0.06239328396641408,0.00418751595511399,0.0,-1.4030036946113664,0.00720196166233974,0.0,1.588549434143789,0.03869978265909852,0.0,-0.1855479852666031,-0.048146954781759,0.0,1.50840338632554,0.0045298717971868,0.0,7.61167781249128e-07,0.0004021391482291383,0.0,,,,,,
2024-08-03 22:09:02.616931,-0.06239328396641319,0.004187515955106924,0.0,-1.4030036946113673,0.007201961662300671,0.0,1.588549434143788,0.03869978265901142,0.0,-0.1855479852666031,-0.048146954781482114,0.0,1.508403386325539,0.004529871797258607,0.0,7.611677821373064e-07,0.00040213914840282966,0.0,,,,,,
2024-08-03 22:09:02.626750,-0.06239328396641142,0.004187515955217657,0.0,-1.4030036946113673,0.0072019616624065105,0.0,1.588549434143788,0.038699782658784695,0.0,-0.1855479852666031,-0.048146954781483876,0.0,1.508403386325539,0.004529871797203818,0.0,7.611677830254848e-07,0.0004021391484532169,0.0,,,,,,
2024-08-03 22:09:02.636998,-0.06239328396641319,0.004187515955139539,0.0,-1.4030036946113673,0.007201961662401366,0.0,1.588549434143788,0.03869978265874559,0.0,-0.185547985266604,-0.0481469547815489,0.0,1.508403386325539,0.0045298717972422796,0.0,7.61167781249128e-07,0.0004021391483372337,0.0,,,,,,
2024-08-03 22:09:02.646660,-0.06239328396641319,0.004187515955191618,0.0,-1.4030036946113673,0.007201961662333449,0.0,1.588549434143789,0.03869978265905122,0.0,-0.1855479852666031,-0.04814695478177352,0.0,1.508403386325539,0.004529871797136915,0.0,7.61167781249128e-07,0.0004021391483087786,0.0,,,,,,
2024-08-03 22:09:02.656900,-0.06239328396641319,0.004187515955150006,0.0,-1.4030036946113673,0.007201961662397314,0.0,1.588549434143788,0.038699782658946344,0.0,-0.1855479852666031,-0.04814695478169363,0.0,1.508403386325539,0.004529871797244297,0.0,7.61167781249128e-07,0.0004021391484221987,0.0,,,,,,
2024-08-03 22:09:02.667223,-0.06239328396641319,0.004187515955193521,0.0,-1.4030036946113673,0.007201961662378548,0.0,1.588549434143788,0.038699782658942534,0.0,-0.1855479852666031,-0.048146954781498164,0.0,1.508403386325539,0.004529871797109787,0.0,7.611677803609496e-07,0.00040213914824323424,0.0,,,,,,
2024-08-03 22:09:02.676830,-0.06239328396641319,0.004187515955143206,0.0,-1.4030036946113673,0.0072019616622426,0.0,1.588549434143789,0.038699782659102365,0.0,-0.1855479852666031,-0.04814695478157319,0.0,1.508403386325539,0.004529871797036146,0.0,7.611677803609496e-07,0.000402139148461606,0.0,,,,,,
2024-08-03 22:09:02.687090,-0.06239328396641408,0.00418751595513093,0.0,-1.4030036946113673,0.007201961662352706,0.0,1.588549434143789,0.03869978265904245,0.0,-0.1855479852666031,-0.04814695478166852,0.0,1.508403386325539,0.004529871797340088,0.0,7.61167781249128e-07,0.00040213914821012314,0.0,,,,,,
2024-08-03 22:09:02.696781,-0.06239328396641319,0.004187515955188342,0.0,-1.4030036946113673,0.007201961662407002,0.0,1.588549434143788,0.03869978265894086,0.0,-0.1855479852666031,-0.048146954781716905,0.0,1.508403386325539,0.004529871796950674,0.0,7.611677794727711e-07,0.0004021391483716723,0.0,,,,,,
2024-08-03 22:09:02.707068,-0.06239328396641408,0.004187515955141636,0.0,-1.4030036946113673,0.007201961662429894,0.0,1.588549434143788,0.038699782658930273,0.0,-0.185547985266604,-0.04814695478155139,0.0,1.508403386325539,0.00452987179699153,0.0,7.611677803609496e-07,0.0004021391484220335,0.0,,,,,,
2024-08-03 22:09:02.716735,-0.06239328396641319,0.004187515955212249,0.0,-1.4030036946113673,0.007201961662448719,0.0,1.588549434143788,0.038699782658867005,0.0,-0.185547985266604,-0.04814695478155218,0.0,1.508403386325539,0.004529871797030425,0.0,7.611677821373064e-07,0.00040213914844093633,0.0,,,,,,
2024-08-03 22:09:02.726960,-0.06239328396641319,0.004187515955097013,0.0,-1.4030036946113673,0.007201961662360999,0.0,1.588549434143788,0.0386997826589577,0.0,-0.1855479852666031,-0.04814695478139782,0.0,1.5084033863255382,0.00452987179706376,0.0,7.61167781249128e-07,0.0004021391482022345,0.0,,,,,,
2024-08-03 22:09:02.736746,-0.06239328396641319,0.004187515955134061,0.0,-1.4030036946113673,0.007201961662509486,0.0,1.588549434143788,0.03869978265885869,0.0,-0.1855479852666031,-0.04814695478154771,0.0,1.508403386325539,0.004529871797224794,0.0,7.61167781249128e-07,0.00040213914848611634,0.0,,,,,,
2024-08-03 22:09:02.746973,-0.06239328396641319,0.004187515955162452,0.0,-1.4030036946113673,0.007201961662381039,0.0,1.588549434143788,0.038699782658942604,0.0,-0.1855479852666031,-0.048146954781539554,0.0,1.50840338632554,0.004529871797381117,0.0,7.61167781249128e-07,0.00040213914835080704,0.0,,,,,,
2024-08-03 22:09:02.757095,-0.06239328396641319,0.004187515955022454,0.0,-1.4030036946113673,0.007201961662286704,0.0,1.588549434143788,0.03869978265904631,0.0,-0.1855479852666031,-0.048146954781496956,0.0,1.508403386325539,0.004529871797094878,0.0,7.611677821373064e-07,0.00040213914832613364,0.0,,,,,,
2024-08-03 22:09:02.766952,-0.06239328396641319,0.00418751595514109,0.0,-1.4030036946113673,0.007201961662438877,0.0,1.588549434143788,0.03869978265880404,0.0,-0.1855479852666031,-0.048146954781563764,0.0,1.508403386325539,0.004529871796999939,0.0,7.61167781249128e-07,0.0004021391483657469,0.0,,,,,,
2024-08-03 22:09:02.776644,-0.06238909744350707,0.004187666817816544,0.0,-1.4029964912897188,0.007203316624605542,0.0,1.5885881326266054,0.03869848825494228,0.0,-0.1855961326183415,-0.048147351723647494,0.0,1.5084079163760062,0.004530052082399054,0.0,1.0553503750898585e-06,0.00040212864708226957,0.0,,,,,,
2024-08-03 22:09:02.786879,-0.062335832604644814,0.004188675310500162,0.0,-1.4029476057782266,0.007212559179425133,0.0,1.5888448241023712,0.038689723855692,0.0,-0.1859016467639334,-0.04814991624814119,0.0,1.5084605009760192,0.004531256373197147,0.0,1.0652580817449575e-06,0.000402096595515016,0.0,,,,,,
2024-08-03 22:09:02.796687,-0.06219100665456434,0.00419136406662852,0.0,-1.4028146871564589,0.007237609095407646,0.0,1.5895427629807415,0.03866591905800662,0.0,-0.18673233344120632,-0.04815687649060989,0.0,1.5086034773824757,0.0045344893517810635,0.0,1.0918975874574244e-06,0.0004020447085980889,0.0,,,,,,
2024-08-03 22:09:02.806942,-0.06195385176515167,0.0041956640820136545,0.0,-1.4025970307685627,0.007278479961788767,0.0,1.590685649989311,0.03862699037999232,0.0,-0.18809259718371418,-0.04816824872720175,0.0,1.5088376036342117,0.004539702475022718,0.0,1.134628099919155e-06,0.00040202950872996303,0.0,,,,,,
2024-08-03 22:09:02.817211,-0.061627209275655126,0.004201508165189103,0.0,-1.4022972443494,0.0073346616568672075,0.0,1.5922597923577806,0.038573422568764726,0.0,-0.18996614083319496,-0.04818389099673937,0.0,1.5091600746777365,0.004546817611184149,0.0,1.1918703322066904e-06,0.00040206765556978193,0.0,,,,,,
2024-08-03 22:09:02.826992,-0.06121715582850751,0.004208789265737234,0.0,-1.401920904934866,0.00740510433899774,0.0,1.5942359057877447,0.038506232795606575,0.0,-0.19231811020605605,-0.04820351411301276,0.0,1.509564891471693,0.004555702233103892,0.0,1.2615487703371286e-06,0.0004021579123428521,0.0,,,,,,
2024-08-03 22:09:02.837216,-0.060732629467776356,0.004217356244757541,0.0,-1.4014762156635114,0.007488311320532314,0.0,1.5965709163788464,0.03842689110977767,0.0,-0.1950972387574108,-0.04822669018535186,0.0,1.5100432301128004,0.004566166152463932,0.0,1.3414305231052026e-06,0.00040228846748102806,0.0,,,,,,
2024-08-03 22:09:02.846817,-0.060185055728730674,0.004227018321312427,0.0,-1.400973662614663,0.007582394162328298,0.0,1.599209762573678,0.03833726053601301,0.0,-0.1982379922532722,-0.04825286960035085,0.0,1.5105838109717418,0.004577968079934763,0.0,1.4292894334744233e-06,0.000402442753364333,0.0,,,,,,
2024-08-03 22:09:02.857190,-0.05958797373292679,0.004237543857919692,0.0,-1.4004256718587411,0.007684919556356653,0.0,1.6020871971948774,0.03823962677759853,0.0,-0.20166271346816522,-0.04828142263279408,0.0,1.5111732678337368,0.004590826486590637,0.0,1.522932468134286e-06,0.0004026165994938254,0.0,,,,,,
2024-08-03 22:09:02.866707,-0.058956662269056714,0.004248674287579696,0.0,-1.3998462659858404,0.007793271948757843,0.0,1.6051295892470172,0.038136497251462384,0.0,-0.20528376681670135,-0.0483116168556884,0.0,1.5117965170284267,0.004604420992478132,0.0,1.6201480415034553e-06,0.0004028051089838714,0.0,,,,,,
2024-08-03 22:09:02.877005,-0.05830776589167197,0.004260119832659532,0.0,-1.399250721054911,0.007904598824176445,0.0,1.6082567259319234,0.038030606525871584,0.0,-0.20900568305912604,-0.048342663326865966,0.0,1.5124371265624816,0.004618395917092427,0.0,1.718642456793873e-06,0.0004029901724735478,0.0,,,,,,
2024-08-03 22:09:02.886729,-0.05765589188995435,0.004271630906001683,0.0,-1.3986524433627705,0.008016401694039124,0.0,1.6113982123205348,0.03792434150830153,0.0,-0.21274467819129228,-0.04837386593933692,0.0,1.5130806756903734,0.004632443353948529,0.0,1.8164961730349205e-06,0.00040316064526776376,0.0,,,,,,
2024-08-03 22:09:02.897134,-0.057004017850292854,0.004283180171419935,0.0,-1.398054165672226,0.008128202968411094,0.0,1.6145396988116545,0.03781817899872918,0.0,-0.2164836733434452,-0.048405088535067566,0.0,1.5137242248472464,0.00464651977194629,0.0,1.9135006628090423e-06,0.00040329792136871,0.0,,,,,,
2024-08-03 22:09:02.906839,-0.05635214376044484,0.004294779889406354,0.0,-1.39745588797488,0.008240010756250027,0.0,1.6176811854078927,0.037712122699646744,0.0,-0.22022266852111283,-0.048436337328285714,0.0,1.5143677740444215,0.004660636567942973,0.0,2.0098341373397943e-06,0.0004033907447401246,0.0,,,,,,
2024-08-03 22:09:02.916967,-0.05570026962028507,0.004306429801770583,0.0,-1.396857610266698,0.0083518329348325,0.0,1.6208226721104104,0.03760616977637055,0.0,-0.22396166372810367,-0.048467614238130334,0.0,1.5150113232831508,0.00467479422623493,0.0,2.1056245556039244e-06,0.0004034306644899949,0.0,,,,,,
2024-08-03 22:09:02.926793,-0.05504839542511508,0.004318135427498166,0.0,-1.396259332563062,0.008463647650091836,0.0,1.6239641589208,0.03750032629213429,0.0,-0.22770065896217861,-0.048498918627524305,0.0,1.5156548725693257,0.004688999939400422,0.0,2.2009795959121448e-06,0.00040342396979521807,0.0,,,,,,
2024-08-03 22:09:02.937076,-0.05439652117545801,0.0043298958036052425,0.0,-1.3956610548506265,0.00857547077185991,0.0,1.6271056458320965,0.03739458391308214,0.0,-0.23143965422119805,-0.04853024803175174,0.0,1.5162984219017233,0.004703251898684706,0.0,2.295974228516684e-06,0.0004033679036601484,0.0,,,,,,
2024-08-03 22:09:02.946735,-0.053744646871536794,0.004341710738252588,0.0,-1.3950627770264503,0.00868740563718395,0.0,1.6302471328002586,0.03728889841206947,0.0,-0.23517864949336165,-0.04856159059664519,0.0,1.5169419712746004,0.004717544335461148,0.0,2.3906602981682568e-06,0.00040325537578286786,0.0,,,,,,
2024-08-03 22:09:02.957101,-0.05309277251382749,0.004353579805363036,0.0,-1.394464499112688,0.008799430059819343,0.0,1.6333886198339052,0.037183278512799206,0.0,-0.2389176447796384,-0.04859294730732695,0.0,1.5175855206887041,0.004731878025843355,0.0,2.4850874940085532e-06,0.00040309010155417397,0.0,,,,,,
2024-08-03 22:09:02.966736,-0.05244089810167729,0.004365503324955334,0.0,-1.3938662211959103,0.008911458276859284,0.0,1.6365301069779763,0.03707777041239064,0.0,-0.2426566400920498,-0.04862433140220972,0.0,1.5182290701486334,0.004746257295776659,0.0,2.5792965390181166e-06,0.00040287493153297804,0.0,,,,,,
2024-08-03 22:09:02.976950,-0.05178902363220317,0.00437748468137871,0.0,-1.3932679432701647,0.009023494869317516,0.0,1.6396715942160958,0.03697235505625308,0.0,-0.24639563542140408,-0.04865573137417088,0.0,1.5188726196568192,0.004760684973595958,0.0,2.6733253957189618e-06,0.00040262423544797175,0.0,,,,,,
2024-08-03 22:09:02.986798,-0.051137149107061575,0.0043895221420950144,0.0,-1.3926696653310306,0.0091355446961343,0.0,1.6428130815515498,0.03686703684923513,0.0,-0.2501346307712913,-0.04868715166699224,0.0,1.5195161692123795,0.00477516008900075,0.0,2.767188256314057e-06,0.0004023275888366696,0.0,,,,,,
2024-08-03 22:09:02.997004,-0.05048527452537854,0.004401616505352584,0.0,-1.3920713873785695,0.009247607849831273,0.0,1.64595456898362,0.03676181525690855,0.0,-0.2538736261407175,-0.04871859149754885,0.0,1.5201597188162612,0.00478968352525766,0.0,2.8609043871696826e-06,0.0004019853369204556,0.0,,,,,,
2024-08-03 22:09:03.006724,-0.04983339988651547,0.0044137684197679584,0.0,-1.391473109412711,0.009359684401180964,0.0,1.6490960565118362,0.03665668981229546,0.0,-0.25761262152895803,-0.04875005014199133,0.0,1.5208032684692148,0.004804256035757161,0.0,2.954489022322093e-06,0.000401597646819761,0.0,,,,,,
2024-08-03 22:09:03.016922,-0.049181525189077924,0.004425979666469911,0.0,-1.3908748314315946,0.009471776663679193,0.0,1.652237544138612,0.03655166360761909,0.0,-0.2613516169361141,-0.0487815278443761,0.0,1.5214468181724925,0.004818879136840388,0.0,3.047954558965671e-06,0.00040116460769369384,0.0,,,,,,
2024-08-03 22:09:03.027135,-0.048529650431842875,0.004438250628776736,0.0,-1.390276553430582,0.009583888727139939,0.0,1.6553790318673158,0.03644673903591075,0.0,-0.26509061236486176,-0.04881302755239598,0.0,1.5220903679261495,0.0048335520919429754,0.0,3.141308230425466e-06,0.0004006820965357181,0.0,,,,,,
2024-08-03 22:09:03.037218,-0.0478777756161497,0.004450580584930508,0.0,-1.3896782754149768,0.009696015031939731,0.0,1.6585205196910762,0.03634190913615841,0.0,-0.2688296078115764,-0.04884454467114955,0.0,1.5227339177301662,0.004848275664155285,0.0,3.2345599949579196e-06,0.0004001532197770905,0.0,,,,,,
2024-08-03 22:09:03.047063,-0.04722590074078781,0.004462970649353641,0.0,-1.389079997385746,0.009808154962738435,0.0,1.6616620076088742,0.03623717327336978,0.0,-0.27256860327393895,-0.048876077437255715,0.0,1.5233774675862044,0.004863051258280443,0.0,3.327719356072123e-06,0.00039957964869476734,0.0,,,,,,
2024-08-03 22:09:03.057382,-0.04657402575070524,0.004475475856019284,0.0,-1.3884817193256855,0.00992032572889777,0.0,1.6648034955780409,0.03613248877321112,0.0,-0.276307598735702,-0.04890760960842015,0.0,1.5240210175425517,0.004877927152386513,0.0,3.4208489205767023e-06,0.0003990193400206471,0.0,,,,,,
2024-08-03 22:09:03.067037,-0.04592215070331562,0.004488039315925409,0.0,-1.3878834412443977,0.010032519154903587,0.0,1.6679449836371854,0.03602789462819681,0.0,-0.280046594209308,-0.048939153451284786,0.0,1.524664567548026,0.004892852171875492,0.0,3.5139005953865876e-06,0.00039841773499132375,0.0,,,,,,
2024-08-03 22:09:03.077227,-0.04527027556363539,0.004500682709975824,0.0,-1.387285163121758,0.010144753210999247,0.0,1.6710864717841867,0.035923388772654025,0.0,-0.2837855896879642,-0.048970703444405184,0.0,1.5253081176036911,0.004907827082301781,0.0,3.6068853548343327e-06,0.0003977794347160275,0.0,,,,,,
2024-08-03 22:09:03.087217,-0.04461840065839073,0.00451317643113471,0.0,-1.3866868849115483,0.010257077897485159,0.0,1.6742279599782384,0.035818927861857294,0.0,-0.28752458517083035,-0.04900225688875835,0.0,1.5259516677083083,0.00492285039022981,0.0,3.6998006311961262e-06,0.00039710054591714705,0.0,,,,,,
2024-08-03 22:09:03.096788,-0.04396652558607794,0.004525762182320962,0.0,-1.3860886066534348,0.01036944692650791,0.0,1.677369448224832,0.03571452067531387,0.0,-0.29126358065806013,-0.049033814470842374,0.0,1.52659521785335,0.004937914977508355,0.0,3.792647627953727e-06,0.0003963796670036091,0.0,,,,,,
2024-08-03 22:09:03.107097,-0.04331465038397475,0.004538480332250802,0.0,-1.3854903283631816,0.01048184781136144,0.0,1.6805109365370132,0.03561017921949683,0.0,-0.29500257614854597,-0.04906537536763856,0.0,1.527238768047492,0.004953028683422773,0.0,3.885430844619009e-06,0.00039561730424551595,0.0,,,,,,
2024-08-03 22:09:03.117236,-0.0426627750538664,0.0045513271862012246,0.0,-1.3848920501187025,0.010594202632613889,0.0,1.6836524249353655,0.03550592396951448,0.0,-0.2987415716416084,-0.04909693881708951,0.0,1.527882318324301,0.00496822516751458,0.0,3.978191090325822e-06,0.0003948527855054439,0.0,,,,,,
2024-08-03 22:09:03.126952,-0.042010899593083906,0.0045643112905692125,0.0,-1.3842937718639374,0.010706570657192322,0.0,1.686793913423699,0.035401759099369594,0.0,-0.3024805671409876,-0.049128508593555956,0.0,1.5285258686605268,0.004983480969350642,0.0,4.070898113717192e-06,0.0003940528693951559,0.0,,,,,,
2024-08-03 22:09:03.137150,-0.04135902401522351,0.004577407161694433,0.0,-1.3836954935824364,0.010818962757070578,0.0,1.6899354020091764,0.03529769093658547,0.0,-0.3062195626486188,-0.049160086620717004,0.0,1.5291694190543232,0.0049987943417551675,0.0,4.1635461602851365e-06,0.0003932098609309106,0.0,,,,,,
2024-08-03 22:09:03.146963,-0.04070714839303946,0.004590547957225429,0.0,-1.3830972152917889,0.0109313641159987,0.0,1.6930768906949956,0.03519372359321282,0.0,-0.3099585581703783,-0.0491916793823082,0.0,1.5298129695081064,0.005014167752082215,0.0,4.2561365871662815e-06,0.0003923234836856575,0.0,,,,,,
2024-08-03 22:09:03.157370,-0.04005527271550502,0.004603744980784643,0.0,-1.3824989369891527,0.01104377742661153,0.0,1.696218379473999,0.0350898488631955,0.0,-0.31369755370003194,-0.04922327939388797,0.0,1.5304565200243507,0.005029603655278793,0.0,4.348671867937526e-06,0.00039139492020806837,0.0,,,,,,
2024-08-03 22:09:03.166936,-0.03940339696149486,0.004617019103817277,0.0,-1.3819006586180504,0.011156259130568901,0.0,1.6993598683139721,0.0349860352019808,0.0,-0.3174365492303428,-0.04925488010491792,0.0,1.5311000706173035,0.005045116187580432,0.0,4.441152348988453e-06,0.0003904231478606868,0.0,,,,,,
2024-08-03 22:09:03.177260,-0.03875152113818281,0.0046303634769315856,0.0,-1.3813023802111901,0.011268776081583819,0.0,1.7025013572295897,0.034882297238071604,0.0,-0.3211755447611955,-0.049286481296781356,0.0,1.5317436212777142,0.005060696406757049,0.0,4.533584649024647e-06,0.00038941414755359676,0.0,,,,,,
2024-08-03 22:09:03.186954,-0.038099645147043226,0.004643883907180392,0.0,-1.3807041018404351,0.01138126499819151,0.0,1.705642846251778,0.034778666544544715,0.0,-0.3249145402857678,-0.04931807717985095,0.0,1.532387172040706,0.005076378631209508,0.0,4.626014778352783e-06,0.000388411234301834,0.0,,,,,,
2024-08-03 22:09:03.197146,-0.03744776908483516,0.004657468325008003,0.0,-1.3801058234542756,0.01149376548036715,0.0,1.708784335377013,0.03467513711081592,0.0,-0.32865353581657875,-0.04934967866112747,0.0,1.533030722869607,0.005092127137219595,0.0,4.718399679859431e-06,0.000387373084465121,0.0,,,,,,
2024-08-03 22:09:03.207376,-0.03679589298023522,0.004671096454945615,0.0,-1.379507545073264,0.011606257081418672,0.0,1.7119258246084081,0.034571714858484745,0.0,-0.3323925313579803,-0.04938129045248278,0.0,1.5336742737686224,0.005107945743303193,0.0,4.810735464211291e-06,0.0003862942570366317,0.0,,,,,,
2024-08-03 22:09:03.217069,-0.036144016822719394,0.004684778458169169,0.0,-1.3789092666804519,0.01171876048557869,0.0,1.7150673139306587,0.034468383461387406,0.0,-0.33613152690027626,-0.04941290313267557,0.0,1.5343178247334626,0.005123830172846947,0.0,4.9030215540923905e-06,0.0003851729168934128,0.0,,,,,,
2024-08-03 22:09:03.227472,-0.03549214060566541,0.0046985210112843,0.0,-1.378310988275565,0.011831275964580371,0.0,1.7182088033417653,0.034365140919071946,0.0,-0.33987052244255356,-0.049444515796427134,0.0,1.534961375765164,0.0051397814673906595,0.0,4.9952588554447175e-06,0.0003840093576212549,0.0,,,,,,
2024-08-03 22:09:03.236879,-0.034840264322213876,0.004712331529538219,0.0,-1.3777127098549442,0.011943807394590876,0.0,1.721350292838542,0.034261983937576096,0.0,-0.3436095179829355,-0.049476126513600026,0.0,1.5356049268637815,0.0051557996657045,0.0,5.087448777807424e-06,0.00038280450427186,0.0,,,,,,
2024-08-03 22:09:03.247362,-0.03418838794824719,0.004726233495236124,0.0,-1.3771144314722352,0.012056300432983825,0.0,1.7244917824212855,0.03415891153136301,0.0,-0.34734851350826457,-0.049507720945765755,0.0,1.53624847806078,0.005171916339011617,0.0,5.179616802131193e-06,0.0003815834944318145,0.0,,,,,,
2024-08-03 22:09:03.256843,-0.033536511493242216,0.004740217509966456,0.0,-1.3765161531092154,0.012168773988332071,0.0,1.7276332720670045,0.03405590314427002,0.0,-0.3510875090037482,-0.04953928642250504,0.0,1.5368920293432335,0.005188118406877579,0.0,5.271754378810556e-06,0.000380337200792467,0.0,,,,,,
2024-08-03 22:09:03.267117,-0.03288463496913696,0.004754271918352738,0.0,-1.3759178747264664,0.01228126737340378,0.0,1.730774761795935,0.03395297832871232,0.0,-0.3548265044956027,-0.04957084860559328,0.0,1.5375355806930564,0.005204387910875296,0.0,5.36384563787351e-06,0.000379049320924584,0.0,,,,,,
2024-08-03 22:09:03.277334,-0.03223275837230677,0.004768400309409369,0.0,-1.3753195963280953,0.012393776315824948,0.0,1.733916251605887,0.03385013461623125,0.0,-0.3585654999808172,-0.049602404179773456,0.0,1.5381791321133527,0.00522072782270108,0.0,5.455891890271403e-06,0.00037772066850548817,0.0,,,,,,
2024-08-03 22:09:03.287267,-0.031580880976190606,0.0047831349900684,0.0,-1.3747213178539848,0.01250636101238708,0.0,1.7370577415093393,0.0337473844100941,0.0,-0.36230449548821575,-0.04963398194951705,0.0,1.5388226836950398,0.005237229119993454,0.0,5.547848890508078e-06,0.0003763062241576363,0.0,,,,,,
2024-08-03 22:09:03.297495,-0.030929003922232745,0.004797735725381873,0.0,-1.3741230393696522,0.012618955936951006,0.0,1.7401992314972041,0.03364471861135581,0.0,-0.36604349096350397,-0.04966552760959829,0.0,1.53946623535251,0.005253806201402254,0.0,5.6398223486908705e-06,0.0003749126327849154,0.0,,,,,,
2024-08-03 22:09:03.307280,-0.030277126967797052,0.00481223537954091,0.0,-1.3735247609219117,0.012731519086627271,0.0,1.743340721553711,0.033542120604896156,0.0,-0.36978248639404754,-0.04969702905164848,0.0,1.5401097870948623,0.005270467061868251,0.0,5.731809504361252e-06,0.0003735338023832394,0.0,,,,,,
2024-08-03 22:09:03.317109,-0.02962524987933879,0.0048268724588449545,0.0,-1.3729264825102632,0.01284404128466767,0.0,1.7464822116707701,0.0334395839958969,0.0,-0.37352148178497835,-0.04972849037867656,0.0,1.5407533389300232,0.005287221778173988,0.0,5.823788341352554e-06,0.0003721519176146169,0.0,,,,,,
2024-08-03 22:09:03.327254,-0.028973372797983288,0.004841460743742196,0.0,-1.3723282040674476,0.012956594550242648,0.0,1.7496237018453211,0.033337104619904856,0.0,-0.37726047715440014,-0.04975993019760317,0.0,1.5413968908222682,0.00530403357698024,0.0,5.915736248418568e-06,0.0003707422671989746,0.0,,,,,,
2024-08-03 22:09:03.337486,-0.028321495667470664,0.0048561423222478846,0.0,-1.371729925613385,0.013069159333030636,0.0,1.7527651920905036,0.03323469603968346,0.0,-0.38099947251217614,-0.049791358326125953,0.0,1.542040442790796,0.005320921655923482,0.0,6.007632837423671e-06,0.00036928397322214673,0.0,,,,,,
2024-08-03 22:09:03.347468,-0.02766961842997162,0.0048709329528072096,0.0,-1.37113164713472,0.01318174855227765,0.0,1.7559066824018217,0.0331323536863679,0.0,-0.3847384678526673,-0.04982276921480052,0.0,1.5426839948347677,0.005337885183911461,0.0,6.099486305366497e-06,0.00036778496711821484,0.0,,,,,,
2024-08-03 22:09:03.357107,-0.027017741106852178,0.0048858122047942204,0.0,-1.3705333686363337,0.013294357494070135,0.0,1.7590481727818386,0.033030080033319045,0.0,-0.38847746317449694,-0.04985416143988375,0.0,1.5433275469547896,0.005354924760830751,0.0,6.19129889845027e-06,0.0003662474155184084,0.0,,,,,,
2024-08-03 22:09:03.367363,-0.02636586367354532,0.004900803251976631,0.0,-1.3699350901749143,0.013406929465575394,0.0,1.7621896632322436,0.032927876661746805,0.0,-0.39221645846176134,-0.04988551903030218,0.0,1.5439710991592683,0.005372048735486401,0.0,6.28307212302559e-06,0.0003646721157667854,0.0,,,,,,
2024-08-03 22:09:03.377087,-0.02571398614181497,0.0049158953593822115,0.0,-1.3693368117186828,0.013519496244782186,0.0,1.765331153749285,0.03282573983948566,0.0,-0.395955453719651,-0.04991684718535566,0.0,1.5446146514468486,0.005389255802524696,0.0,6.374807858477993e-06,0.0003630611258874745,0.0,,,,,,
2024-08-03 22:09:03.387391,-0.025062108528363325,0.004931071930456666,0.0,-1.3687385332398,0.013632085631660875,0.0,1.7684726443338796,0.0327236706291979,0.0,-0.39969444895589934,-0.04994815372823996,0.0,1.5452582038132876,0.005406541682986884,0.0,6.466503838176152e-06,0.00036141224203436106,0.0,,,,,,
2024-08-03 22:09:03.397005,-0.024410230832190294,0.004946334250042212,0.0,-1.3681402547423331,0.013744693602733732,0.0,1.77161413498672,0.03262166966360153,0.0,-0.4034334441691998,-0.049979437319679645,0.0,1.5459017562595676,0.0054239074058512,0.0,6.5581593871044674e-06,0.0003597246691228401,0.0,,,,,,
2024-08-03 22:09:03.407252,-0.023758353040991054,0.004961694866892254,0.0,-1.3675419761940224,0.013857354659756946,0.0,1.774755625690629,0.032519718925429306,0.0,-0.4071724393543068,-0.050010692509554464,0.0,1.5465453087932177,0.005441360131183823,0.0,6.649776506328919e-06,0.00035799994889788465,0.0,,,,,,
2024-08-03 22:09:03.417463,-0.023106475147095296,0.004977161736777412,0.0,-1.3669436976024538,0.013970058537273181,0.0,1.777897116447619,0.03241782146548743,0.0,-0.4109114345111644,-0.05004191953125309,0.0,1.5471888614193468,0.005458905432133858,0.0,6.741360813578012e-06,0.0003562439608006539,0.0,,,,,,
2024-08-03 22:09:03.430318,-0.0224545970979797,0.004992787455902332,0.0,-1.3663454190691995,0.014082702260798727,0.0,1.7810386073271225,0.03231604768310347,0.0,-0.41465042966451726,-0.05007314369440244,0.0,1.5478324141055744,0.005476511236386809,0.0,6.832908610476807e-06,0.00035445318380346747,0.0,,,,,,
2024-08-03 22:09:03.439970,-0.021802718939816224,0.0050084758993414824,0.0,-1.3657471404974,0.014195382867214643,0.0,1.784180098250598,0.03221431794942638,0.0,-0.41838942477736385,-0.05010432739164754,0.0,1.548475966864629,0.005494189873095341,0.0,6.924426639187686e-06,0.0003526339366243048,0.0,,,,,,
2024-08-03 22:09:03.449712,-0.021150840872399712,0.005024128805159216,0.0,-1.3651488619099712,0.014308080641071915,0.0,1.7873215892335992,0.03211264773695738,0.0,-0.422128419860913,-0.05013548178739584,0.0,1.549119519702752,0.005511947579982071,0.0,7.015900783002849e-06,0.0003507720499304821,0.0,,,,,,
2024-08-03 22:09:03.459378,-0.020498962654730946,0.005039936337109697,0.0,-1.364550583324437,0.0144207773498215,0.0,1.7904630802887436,0.032011050324370086,0.0,-0.4258674149211057,-0.050166613704326714,0.0,1.5497630726311504,0.005529795096287983,0.0,7.107321541077738e-06,0.00034885626999580114,0.0,,,,,,
2024-08-03 22:09:03.469062,-0.019847084327810016,0.005055859352047679,0.0,-1.3639523047300874,0.014533482091323982,0.0,1.793604571410805,0.031909519097151215,0.0,-0.4296064099514503,-0.050197714857007025,0.0,1.5504066256491802,0.005547732760894144,0.0,7.198698716237573e-06,0.00034689971717494954,0.0,,,,,,
2024-08-03 22:09:03.479216,-0.019195205866836318,0.005071921742789419,0.0,-1.3633540261728834,0.014646149499862673,0.0,1.7967460627150231,0.03180816975239187,0.0,-0.43334540503911967,-0.05022887304182367,0.0,1.5510501787718516,0.005565775017551258,0.0,7.2900373533357765e-06,0.00034490561281912135,0.0,,,,,,
2024-08-03 22:09:03.488826,-0.01854332730399122,0.0050880924568229395,0.0,-1.3627557476172958,0.014758815174474287,0.0,1.7998875541202608,0.031706921428254944,0.0,-0.4370844001202858,-0.050260024698680114,0.0,1.5516937319894444,0.005583912195729317,0.0,7.381337087331019e-06,0.00034287357356200523,0.0,,,,,,
2024-08-03 22:09:03.498535,-0.017891448656474296,0.005104355299420734,0.0,-1.3621574690433718,0.014871499185328067,0.0,1.8030290455816953,0.03160572929946883,0.0,-0.4408233951597129,-0.050291134617414336,0.0,1.552337285295784,0.005602138120872925,0.0,7.472596903035367e-06,0.00034080252786443605,0.0,,,,,,
2024-08-03 22:09:03.508734,-0.01723956992265574,0.005120712746167808,0.0,-1.3615591904537696,0.014984198875198265,0.0,1.8061705371052383,0.0315045992781032,0.0,-0.44456239016128496,-0.05032220667720855,0.0,1.5529808386919752,0.005620453897448646,0.0,7.563816473599161e-06,0.0003386920916009068,0.0,,,,,,
2024-08-03 22:09:03.518386,-0.016587691101378255,0.005137166720014648,0.0,-1.3609609118577068,0.015096909029207996,0.0,1.8093120286934514,0.03140353250276251,0.0,-0.44830138512426565,-0.050353239797123334,0.0,1.553624392180704,0.0056388615692552655,0.0,7.654998495532084e-06,0.0003365444948661431,0.0,,,,,,
2024-08-03 22:09:03.528567,-0.01593581213048445,0.005153782499764479,0.0,-1.36036263326919,0.015209607333235089,0.0,1.8124535203170957,0.031302502605665916,0.0,-0.4520403800192687,-0.05038420529510252,0.0,1.5542679458007935,0.005657401247631698,0.0,7.7461525886946e-06,0.0003343701391683089,0.0,,,,,,
2024-08-03 22:09:03.538306,-0.015283932993498617,0.0051705779120242825,0.0,-1.359764354658706,0.015322327278029077,0.0,1.815595011955951,0.03120148794045827,0.0,-0.4557793748372925,-0.050415093810624194,0.0,1.5549114995623565,0.005676082396815787,0.0,7.837279108358075e-06,0.00033216890245189564,0.0,,,,,,
2024-08-03 22:09:03.548523,-0.014632053747281937,0.005187496032459204,0.0,-1.3591660759674882,0.015435127986567451,0.0,1.8187365036207446,0.03110049920858023,0.0,-0.45951836960442183,-0.050445931439585485,0.0,1.5555550534307558,0.0056948703745143495,0.0,7.928367214304899e-06,0.0003299298664666663,0.0,,,,,,
2024-08-03 22:09:03.558236,-0.013980174416011515,0.005204514483915792,0.0,-1.358567797284851,0.015547920158994387,0.0,1.8218779953539084,0.030999578785964592,0.0,-0.46325736433017006,-0.05047672765876308,0.0,1.556198607396471,0.00571375571498872,0.0,8.019411559700984e-06,0.00032764778280824783,0.0,,,,,,
2024-08-03 22:09:03.567990,-0.013328295000788692,0.005221634283799851,0.0,-1.3579695185960599,0.015660718437736094,0.0,1.8250194871483743,0.030898719723434383,0.0,-0.4669963590108086,-0.05050747879587657,0.0,1.5568421614597137,0.0057327385378136315,0.0,8.110413985740195e-06,0.00032532434717796356,0.0,,,,,,
2024-08-03 22:09:03.578406,-0.012676415451107204,0.0052389051462206826,0.0,-1.3573712398901099,0.015773534295354504,0.0,1.8281609789725763,0.030797890394666606,0.0,-0.470735353621885,-0.050538160370586525,0.0,1.5574857156499569,0.005751848359898991,0.0,8.201383027817144e-06,0.00032296808901663204,0.0,,,,,,
2024-08-03 22:09:03.588041,-0.012024535744747489,0.005256350413631359,0.0,-1.3567729611605077,0.01588637461959673,0.0,1.831302470804939,0.030697069172969667,0.0,-0.47447434814579914,-0.050568754754128885,0.0,1.5581292699888643,0.005771106841733591,0.0,8.292324882752666e-06,0.00032058520325447355,0.0,,,,,,
2024-08-03 22:09:03.598766,-0.011372655984301261,0.005273877324874499,0.0,-1.3561746824109304,0.015999234810331914,0.0,1.8344439626879687,0.030596298671368927,0.0,-0.47821334261424564,-0.050599293697478405,0.0,1.5587728244286563,0.005790466212476258,0.0,8.383230741593195e-06,0.00031816681238306657,0.0,,,,,,
2024-08-03 22:09:03.607880,-0.010720776159673484,0.005291500646966099,0.0,-1.3555764036456883,0.016112111083341894,0.0,1.8375854546225359,0.030495580050798995,0.0,-0.4819523370268879,-0.05062977730169176,0.0,1.5594163789688533,0.005809925722741719,0.0,8.474100094524317e-06,0.0003157116024658023,0.0,,,,,,
2024-08-03 22:09:03.617995,-0.010068896269149086,0.005309228833625451,0.0,-1.354978124867604,0.016225000137912348,0.0,1.8407269466057272,0.030394910006066263,0.0,-0.4856913313797184,-0.05066020102607473,0.0,1.5600599336118703,0.005829488087112417,0.0,8.564937089339253e-06,0.00031322465888453067,0.0,,,,,,
2024-08-03 22:09:03.627973,-0.009417016000878853,0.005327383666478777,0.0,-1.3543798483164424,0.01633566574564951,0.0,1.8438684396336562,0.030295283093640435,0.0,-0.48943032595167235,-0.0506908431688548,0.0,1.5607034887941964,0.005849589358617074,0.0,8.655839117466257e-06,0.0003108024352831587,0.0,,,,,,
2024-08-03 22:09:03.637847,-0.008765135066754581,0.005346264954927435,0.0,-1.3537815753321298,0.016442760795094616,0.0,1.847009934301921,0.030197297769369285,0.0,-0.4931693209274641,-0.05072188944145519,0.0,1.5613470448041573,0.005870518915448367,0.0,8.746837033335453e-06,0.00030847519006891883,0.0,,,,,,
2024-08-03 22:09:03.648263,-0.008113253881546711,0.005365469414699023,0.0,-1.353183302469631,0.01654973409226462,0.0,1.850151429088676,0.03009943093608524,0.0,-0.4969083159005878,-0.05075293304758344,0.0,1.5619906009860998,0.005891620406573397,0.0,8.837738035616383e-06,0.0003060513265186193,0.0,,,,,,
2024-08-03 22:09:03.658032,-0.007461372610650052,0.0053848506468691494,0.0,-1.3525850295978,0.01665671661920864,0.0,1.853292923926979,0.030001615702319333,0.0,-0.5006473108226732,-0.05078392564347846,0.0,1.5626341572911135,0.005912844974476975,0.0,8.928582096778825e-06,0.0003035708445642219,0.0,,,,,,
2024-08-03 22:09:03.668209,-0.00680949132104125,0.005404367860996988,0.0,-1.351986756710527,0.016763714588325814,0.0,1.8564344188114745,0.02990384665914636,0.0,-0.5043863056833242,-0.050814856805556426,0.0,1.56327771371146,0.005934184871924125,0.0,9.019382568808965e-06,0.00030104713949622754,0.0,,,,,,
2024-08-03 22:09:03.677959,-0.0061576100616127505,0.005424009487620993,0.0,-1.3513884838075698,0.016870728287108897,0.0,1.8595759137403682,0.02980612196687303,0.0,-0.5081253004781452,-0.05084572210812354,0.0,1.5639212702462695,0.005955639273705401,0.0,9.110144220336736e-06,0.0002984850077121285,0.0,,,,,,
2024-08-03 22:09:03.688203,-0.0055057288863356035,0.005443776407482555,0.0,-1.3507902108875844,0.01697775897102864,0.0,1.8627174087085425,0.029708436605104353,0.0,-0.5118642952018346,-0.05087651630801155,0.0,1.5645648268993195,0.005977211876908781,0.0,9.200872958636808e-06,0.0002958902590029784,0.0,,,,,,
2024-08-03 22:09:03.697962,-0.004853847880665008,0.005463667684588865,0.0,-1.350191937979744,0.017084777607785734,0.0,1.8658589037319295,0.029610806403719128,0.0,-0.5156032898635337,-0.05090724849178468,0.0,1.565208383676075,0.005998908182797173,0.0,9.291552678369897e-06,0.000293246856413278,0.0,,,,,,
2024-08-03 22:09:03.707733,-0.004201967169740861,0.005483695166483756,0.0,-1.3495936650331986,0.017191834873896833,0.0,1.8690003987834807,0.029513204419983768,0.0,-0.5193422844501754,-0.050937905646697534,0.0,1.5658519405809859,0.006020732641991474,0.0,9.382197904805878e-06,0.000290569179761327,0.0,,,,,,
2024-08-03 22:09:03.717872,-0.003550086999820401,0.005503850369505615,0.0,-1.3489953920675501,0.01729891125470854,0.0,1.8721418938713885,0.029415638785453013,0.0,-0.52308127896098,-0.05096848696886706,0.0,1.5664954976080327,0.006042679234452011,0.0,9.47280911134385e-06,0.00028785776487030455,0.0,,,,,,
2024-08-03 22:09:03.727666,-0.002898207826487642,0.00552412990190142,0.0,-1.3483971190880177,0.017406001556406103,0.0,1.875283388995582,0.02931810938946336,0.0,-0.5268202733925813,-0.0509989890587505,0.0,1.5671390547549038,0.006064745689644862,0.0,9.563388094768754e-06,0.0002851144605816999,0.0,,,,,,
2024-08-03 22:09:03.737940,-0.002246330624761761,0.005544536888708939,0.0,-1.3477988460930737,0.01751310732361269,0.0,1.8784248841533646,0.02922061358606722,0.0,-0.5305592677426905,-0.05102940965583076,0.0,1.5677826120248746,0.006086935203882421,0.0,9.65393468810305e-06,0.0002823390309212529,0.0,,,,,,
2024-08-03 22:09:03.747657,-0.0015944579766609124,0.005565072655078516,0.0,-1.3472005731074315,0.017620203700380175,0.0,1.8815663793573627,0.029123164039781786,0.0,-0.5342982620184022,-0.051059755883006167,0.0,1.56842616942364,0.006109253515793467,0.0,9.744435732095269e-06,0.0002795182821321669,0.0,,,,,,
2024-08-03 22:09:03.757915,-0.0009425996540679549,0.005585735814743949,0.0,-1.3466023001083867,0.01772731348018044,0.0,1.8847078745948647,0.02902574800022614,0.0,-0.5380372562100275,-0.0510900180229388,0.0,1.5690697269463394,0.006131695762146989,0.0,9.834901807614926e-06,0.00027666282158268904,0.0,,,,,,
2024-08-03 22:09:03.768002,-0.00029085455358579537,0.005606527182207847,0.0,-1.3460040270931068,0.01783443953227586,0.0,1.8878493698628276,0.028928362372606303,0.0,-0.5417762503142534,-0.051120192737124585,0.0,1.5697132845934734,0.006154262478026378,0.0,9.925334508054107e-06,0.0002737742738239575,0.0,,,,,,
2024-08-03 22:09:03.777584,0.0003613820849164284,0.005627451781636849,0.0,-1.3454057540624953,0.01794158096725515,0.0,1.8909908651572067,0.028831003168124134,0.0,-0.5455152443260483,-0.05115027502058333,0.0,1.5703568423692227,0.006176957772462401,0.0,1.0015738952873221e-05,0.00027085769402835627,0.0,,,,,,
2024-08-03 22:09:03.787891,0.0010131668649950853,0.005648509149679555,0.0,-1.3448074810270254,0.018048727174181472,0.0,1.8941323604847344,0.02873367715427919,0.0,-0.5492542382502403,-0.05118026972857376,0.0,1.571000400276402,0.006199784498364012,0.0,1.0106103792928423e-05,0.0002679016911870651,0.0,,,,,,
2024-08-03 22:09:03.797604,0.0016650288312760608,0.005669699393613163,0.0,-1.3442092079927013,0.018155872238365272,0.0,1.89727385584656,0.028636385436737223,0.0,-0.5529932320847388,-0.05121017474049009,0.0,1.5716439583154154,0.0062227430593475895,0.0,1.0196429857778355e-05,0.0002649071429973184,0.0,,,,,,
2024-08-03 22:09:03.807893,0.002316903124330416,0.0056910222681860224,0.0,-1.3436109349463476,0.018263031193835315,0.0,1.9004153512346882,0.028539119397406727,0.0,-0.55673222582287,-0.05123998323823243,0.0,1.5722875164842582,0.0062458311362571265,0.0,1.0286723274965937e-05,0.0002618799998305812,0.0,,,,,,
2024-08-03 22:09:03.817522,0.002968781731363279,0.005712481557667309,0.0,-1.3430126618863374,0.01837020423627929,0.0,1.9035568466429797,0.028441873331412168,0.0,-0.5604712194586359,-0.051269689297629206,0.0,1.5729310747861707,0.006269052263268503,0.0,1.0376990402072295e-05,0.0002588268265332049,0.0,,,,,,
2024-08-03 22:09:03.827800,0.0036206624010288735,0.0057340781266744375,0.0,-1.3424143888151494,0.018477386503926805,0.0,1.9066983420738985,0.028344651458776068,0.0,-0.5642102129931876,-0.05129929524699456,0.0,1.5735746332233393,0.006292408494762645,0.0,1.0467224470289693e-05,0.0002557394873004067,0.0,,,,,,
2024-08-03 22:09:03.838126,0.0042725442552296045,0.0057558149830864635,0.0,-1.341816115754227,0.018584558150888133,0.0,1.9098398375357402,0.028247459758809643,0.0,-0.5679492064290876,-0.05132880165883897,0.0,1.574218191800366,0.006315905071477689,0.0,1.055742017008754e-05,0.00025261539968054157,0.0,,,,,,
2024-08-03 22:09:03.847707,0.004924426877114918,0.00577768904524977,0.0,-1.3412178426809438,0.018691742161412946,0.0,1.9129813330178926,0.028150288371006124,0.0,-0.5716881997587206,-0.05135820180548873,0.0,1.57486175051202,0.006339536273260527,0.0,1.0647583824408002e-05,0.0002494594493281919,0.0,,,,,,
2024-08-03 22:09:03.857927,0.005576310050086519,0.005799704639227796,0.0,-1.3406195695893952,0.018798944549286673,0.0,1.9161228285131955,0.028053130046957496,0.0,-0.5754271929756332,-0.05138748918178521,0.0,1.5755053093612092,0.006363305043942861,0.0,1.0737721463094374e-05,0.00024627773412183454,0.0,,,,,,
2024-08-03 22:09:03.867616,0.0062281936465939935,0.005821862619443413,0.0,-1.3400212964884426,0.018906156229329493,0.0,1.9192643240258747,0.02795598918694524,0.0,-0.5791661860814843,-0.051416665544601926,0.0,1.576148868350713,0.0063872140967453405,0.0,1.082782691774753e-05,0.0002430639099438598,0.0,,,,,,
2024-08-03 22:09:03.877838,0.006880077587895883,0.005844164157749162,0.0,-1.3394230234003695,0.019013355030487813,0.0,1.922405819565487,0.027858875256019325,0.0,-0.5829051790800017,-0.0514457345757799,0.0,1.5767924274849552,0.006411267888841534,0.0,1.0917892683259822e-05,0.00023981057768805323,0.0,,,,,,
2024-08-03 22:09:03.887701,0.007531961820450128,0.005866607901410052,0.0,-1.338824750301019,0.019120565111871008,0.0,1.9255473151193652,0.027761775592106474,0.0,-0.5866441719616446,-0.05147468673015962,0.0,1.5774359867591592,0.0064354616435246875,0.0,1.100792764674452e-05,0.00023652660104885427,0.0,,,,,,
2024-08-03 22:09:03.897856,0.008183846312603826,0.005889197832304399,0.0,-1.3382264771825445,0.01922779442497694,0.0,1.9286888106796916,0.027664682293895907,0.0,-0.5903831647195696,-0.05150351511835792,0.0,1.578079546175716,0.006459797779726104,0.0,1.1097937956172643e-05,0.0002332181898320753,0.0,,,,,,
2024-08-03 22:09:03.907583,0.008835731041237693,0.005911935838391573,0.0,-1.3376282040618095,0.019335025891537877,0.0,1.9318303062537439,0.0275676028030096,0.0,-0.5941221573569146,-0.051532222976962146,0.0,1.5787231057394022,0.006484281017438886,0.0,1.1187915903043688e-05,0.0002298774820455778,0.0,,,,,,
2024-08-03 22:09:03.917818,0.009487615988295062,0.0059348221292273426,0.0,-1.3370299309520888,0.019442246345261413,0.0,1.9349718018471336,0.02747054264929021,0.0,-0.5978611498750448,-0.051560811618749085,0.0,1.5793666654524339,0.006508913599386502,0.0,1.1277856697411437e-05,0.00022649978057638935,0.0,,,,,,
2024-08-03 22:09:03.928024,0.010139501139049045,0.005957855484715951,0.0,-1.3364316578317685,0.019549477399973005,0.0,1.9381132974484974,0.02737349046965178,0.0,-0.601600142265168,-0.05158927225261515,0.0,1.5800102253105992,0.006533691316388994,0.0,1.1367767905667847e-05,0.00022309262587043993,0.0,,,,,,
2024-08-03 22:09:03.938327,0.01079138650100031,0.005981053705318128,0.0,-1.3358333846686052,0.01965675142073256,0.0,1.9412547930376434,0.027276425988264814,0.0,-0.6053391345181369,-0.051617595687981827,0.0,1.580653785326568,0.006558626859327271,0.0,1.1457657405955501e-05,0.0002196639155776568,0.0,,,,,,
2024-08-03 22:09:03.947846,0.011443272059150189,0.0060044096400455205,0.0,-1.3352351115140102,0.0197640167771445,0.0,1.9443962886379218,0.02717937272095068,0.0,-0.6090781266417054,-0.051645789773569976,0.0,1.5812973455002277,0.006583720063824295,0.0,1.1547514054299768e-05,0.0002162024031016497,0.0,,,,,,
2024-08-03 22:09:03.958207,0.012095157801292444,0.006027917341359386,0.0,-1.3346368383667,0.019871274851031843,0.0,1.9475377842488584,0.027082330109319916,0.0,-0.612817118632428,-0.05167385101202794,0.0,1.5819409058260767,0.006608965457088299,0.0,1.163733798392741e-05,0.00021270831086652852,0.0,,,,,,
2024-08-03 22:09:03.967746,0.012747043722535878,0.0060515768484887,0.0,-1.3340385652094644,0.019978542850039964,0.0,1.9506792798611734,0.026985288878035307,0.0,-0.6165561104832511,-0.05170177235093007,0.0,1.5825844663020412,0.00663436096613616,0.0,1.1727133881755947e-05,0.00020918630372933952,0.0,,,,,,
2024-08-03 22:09:03.978003,0.013398929823093653,0.006075392397754224,0.0,-1.3334402920308939,0.020085832285847673,0.0,1.9538207754653776,0.02688823945304466,0.0,-0.6202951021863239,-0.05172954589136169,0.0,1.5832280269303505,0.006659908848677476,0.0,1.1816908370931856e-05,0.00020564306735104242,0.0,,,,,,
2024-08-03 22:09:03.987671,0.014050816104918873,0.006099369112763898,0.0,-1.332842018878759,0.020193095185948733,0.0,1.956962271081526,0.02679120205604949,0.0,-0.6240340937516811,-0.05175718176289638,0.0,1.5838715877229586,0.00668562100339956,0.0,1.190664640393635e-05,0.00020206343814089178,0.0,,,,,,
2024-08-03 22:09:03.997921,0.014702702560992265,0.006123502678677721,0.0,-1.332243745723243,0.020300361468374443,0.0,1.9601037666965997,0.026694163581326952,0.0,-0.627773085169677,-0.05178467027671302,0.0,1.5845151486717555,0.006711489346050453,0.0,1.1996355300247785e-05,0.0001984547891355228,0.0,,,,,,
2024-08-03 22:09:04.007793,0.01535458918931365,0.006147793306474235,0.0,-1.3316454725577758,0.02040763770176278,0.0,1.9632452623059713,0.026597119405161802,0.0,-0.631512076435472,-0.0518120065888391,0.0,1.5851587097761612,0.006737513297364457,0.0,1.2086037317615705e-05,0.00019481936046116888,0.0,,,,,,
2024-08-03 22:09:04.017833,0.01600647599331495,0.006172246330451227,0.0,-1.3310471993805846,0.02051492576019322,0.0,1.9663867579041838,0.02650006399096953,0.0,-0.6352510675433756,-0.051839184957084034,0.0,1.5858022710407482,0.006763697459117096,0.0,1.2175696479488352e-05,0.00019116124582837634,0.0,,,,,,
2024-08-03 22:09:04.028076,0.01665836297651424,0.006196866729177518,0.0,-1.3304489262313541,0.0206221899869825,0.0,1.969528253506219,0.02640301088089469,0.0,-0.6389900584995729,-0.05186621121030126,0.0,1.5864458324759037,0.006790051747101813,0.0,1.226532329479113e-05,0.00018747081290921425,0.0,,,,,,
2024-08-03 22:09:04.037694,0.01731025013341636,0.006221650094402492,0.0,-1.3298506530760104,0.020729456203399683,0.0,1.9726697490971716,0.026305948607484853,0.0,-0.6427290492939557,-0.05189307648108114,0.0,1.5870893940736153,0.006816568769945208,0.0,1.2354924511015497e-05,0.00018375434413546703,0.0,,,,,,
2024-08-03 22:09:04.048194,0.017962137463910288,0.006246597639295951,0.0,-1.3292523799116311,0.02083673150964051,0.0,1.9758112446734906,0.026208871814634445,0.0,-0.6464680399213281,-0.05191977488114527,0.0,1.5877329558339683,0.0068432483546816015,0.0,1.2444502981878713e-05,0.00018001501380838017,0.0,,,,,,
2024-08-03 22:09:04.057903,0.018614024971871146,0.006271714803582093,0.0,-1.328654106750628,0.020944003351414164,0.0,1.9789527402377924,0.026111782505427356,0.0,-0.6502070303814431,-0.05194630546449522,0.0,1.5883765177635043,0.0068700974555390495,0.0,1.2534055795043741e-05,0.00017625097984347304,0.0,,,,,,
2024-08-03 22:09:04.068014,0.01926591265845179,0.006297003070060398,0.0,-1.3280558336060977,0.021051258623476586,0.0,1.9820942357939462,0.026014685123829755,0.0,-0.6539460206739154,-0.05197266846046525,0.0,1.5890200798658665,0.006897119357137411,0.0,1.2623580365023201e-05,0.00017245874365371403,0.0,,,,,,
2024-08-03 22:09:04.077845,0.019917800518943984,0.006322458503352216,0.0,-1.3274575604563432,0.02115851912048785,0.0,1.9852357313331446,0.025917570787526434,0.0,-0.6576850107918988,-0.05199885696100164,0.0,1.5896636421347434,0.006924307772513748,0.0,1.2713079613035916e-05,0.00016864126928655809,0.0,,,,,,
2024-08-03 22:09:04.088072,0.020569688553440102,0.006348081838085145,0.0,-1.3268592872992728,0.021265786933499214,0.0,1.9883772268526272,0.025820436736017867,0.0,-0.6614240007313832,-0.052024866967504704,0.0,1.5903072045706566,0.00695166322434713,0.0,1.2802554473445582e-05,0.0001647994820164365,0.0,,,,,,
2024-08-03 22:09:04.098427,0.021221576770135364,0.006373881887770804,0.0,-1.326261014162372,0.02137303467460072,0.0,1.9915187223590802,0.02572328957847941,0.0,-0.6651629904933847,-0.05205069943921599,0.0,1.5909507671854195,0.006979197552695995,0.0,1.2892001603148628e-05,0.00016093014271281562,0.0,,,,,,
2024-08-03 22:09:04.108088,0.021873465167890238,0.006399857906729757,0.0,-1.3256627410323574,0.02148027543328757,0.0,1.9946602178448671,0.025626121828106495,0.0,-0.6689019800706788,-0.05207634725148634,0.0,1.5915943299765454,0.007006908218156782,0.0,1.2981425665969937e-05,0.00015703776341734286,0.0,,,,,,
2024-08-03 22:09:04.117961,0.022525353742984144,0.006426006657692197,0.0,-1.3250644678977161,0.021587520819623243,0.0,1.9978017133059076,0.025528929336633963,0.0,-0.6726409694592759,-0.05210180636793882,0.0,1.5922378929399166,0.007034791128115013,0.0,1.307082597445941e-05,0.00015312170091479407,0.0,,,,,,
2024-08-03 22:09:04.128226,0.023177242496059236,0.006452329207335519,0.0,-1.3244661947554197,0.021694774081038856,0.0,2.0009432087389527,0.025431708725545017,0.0,-0.6763799586548025,-0.052127072347944316,0.0,1.5928814560761761,0.007062846930017855,0.0,1.3160203718776131e-05,0.0001491832262930765,0.0,,,,,,
2024-08-03 22:09:04.138081,0.023829131436952977,0.0064788357243640675,0.0,-1.3238679216483165,0.021801992008752845,0.0,2.004084704157087,0.025334473256671697,0.0,-0.6801189476617244,-0.05215214974459672,0.0,1.5935250194005128,0.007091090832189057,0.0,1.324955205905809e-05,0.00014521543548451235,0.0,,,,,,
2024-08-03 22:09:04.147964,0.024481020562595823,0.006505523379914126,0.0,-1.3232696485387565,0.021909212300659866,0.0,2.007226199541744,0.025237204388190614,0.0,-0.6838579364662074,-0.052177024751295153,0.0,1.5941685829050938,0.0071195149543128305,0.0,1.3338882350666381e-05,0.00014122960637781784,0.0,,,,,,
2024-08-03 22:09:04.158366,0.025132909870016817,0.006532389528491268,0.0,-1.3226713754253498,0.022016436440674053,0.0,2.0103676948935956,0.02513990270745962,0.0,-0.6875969250671146,-0.05220169618040052,0.0,1.5948121465878478,0.007148117247844468,0.0,1.3428190476005852e-05,0.00013722167164358654,0.0,,,,,,
2024-08-03 22:09:04.167940,0.025784799361461275,0.006559436668619008,0.0,-1.3220731023191579,0.02212365336693003,0.0,2.013509190215027,0.025042570610067285,0.0,-0.6913359134630275,-0.05222616261867825,0.0,1.5954557104526472,0.0071769015880440495,0.0,1.3517474662272377e-05,0.0001331898658962164,0.0,,,,,,
2024-08-03 22:09:04.178440,0.026436689046645867,0.0065866747937008245,0.0,-1.3214748292411425,0.022230842207956514,0.0,2.016650685510349,0.024945212332916928,0.0,-0.6950749016545341,-0.052250424596939474,0.0,1.5960992745118139,0.007205880319193044,0.0,1.360673121464373e-05,0.0001291305925242201,0.0,,,,,,
2024-08-03 22:09:04.188064,0.0270885789370654,0.006614115495929204,0.0,-1.320876556139728,0.02233805438149465,0.0,2.0197921807520025,0.02484780045492709,0.0,-0.6988138896259954,-0.05227446658762038,0.0,1.5967428387692175,0.007235057256494909,0.0,1.369597411660095e-05,0.000125057627861214,0.0,,,,,,
