will-d-chen/ur3e-codebase/joint_states_20240813_171338.csv
time,shoulder_pan_joint_position,shoulder_pan_joint_velocity,shoulder_pan_joint_effort,shoulder_lift_joint_position,shoulder_lift_joint_velocity,shoulder_lift_joint_effort,elbow_joint_position,elbow_joint_velocity,elbow_joint_effort,wrist_1_joint_position,wrist_1_joint_velocity,wrist_1_joint_effort,wrist_2_joint_position,wrist_2_joint_velocity,wrist_2_joint_effort,wrist_3_joint_position,wrist_3_joint_velocity,wrist_3_joint_effort,force_x,force_y,force_z,torque_x,torque_y,torque_z
2024-08-13 17:13:39.091807,-1.998727472446264,0.002499993317017216,0.0,-1.5823407904995832,-0.0003902420922292367,0.0,-1.4103944031867126,-0.05268086556454347,0.0,-3.2903437034510286,0.04373986085033382,0.0,-0.4277889619672477,0.004622663185865702,0.0,-8.986601017024753e-05,0.006366572479457154,0.0,,,,,,
2024-08-13 17:13:39.101692,-1.998727472446264,0.002499993317136818,0.0,-1.5823407904995823,-0.00039024209208104923,0.0,-1.4103944031867117,-0.052680865564855704,0.0,-3.2903437034510286,0.04373986085063964,0.0,-0.4277889619672477,0.0046226631861571044,0.0,-8.986601016935936e-05,0.006366572479402055,0.0,,,,,,
2024-08-13 17:13:39.111652,-1.998727472446264,0.0024999933171175,0.0,-1.5823407904995814,-0.000390242092151811,0.0,-1.4103944031867117,-0.052680865564594656,0.0,-3.2903437034510286,0.04373986085044695,0.0,-0.4277889619672477,0.004622663185930314,0.0,-8.986601017024753e-05,0.006366572479345952,0.0,,,,,,
2024-08-13 17:13:39.121689,-1.998727472446264,0.002499993317115446,0.0,-1.5823407904995832,-0.0003902420921063727,0.0,-1.4103944031867108,-0.05268086556479364,0.0,-3.2903437034510286,0.04373986085042392,0.0,-0.4277889619672486,0.004622663185664335,0.0,-8.986601016935936e-05,0.006366572479579632,0.0,,,,,,
2024-08-13 17:13:39.131746,-1.998727472446264,0.0024999933169564006,0.0,-1.5823407904995832,-0.00039024209218116316,0.0,-1.4103944031867108,-0.052680865564815764,0.0,-3.2903437034510286,0.04373986085053797,0.0,-0.4277889619672477,0.004622663185775101,0.0,-8.986601017024753e-05,0.0063665724796024194,0.0,,,,,,
2024-08-13 17:13:39.141947,-1.998727472446264,0.002499993317034964,0.0,-1.5823407904995832,-0.0003902420921997349,0.0,-1.4103944031867117,-0.05268086556464905,0.0,-3.2903437034510286,0.04373986085065274,0.0,-0.4277889619672477,0.004622663185787491,0.0,-8.986601017024753e-05,0.006366572479357144,0.0,,,,,,
2024-08-13 17:13:39.151826,-1.998727472446264,0.002499993317099186,0.0,-1.5823407904995805,-0.00039024209220898725,0.0,-1.4103944031867135,-0.05268086556467782,0.0,-3.2903437034510286,0.043739860850460305,0.0,-0.4277889619672477,0.004622663186051954,0.0,-8.986601017024753e-05,0.0063665724794910745,0.0,,,,,,
2024-08-13 17:13:39.161769,-1.998727472446264,0.002499993317095511,0.0,-1.5823407904995823,-0.0003902420922015483,0.0,-1.4103944031867117,-0.052680865564632785,0.0,-3.2903437034510286,0.04373986085035468,0.0,-0.4277889619672477,0.0046226631858362725,0.0,-8.986601017024753e-05,0.0063665724795470575,0.0,,,,,,
2024-08-13 17:13:39.171762,-1.998727472446264,0.002499993316995806,0.0,-1.5823407904995832,-0.0003902420921886344,0.0,-1.4103944031867117,-0.05268086556497497,0.0,-3.290343703451027,0.04373986085080693,0.0,-0.4277889619672477,0.004622663185983988,0.0,-8.986601017024753e-05,0.006366572479302208,0.0,,,,,,
2024-08-13 17:13:39.181827,-1.998727472446264,0.002499993317023948,0.0,-1.5823407904995823,-0.00039024209213849503,0.0,-1.4103944031867108,-0.052680865564728646,0.0,-3.2903437034510286,0.043739860850537375,0.0,-0.4277889619672477,0.004622663185620506,0.0,-8.986601017024753e-05,0.006366572479401431,0.0,,,,,,
2024-08-13 17:13:39.191719,-1.998727472446265,0.0024999933170615917,0.0,-1.5823407904995832,-0.0003902420921365994,0.0,-1.4103944031867117,-0.052680865564983796,0.0,-3.2903437034510286,0.04373986085053271,0.0,-0.4277889619672486,0.004622663185953066,0.0,-8.986601017024753e-05,0.006366572479589907,0.0,,,,,,
2024-08-13 17:13:39.201991,-1.998727472446264,0.002499993317086453,0.0,-1.5823407904995823,-0.00039024209214479403,0.0,-1.4103944031867126,-0.05268086556488261,0.0,-3.2903437034510286,0.043739860850825166,0.0,-0.4277889619672477,0.004622663186029339,0.0,-8.986601017024753e-05,0.006366572479437784,0.0,,,,,,
2024-08-13 17:13:39.211588,-1.998727472446264,0.002499993317102841,0.0,-1.5823407904995823,-0.0003902420920679278,0.0,-1.4103944031867126,-0.05268086556490521,0.0,-3.2903437034510286,0.04373986085077864,0.0,-0.4277889619672477,0.004622663185834372,0.0,-8.986601017024753e-05,0.006366572479399242,0.0,,,,,,
2024-08-13 17:13:39.221447,-1.998727472446264,0.002499993317126464,0.0,-1.5823407904995832,-0.00039024209211892063,0.0,-1.4103944031867117,-0.05268086556501349,0.0,-3.2903437034510286,0.04373986085076474,0.0,-0.4277889619672477,0.004622663185964193,0.0,-8.986601016935936e-05,0.006366572479515274,0.0,,,,,,
2024-08-13 17:13:39.231608,-1.998727472446264,0.0024999933171275693,0.0,-1.5823407904995832,-0.0003902420921464468,0.0,-1.4103944031867117,-0.05268086556496417,0.0,-3.2903437034510286,0.04373986085057035,0.0,-0.4277889619672477,0.004622663185993636,0.0,-8.986601017024753e-05,0.00636657247955609,0.0,,,,,,
2024-08-13 17:13:39.242153,-1.998727472446264,0.0024999933170811017,0.0,-1.5823407904995832,-0.0003902420921880745,0.0,-1.4103944031867117,-0.052680865564755805,0.0,-3.2903437034510286,0.04373986085050034,0.0,-0.4277889619672477,0.004622663185944489,0.0,-8.986601016935936e-05,0.006366572479395918,0.0,,,,,,
2024-08-13 17:13:39.251946,-1.998727472446264,0.0024999933170334397,0.0,-1.5823407904995832,-0.00039024209216305676,0.0,-1.4103944031867117,-0.0526808655648268,0.0,-3.2903437034510286,0.04373986085064459,0.0,-0.4277889619672486,0.004622663185825909,0.0,-8.986601016935936e-05,0.006366572479457868,0.0,,,,,,
2024-08-13 17:13:39.262019,-1.998727472446264,0.0024999933170241364,0.0,-1.5823407904995832,-0.00039024209213535626,0.0,-1.4103944031867117,-0.05268086556482312,0.0,-3.2903437034510286,0.04373986085056307,0.0,-0.4277889619672468,0.004622663185765102,0.0,-8.986601017024753e-05,0.006366572479331955,0.0,,,,,,
2024-08-13 17:13:39.271778,-1.998727472446265,0.0024999933169866984,0.0,-1.5823407904995814,-0.00039024209220047995,0.0,-1.4103944031867135,-0.05268086556467419,0.0,-3.2903437034510286,0.04373986085054559,0.0,-0.4277889619672477,0.004622663185771095,0.0,-8.986601017024753e-05,0.006366572479345573,0.0,,,,,,
2024-08-13 17:13:39.281972,-1.998727472446265,0.002499993317005126,0.0,-1.5823407904995832,-0.0003902420921668959,0.0,-1.4103944031867117,-0.05268086556475928,0.0,-3.2903437034510286,0.043739860850474536,0.0,-0.4277889619672486,0.0046226631858229976,0.0,-8.986601017024753e-05,0.006366572479634155,0.0,,,,,,
2024-08-13 17:13:39.292002,-1.998727472446264,0.00249999331717956,0.0,-1.5823407904995823,-0.0003902420920554356,0.0,-1.4103944031867117,-0.052680865564823535,0.0,-3.2903437034510286,0.043739860850422876,0.0,-0.4277889619672477,0.004622663186039814,0.0,-8.986601016935936e-05,0.0063665724796111815,0.0,,,,,,
2024-08-13 17:13:39.301973,-1.998727472446264,0.002499993317053258,0.0,-1.5823407904995832,-0.00039024209213042943,0.0,-1.4103944031867117,-0.052680865564719584,0.0,-3.2903437034510286,0.04373986085056733,0.0,-0.4277889619672468,0.004622663185794872,0.0,-8.986601017024753e-05,0.006366572479472886,0.0,,,,,,
2024-08-13 17:13:39.312192,-1.998727472446264,0.0024999933170306195,0.0,-1.5823407904995832,-0.0003902420921591931,0.0,-1.4103944031867126,-0.05268086556483044,0.0,-3.290343703451027,0.04373986085039776,0.0,-0.4277889619672477,0.004622663185874801,0.0,-8.986601016935936e-05,0.006366572479556108,0.0,,,,,,
2024-08-13 17:13:39.321952,-1.998727472446264,0.002499993316998515,0.0,-1.5823407904995823,-0.0003902420921556146,0.0,-1.4103944031867108,-0.05268086556480419,0.0,-3.2903437034510286,0.04373986085052227,0.0,-0.4277889619672468,0.004622663186058279,0.0,-8.986601016935936e-05,0.0063665724795514056,0.0,,,,,,
2024-08-13 17:13:39.332130,-1.998727472446264,0.0024999933171109753,0.0,-1.5823407904995832,-0.00039024209215896217,0.0,-1.4103944031867117,-0.052680865564925856,0.0,-3.2903437034510286,0.043739860850754646,0.0,-0.4277889619672468,0.004622663186169707,0.0,-8.986601016935936e-05,0.00636657247946543,0.0,,,,,,
2024-08-13 17:13:39.342083,-1.998727472446264,0.0024999933170330403,0.0,-1.5823407904995832,-0.00039024209218648507,0.0,-1.4103944031867135,-0.05268086556473142,0.0,-3.2903437034510286,0.04373986085042732,0.0,-0.4277889619672468,0.004622663185972305,0.0,-8.986601017024753e-05,0.006366572479451712,0.0,,,,,,
2024-08-13 17:13:39.352042,-1.998727472446265,0.0024999933170335095,0.0,-1.5823407904995823,-0.00039024209213520903,0.0,-1.4103944031867126,-0.052680865564811996,0.0,-3.290343703451027,0.04373986085043665,0.0,-0.4277889619672477,0.004622663185743572,0.0,-8.986601016935936e-05,0.00636657247961148,0.0,,,,,,
2024-08-13 17:13:39.362158,-1.998727472446264,0.0024999933170307665,0.0,-1.5823407904995832,-0.000390242092214088,0.0,-1.4103944031867117,-0.0526808655646647,0.0,-3.2903437034510286,0.04373986085063983,0.0,-0.4277889619672486,0.004622663185870526,0.0,-8.986601017024753e-05,0.006366572479483046,0.0,,,,,,
2024-08-13 17:13:39.372010,-1.998727472446264,0.0024999933171016664,0.0,-1.5823407904995823,-0.0003902420921885815,0.0,-1.4103944031867126,-0.052680865564790715,0.0,-3.2903437034510286,0.04373986085045461,0.0,-0.4277889619672477,0.004622663186044143,0.0,-8.986601016935936e-05,0.00636657247968732,0.0,,,,,,
2024-08-13 17:13:39.382120,-1.998727472446264,0.0024999933170445593,0.0,-1.5823407904995805,-0.0003902420921985852,0.0,-1.4103944031867108,-0.05268086556466269,0.0,-3.2903437034510286,0.04373986085030058,0.0,-0.4277889619672477,0.004622663185746339,0.0,-8.986601017024753e-05,0.006366572479447819,0.0,,,,,,
2024-08-13 17:13:39.391904,-1.998727472446264,0.002499993317123701,0.0,-1.5823407904995832,-0.00039024209213880294,0.0,-1.4103944031867117,-0.05268086556487235,0.0,-3.2903437034510286,0.04373986085055412,0.0,-0.4277889619672468,0.004622663185698458,0.0,-8.986601017024753e-05,0.006366572479300195,0.0,,,,,,
2024-08-13 17:13:39.401790,-1.998727472446264,0.0024999933170599974,0.0,-1.5823407904995823,-0.0003902420921742984,0.0,-1.4103944031867117,-0.05268086556487926,0.0,-3.2903437034510286,0.04373986085058491,0.0,-0.4277889619672486,0.004622663185696227,0.0,-8.986601017024753e-05,0.006366572479549941,0.0,,,,,,
2024-08-13 17:13:39.412023,-1.998727472446264,0.0024999933170654497,0.0,-1.5823407904995832,-0.0003902420921386455,0.0,-1.4103944031867117,-0.05268086556499568,0.0,-3.2903437034510286,0.04373986085080117,0.0,-0.4277889619672477,0.004622663185885769,0.0,-8.986601017024753e-05,0.006366572479407423,0.0,,,,,,
2024-08-13 17:13:39.422004,-1.998727472446264,0.0024999933172077543,0.0,-1.5823407904995832,-0.00039024209205354606,0.0,-1.4103944031867126,-0.05268086556496815,0.0,-3.2903437034510286,0.043739860850526564,0.0,-0.4277889619672477,0.0046226631859711195,0.0,-8.986601016935936e-05,0.00636657247947909,0.0,,,,,,
2024-08-13 17:13:39.432144,-1.998727472446264,0.0024999933170417603,0.0,-1.5823407904995832,-0.00039024209217938485,0.0,-1.4103944031867126,-0.05268086556474452,0.0,-3.2903437034510286,0.043739860850737854,0.0,-0.4277889619672477,0.004622663185908083,0.0,-8.986601017024753e-05,0.006366572479309349,0.0,,,,,,
2024-08-13 17:13:39.442562,-1.998727472446264,0.002499993317105644,0.0,-1.5823407904995832,-0.00039024209214577675,0.0,-1.4103944031867126,-0.05268086556474521,0.0,-3.2903437034510286,0.043739860850272774,0.0,-0.4277889619672468,0.0046226631859596365,0.0,-8.986601017024753e-05,0.006366572479707417,0.0,,,,,,
2024-08-13 17:13:39.452055,-1.998727472446264,0.002499993317050915,0.0,-1.5823407904995832,-0.000390242092108931,0.0,-1.4103944031867126,-0.05268086556466052,0.0,-3.2903437034510286,0.043739860850330686,0.0,-0.4277889619672486,0.004622663185817506,0.0,-8.986601017024753e-05,0.00636657247949186,0.0,,,,,,
2024-08-13 17:13:39.461586,-1.998727472446264,0.0024999933170751867,0.0,-1.5823407904995832,-0.0003902420920162985,0.0,-1.4103944031867126,-0.052680865564878984,0.0,-3.2903437034510286,0.043739860850298046,0.0,-0.4277889619672486,0.0046226631858653005,0.0,-8.986601016935936e-05,0.006366572479649409,0.0,,,,,,
2024-08-13 17:13:39.471630,-1.998727472446264,0.002499993317086388,0.0,-1.5823407904995832,-0.00039024209204121195,0.0,-1.4103944031867117,-0.05268086556486524,0.0,-3.2903437034510286,0.043739860849990264,0.0,-0.4277889619672468,0.004622663186068981,0.0,-8.986601017024753e-05,0.006366572479901041,0.0,,,,,,
2024-08-13 17:13:39.481664,-1.998727472446264,0.002499993317042187,0.0,-1.5823407904995832,-0.0003902420921579415,0.0,-1.4103944031867117,-0.05268086556454158,0.0,-3.2903437034510286,0.04373986085008834,0.0,-0.4277889619672486,0.004622663185869842,0.0,-8.986601016935936e-05,0.006366572479560143,0.0,,,,,,
2024-08-13 17:13:39.492336,-1.998727472446264,0.0024999933170276258,0.0,-1.5823407904995832,-0.0003902420921431183,0.0,-1.4103944031867126,-0.05268086556483354,0.0,-3.290343703451027,0.04373986085061668,0.0,-0.4277889619672486,0.004622663185800657,0.0,-8.986601016935936e-05,0.006366572479671529,0.0,,,,,,
2024-08-13 17:13:39.501954,-1.998727472446264,0.002499993317174292,0.0,-1.5823407904995832,-0.0003902420920735253,0.0,-1.4103944031867108,-0.0526808655647303,0.0,-3.2903437034510286,0.043739860850172604,0.0,-0.4277889619672477,0.004622663185806462,0.0,-8.986601017024753e-05,0.006366572479630831,0.0,,,,,,
2024-08-13 17:13:39.512710,-1.998727472446264,0.0024999933170736554,0.0,-1.5823407904995823,-0.00039024209214293766,0.0,-1.4103944031867117,-0.052680865564782936,0.0,-3.2903437034510286,0.04373986085053314,0.0,-0.4277889619672477,0.00462266318610613,0.0,-8.986601017024753e-05,0.006366572479522334,0.0,,,,,,
2024-08-13 17:13:39.521912,-1.998727472446264,0.002499993317082025,0.0,-1.5823407904995823,-0.00039024209214955736,0.0,-1.4103944031867126,-0.05268086556491777,0.0,-3.2903437034510286,0.04373986085076966,0.0,-0.4277889619672477,0.004622663185926874,0.0,-8.986601017024753e-05,0.006366572479240601,0.0,,,,,,
2024-08-13 17:13:39.532184,-1.998727472446264,0.0024999933171652423,0.0,-1.5823407904995814,-0.00039024209206881054,0.0,-1.4103944031867135,-0.052680865564979674,0.0,-3.2903437034510286,0.04373986085068956,0.0,-0.4277889619672477,0.004622663185913239,0.0,-8.986601016935936e-05,0.006366572479440953,0.0,,,,,,
2024-08-13 17:13:39.542163,-1.998727472446264,0.0024999933171959273,0.0,-1.5823407904995832,-0.0003902420919656678,0.0,-1.4103944031867117,-0.05268086556525246,0.0,-3.2903437034510286,0.043739860850744196,0.0,-0.4277889619672468,0.004622663185858677,0.0,-8.986601017024753e-05,0.006366572479516635,0.0,,,,,,
2024-08-13 17:13:39.551891,-1.998727472446264,0.0024999933170156523,0.0,-1.5823407904995823,-0.00039024209217813476,0.0,-1.4103944031867135,-0.05268086556481766,0.0,-3.2903437034510286,0.0437398608506197,0.0,-0.4277889619672468,0.004622663185866904,0.0,-8.986601017024753e-05,0.00636657247951058,0.0,,,,,,
2024-08-13 17:13:39.561893,-1.998727472446264,0.0024999933171162493,0.0,-1.5823407904995832,-0.00039024209218557304,0.0,-1.4103944031867126,-0.052680865564602525,0.0,-3.2903437034510286,0.04373986085061324,0.0,-0.4277889619672468,0.004622663185975645,0.0,-8.986601017024753e-05,0.006366572479215984,0.0,,,,,,
2024-08-13 17:13:39.571991,-1.998727472446264,0.002499993317057212,0.0,-1.5823407904995832,-0.0003902420921490994,0.0,-1.4103944031867126,-0.052680865564559906,0.0,-3.2903437034510286,0.043739860850412336,0.0,-0.4277889619672477,0.0046226631859957994,0.0,-8.986601017024753e-05,0.0063665724793426776,0.0,,,,,,
2024-08-13 17:13:39.581835,-1.998727472446265,0.0024999933170056624,0.0,-1.5823407904995823,-0.00039024209215088486,0.0,-1.4103944031867126,-0.052680865564729645,0.0,-3.2903437034510286,0.04373986085056098,0.0,-0.4277889619672477,0.004622663186179089,0.0,-8.986601017024753e-05,0.006366572479454981,0.0,,,,,,
2024-08-13 17:13:39.591768,-1.998727472446264,0.0024999933171011447,0.0,-1.5823407904995832,-0.00039024209208034905,0.0,-1.4103944031867126,-0.05268086556496248,0.0,-3.2903437034510286,0.043739860850563764,0.0,-0.4277889619672477,0.004622663186169916,0.0,-8.986601017024753e-05,0.006366572479430619,0.0,,,,,,
2024-08-13 17:13:39.601748,-1.998727472446264,0.0024999933171023733,0.0,-1.5823407904995832,-0.0003902420921328507,0.0,-1.4103944031867117,-0.05268086556462122,0.0,-3.2903437034510286,0.0437398608502054,0.0,-0.4277889619672468,0.0046226631860304904,0.0,-8.986601017024753e-05,0.006366572479677407,0.0,,,,,,
2024-08-13 17:13:39.611881,-1.998727472446264,0.0024999933169659433,0.0,-1.5823407904995832,-0.0003902420922748768,0.0,-1.4103944031867126,-0.05268086556451132,0.0,-3.2903437034510286,0.04373986085037722,0.0,-0.4277889619672486,0.004622663185837457,0.0,-8.986601017024753e-05,0.006366572479502808,0.0,,,,,,
2024-08-13 17:13:39.621833,-1.998727472446264,0.0024999933171516845,0.0,-1.5823407904995832,-0.000390242092104919,0.0,-1.4103944031867117,-0.05268086556482057,0.0,-3.2903437034510286,0.0437398608502162,0.0,-0.4277889619672477,0.0046226631857586575,0.0,-8.986601016935936e-05,0.006366572479806256,0.0,,,,,,
2024-08-13 17:13:39.632406,-1.998727472446264,0.0024999933170427742,0.0,-1.5823407904995832,-0.0003902420922146802,0.0,-1.4103944031867117,-0.05268086556462452,0.0,-3.2903437034510286,0.04373986085029681,0.0,-0.4277889619672477,0.004622663185780576,0.0,-8.986601016935936e-05,0.006366572479730248,0.0,,,,,,
2024-08-13 17:13:39.642200,-1.998727472446264,0.0024999933171880977,0.0,-1.5823407904995823,-0.0003902420921118176,0.0,-1.4103944031867117,-0.05268086556484332,0.0,-3.2903437034510286,0.04373986085055972,0.0,-0.4277889619672468,0.00462266318606998,0.0,-8.986601017024753e-05,0.006366572479585292,0.0,,,,,,
2024-08-13 17:13:39.652329,-1.998727472446264,0.002499993317046958,0.0,-1.5823407904995832,-0.00039024209213174565,0.0,-1.4103944031867126,-0.052680865564775,0.0,-3.2903437034510286,0.04373986085064719,0.0,-0.4277889619672486,0.00462266318589233,0.0,-8.986601016935936e-05,0.006366572479373472,0.0,,,,,,
2024-08-13 17:13:39.662051,-1.998727472446264,0.0024999933172569076,0.0,-1.5823407904995814,-0.0003902420920398114,0.0,-1.4103944031867126,-0.05268086556502493,0.0,-3.2903437034510286,0.043739860850435755,0.0,-0.4277889619672486,0.004622663185941828,0.0,-8.986601017024753e-05,0.006366572479644153,0.0,,,,,,
2024-08-13 17:13:39.672033,-1.998727472446264,0.002499993317008365,0.0,-1.5823407904995823,-0.00039024209216075565,0.0,-1.4103944031867117,-0.05268086556481013,0.0,-3.290343703451027,0.04373986085078556,0.0,-0.4277889619672477,0.004622663185742467,0.0,-8.986601017024753e-05,0.006366572479279499,0.0,,,,,,
2024-08-13 17:13:39.682154,-1.998727472446264,0.0024999933171087627,0.0,-1.5823407904995823,-0.0003902420920937654,0.0,-1.4103944031867117,-0.05268086556491079,0.0,-3.2903437034510286,0.04373986085072049,0.0,-0.4277889619672486,0.00462266318593427,0.0,-8.986601017024753e-05,0.006366572479336495,0.0,,,,,,
2024-08-13 17:13:39.692074,-1.998727472446264,0.0024999933172258054,0.0,-1.5823407904995823,-0.00039024209208358865,0.0,-1.4103944031867117,-0.05268086556498919,0.0,-3.2903437034510286,0.0437398608505891,0.0,-0.4277889619672477,0.0046226631859006264,0.0,-8.986601017024753e-05,0.006366572479558525,0.0,,,,,,
2024-08-13 17:13:39.702390,-1.998727472446264,0.002499993317087313,0.0,-1.5823407904995832,-0.0003902420921932065,0.0,-1.4103944031867108,-0.052680865564652866,0.0,-3.2903437034510286,0.0437398608505821,0.0,-0.4277889619672477,0.004622663185834039,0.0,-8.986601017024753e-05,0.00636657247923709,0.0,,,,,,
2024-08-13 17:13:39.712213,-1.998727472446264,0.0024999933170784527,0.0,-1.5823407904995832,-0.0003902420922449936,0.0,-1.4103944031867117,-0.052680865564565846,0.0,-3.2903437034510286,0.04373986085035896,0.0,-0.4277889619672477,0.004622663186008451,0.0,-8.986601016935936e-05,0.006366572479391862,0.0,,,,,,
2024-08-13 17:13:39.722349,-1.998727472446264,0.002499993317132132,0.0,-1.5823407904995823,-0.0003902420921638465,0.0,-1.4103944031867117,-0.0526808655646806,0.0,-3.2903437034510286,0.043739860850428865,0.0,-0.4277889619672477,0.004622663186019743,0.0,-8.986601016935936e-05,0.006366572479521866,0.0,,,,,,
2024-08-13 17:13:39.732330,-1.998727472446264,0.00249999331701644,0.0,-1.5823407904995832,-0.00039024209213833825,0.0,-1.4103944031867126,-0.05268086556489979,0.0,-3.2903437034510286,0.043739860850620496,0.0,-0.4277889619672477,0.004622663185769796,0.0,-8.986601017024753e-05,0.00636657247942451,0.0,,,,,,
2024-08-13 17:13:39.742639,-1.998727472446264,0.002499993317041273,0.0,-1.5823407904995823,-0.0003902420922019796,0.0,-1.4103944031867117,-0.052680865564738895,0.0,-3.2903437034510286,0.043739860850612745,0.0,-0.4277889619672477,0.0046226631858156085,0.0,-8.986601016935936e-05,0.00636657247951956,0.0,,,,,,
2024-08-13 17:13:39.752472,-1.998727472446264,0.0024999933169916133,0.0,-1.5823407904995823,-0.0003902420922092299,0.0,-1.4103944031867126,-0.052680865564633576,0.0,-3.2903437034510286,0.043739860850334655,0.0,-0.4277889619672486,0.004622663185865527,0.0,-8.986601017024753e-05,0.006366572479482012,0.0,,,,,,
2024-08-13 17:13:39.762443,-1.998727472446264,0.0024999933170847914,0.0,-1.5823407904995823,-0.0003902420921342671,0.0,-1.4103944031867117,-0.05268086556462954,0.0,-3.2903437034510286,0.04373986085009049,0.0,-0.4277889619672468,0.004622663185949926,0.0,-8.986601017024753e-05,0.00636657247954359,0.0,,,,,,
2024-08-13 17:13:39.772525,-1.998727472446264,0.002499993317175568,0.0,-1.5823407904995832,-0.00039024209210402065,0.0,-1.4103944031867117,-0.05268086556494243,0.0,-3.2903437034510286,0.043739860850464045,0.0,-0.4277889619672468,0.004622663186226676,0.0,-8.986601017024753e-05,0.006366572479535527,0.0,,,,,,
2024-08-13 17:13:39.782383,-1.998727472446264,0.002499993316998772,0.0,-1.5823407904995832,-0.0003902420921587926,0.0,-1.4103944031867117,-0.05268086556484154,0.0,-3.2903437034510286,0.04373986085061655,0.0,-0.4277889619672477,0.00462266318587199,0.0,-8.986601016935936e-05,0.006366572479475424,0.0,,,,,,
2024-08-13 17:13:39.792328,-1.998727472446264,0.0024999933170799147,0.0,-1.5823407904995832,-0.0003902420921814405,0.0,-1.4103944031867117,-0.05268086556442021,0.0,-3.2903437034510286,0.0437398608501232,0.0,-0.4277889619672486,0.004622663185726332,0.0,-8.986601016935936e-05,0.0063665724795292904,0.0,,,,,,
2024-08-13 17:13:39.802385,-1.998727472446264,0.002499993317176508,0.0,-1.5823407904995814,-0.00039024209206252217,0.0,-1.4103944031867117,-0.05268086556485126,0.0,-3.290343703451027,0.043739860850475196,0.0,-0.4277889619672477,0.004622663185826154,0.0,-8.986601017024753e-05,0.00636657247944266,0.0,,,,,,
2024-08-13 17:13:39.812775,-1.998727472446264,0.00249999331724889,0.0,-1.5823407904995823,-0.000390242092038274,0.0,-1.4103944031867117,-0.0526808655650613,0.0,-3.2903437034510286,0.043739860850522935,0.0,-0.4277889619672477,0.00462266318610623,0.0,-8.986601016935936e-05,0.006366572479608392,0.0,,,,,,
2024-08-13 17:13:39.822311,-1.998727472446264,0.002499993317111711,0.0,-1.5823407904995832,-0.0003902420920897181,0.0,-1.4103944031867117,-0.05268086556508295,0.0,-3.290343703451027,0.04373986085076396,0.0,-0.4277889619672477,0.004622663185770088,0.0,-8.986601017024753e-05,0.006366572479270425,0.0,,,,,,
2024-08-13 17:13:39.832257,-1.998727472446264,0.002499993317123988,0.0,-1.5823407904995805,-0.0003902420921508092,0.0,-1.4103944031867117,-0.05268086556468656,0.0,-3.2903437034510286,0.043739860850398424,0.0,-0.4277889619672477,0.0046226631860573335,0.0,-8.986601017024753e-05,0.006366572479540977,0.0,,,,,,
2024-08-13 17:13:39.842465,-1.998727472446264,0.0024999933171129126,0.0,-1.5823407904995832,-0.00039024209217696035,0.0,-1.4103944031867126,-0.052680865564733836,0.0,-3.2903437034510286,0.04373986085046001,0.0,-0.4277889619672477,0.0046226631859518945,0.0,-8.986601017024753e-05,0.006366572479561827,0.0,,,,,,
2024-08-13 17:13:39.852338,-1.998727472446264,0.00249999331710258,0.0,-1.5823407904995832,-0.00039024209230463405,0.0,-1.4103944031867117,-0.0526808655645655,0.0,-3.2903437034510286,0.043739860850390874,0.0,-0.4277889619672477,0.00462266318612991,0.0,-8.986601016935936e-05,0.006366572479581883,0.0,,,,,,
2024-08-13 17:13:39.862270,-1.998727472446264,0.002499993316966373,0.0,-1.5823407904995832,-0.00039024209214777407,0.0,-1.4103944031867117,-0.05268086556465329,0.0,-3.2903437034510286,0.043739860850143156,0.0,-0.4277889619672477,0.004622663185792724,0.0,-8.986601016935936e-05,0.00636657247983024,0.0,,,,,,
2024-08-13 17:13:39.872065,-1.998727472446264,0.0024999933171174857,0.0,-1.5823407904995832,-0.00039024209211798735,0.0,-1.4103944031867135,-0.052680865564819164,0.0,-3.2903437034510286,0.04373986085050919,0.0,-0.4277889619672468,0.004622663185763046,0.0,-8.986601016935936e-05,0.00636657247960001,0.0,,,,,,
2024-08-13 17:13:39.882352,-1.998727472446264,0.0024999933170095187,0.0,-1.5823407904995832,-0.00039024209225465884,0.0,-1.4103944031867126,-0.05268086556466907,0.0,-3.290343703451027,0.0437398608508122,0.0,-0.4277889619672468,0.004622663186088792,0.0,-8.986601017113571e-05,0.006366572479224425,0.0,,,,,,
2024-08-13 17:13:39.892306,-1.998727472446265,0.002499993317012527,0.0,-1.5823407904995823,-0.0003902420921603981,0.0,-1.4103944031867135,-0.05268086556474056,0.0,-3.2903437034510286,0.04373986085050666,0.0,-0.4277889619672477,0.004622663186001937,0.0,-8.986601017024753e-05,0.0063665724795748824,0.0,,,,,,
2024-08-13 17:13:39.902190,-1.998727472446264,0.0024999933170425305,0.0,-1.5823407904995832,-0.00039024209210041763,0.0,-1.4103944031867117,-0.05268086556493247,0.0,-3.2903437034510286,0.04373986085078432,0.0,-0.4277889619672468,0.004622663185945673,0.0,-8.986601016935936e-05,0.006366572479448288,0.0,,,,,,
2024-08-13 17:13:39.912103,-1.998727472446264,0.0024999933170865825,0.0,-1.5823407904995832,-0.0003902420921199554,0.0,-1.4103944031867126,-0.052680865565006375,0.0,-3.2903437034510286,0.043739860850394274,0.0,-0.4277889619672468,0.004622663186282952,0.0,-8.986601017024753e-05,0.006366572479632234,0.0,,,,,,
2024-08-13 17:13:39.922043,-1.998727472446265,0.0024999933169785734,0.0,-1.5823407904995823,-0.00039024209221330086,0.0,-1.4103944031867117,-0.05268086556457448,0.0,-3.2903437034510286,0.043739860850555964,0.0,-0.4277889619672477,0.004622663185784429,0.0,-8.986601017024753e-05,0.0063665724793327706,0.0,,,,,,
2024-08-13 17:13:39.932894,-1.998727472446264,0.002499993317051087,0.0,-1.5823407904995832,-0.00039024209216640977,0.0,-1.4103944031867117,-0.05268086556483266,0.0,-3.290343703451027,0.043739860850787245,0.0,-0.4277889619672468,0.004622663185965827,0.0,-8.986601017024753e-05,0.006366572479313993,0.0,,,,,,
2024-08-13 17:13:39.942081,-1.998727472446264,0.0024999933170457146,0.0,-1.5823407904995814,-0.0003902420921467172,0.0,-1.4103944031867126,-0.052680865564950316,0.0,-3.2903437034510286,0.04373986085078875,0.0,-0.4277889619672477,0.004622663185820767,0.0,-8.986601017024753e-05,0.006366572479437517,0.0,,,,,,
2024-08-13 17:13:39.952041,-1.998727472446264,0.0024999933171251467,0.0,-1.5823407904995814,-0.0003902420920321244,0.0,-1.4103944031867117,-0.0526808655650377,0.0,-3.2903437034510286,0.043739860850307,0.0,-0.4277889619672486,0.004622663185774239,0.0,-8.986601016935936e-05,0.006366572479565919,0.0,,,,,,
2024-08-13 17:13:39.962597,-1.998727472446264,0.002499993317005252,0.0,-1.5823407904995832,-0.00039024209218279943,0.0,-1.4103944031867117,-0.05268086556477638,0.0,-3.290343703451027,0.04373986085064634,0.0,-0.4277889619672477,0.00462266318591938,0.0,-8.986601016935936e-05,0.006366572479377886,0.0,,,,,,
2024-08-13 17:13:39.972558,-1.998727472446264,0.002499993317090176,0.0,-1.5823407904995805,-0.0003902420922104414,0.0,-1.4103944031867117,-0.05268086556479218,0.0,-3.2903437034510286,0.04373986085063658,0.0,-0.4277889619672486,0.004622663185881541,0.0,-8.986601017024753e-05,0.00636657247947162,0.0,,,,,,
2024-08-13 17:13:39.982616,-1.998727472446264,0.0024999933170857,0.0,-1.5823407904995823,-0.0003902420921229931,0.0,-1.4103944031867126,-0.05268086556491082,0.0,-3.2903437034510286,0.043739860850669776,0.0,-0.4277889619672468,0.0046226631858126525,0.0,-8.986601017024753e-05,0.0063665724793758325,0.0,,,,,,
2024-08-13 17:13:39.992472,-1.998727472446264,0.0024999933170724445,0.0,-1.5823407904995832,-0.0003902420921978163,0.0,-1.4103944031867126,-0.05268086556478364,0.0,-3.2903437034510286,0.043739860850607305,0.0,-0.4277889619672468,0.004622663185790837,0.0,-8.986601017024753e-05,0.006366572479352234,0.0,,,,,,
2024-08-13 17:13:40.002518,-1.998727472446264,0.0024999933170053307,0.0,-1.5823407904995823,-0.000390242092195902,0.0,-1.4103944031867126,-0.05268086556465004,0.0,-3.2903437034510286,0.043739860850568926,0.0,-0.4277889619672486,0.004622663185904768,0.0,-8.986601017024753e-05,0.0063665724793838365,0.0,,,,,,
2024-08-13 17:13:40.012425,-1.998727472446264,0.0024999933171900054,0.0,-1.5823407904995823,-0.0003902420921660249,0.0,-1.4103944031867126,-0.05268086556475054,0.0,-3.2903437034510286,0.043739860850753376,0.0,-0.4277889619672468,0.004622663185992083,0.0,-8.986601016935936e-05,0.006366572479304444,0.0,,,,,,
2024-08-13 17:13:40.022459,-1.998727472446264,0.0024999933172514133,0.0,-1.5823407904995832,-0.0003902420921059397,0.0,-1.4103944031867135,-0.05268086556505851,0.0,-3.290343703451027,0.043739860850751724,0.0,-0.4277889619672477,0.004622663185763237,0.0,-8.986601017024753e-05,0.006366572479462894,0.0,,,,,,
2024-08-13 17:13:40.032403,-1.998727472446265,0.0024999933171075852,0.0,-1.5823407904995823,-0.00039024209208464943,0.0,-1.4103944031867117,-0.05268086556492171,0.0,-3.2903437034510286,0.04373986085040379,0.0,-0.4277889619672477,0.004622663186020031,0.0,-8.986601017024753e-05,0.006366572479620263,0.0,,,,,,
2024-08-13 17:13:40.042264,-1.998727472446264,0.0024999933171315526,0.0,-1.5823407904995823,-0.0003902420921114509,0.0,-1.4103944031867117,-0.05268086556484016,0.0,-3.290343703451027,0.0437398608507345,0.0,-0.4277889619672477,0.00462266318576472,0.0,-8.986601016935936e-05,0.006366572479454172,0.0,,,,,,
2024-08-13 17:13:40.052397,-1.998727472446264,0.002499993317183371,0.0,-1.5823407904995832,-0.000390242092129968,0.0,-1.4103944031867108,-0.052680865564752204,0.0,-3.2903437034510286,0.04373986085041271,0.0,-0.4277889619672477,0.004622663185959481,0.0,-8.986601016935936e-05,0.006366572479522588,0.0,,,,,,
2024-08-13 17:13:40.062590,-1.998727472446264,0.0024999933170228392,0.0,-1.5823407904995832,-0.0003902420921634629,0.0,-1.4103944031867126,-0.05268086556472148,0.0,-3.2903437034510286,0.04373986085049823,0.0,-0.4277889619672468,0.0046226631859034376,0.0,-8.986601017024753e-05,0.006366572479422743,0.0,,,,,,
2024-08-13 17:13:40.072377,-1.998727472446264,0.002499993317044086,0.0,-1.5823407904995832,-0.0003902420921523752,0.0,-1.4103944031867117,-0.05268086556489455,0.0,-3.2903437034510286,0.04373986085066615,0.0,-0.4277889619672468,0.004622663185804602,0.0,-8.986601017024753e-05,0.006366572479436278,0.0,,,,,,
2024-08-13 17:13:40.082516,-1.998727472446264,0.0024999933170873597,0.0,-1.5823407904995823,-0.00039024209218249434,0.0,-1.4103944031867126,-0.05268086556457052,0.0,-3.2903437034510286,0.043739860850574214,0.0,-0.4277889619672477,0.004622663185710126,0.0,-8.986601017024753e-05,0.0063665724791774105,0.0,,,,,,
2024-08-13 17:13:40.092428,-1.998727472446264,0.002499993317060558,0.0,-1.5823407904995805,-0.0003902420921727283,0.0,-1.4103944031867117,-0.052680865564682676,0.0,-3.290343703451027,0.04373986085061393,0.0,-0.4277889619672477,0.004622663185929007,0.0,-8.986601017024753e-05,0.006366572479352763,0.0,,,,,,
2024-08-13 17:13:40.102316,-1.998727472446264,0.0024999933170616285,0.0,-1.5823407904995832,-0.0003902420921588594,0.0,-1.4103944031867108,-0.05268086556474187,0.0,-3.2903437034510286,0.04373986085038476,0.0,-0.4277889619672477,0.004622663185717482,0.0,-8.986601017024753e-05,0.006366572479519316,0.0,,,,,,
2024-08-13 17:13:40.112277,-1.998727472446264,0.0024999933170304833,0.0,-1.5823407904995814,-0.00039024209213976723,0.0,-1.4103944031867126,-0.052680865564996626,0.0,-3.2903437034510286,0.04373986085078894,0.0,-0.4277889619672477,0.00462266318589487,0.0,-8.986601017024753e-05,0.0063665724794305665,0.0,,,,,,
2024-08-13 17:13:40.122371,-1.998727472446264,0.002499993317026191,0.0,-1.5823407904995832,-0.00039024209212010566,0.0,-1.4103944031867117,-0.05268086556478834,0.0,-3.2903437034510286,0.04373986085039373,0.0,-0.4277889619672477,0.004622663185774317,0.0,-8.986601017024753e-05,0.006366572479545954,0.0,,,,,,
2024-08-13 17:13:40.132778,-1.998727472446265,0.002499993317057279,0.0,-1.5823407904995832,-0.0003902420921525424,0.0,-1.4103944031867117,-0.052680865564952176,0.0,-3.290343703451027,0.04373986085074044,0.0,-0.4277889619672486,0.004622663185913244,0.0,-8.986601016935936e-05,0.006366572479381708,0.0,,,,,,
2024-08-13 17:13:40.142184,-1.998727472446264,0.0024999933169504236,0.0,-1.5823407904995832,-0.00039024209224105795,0.0,-1.4103944031867117,-0.052680865564404315,0.0,-3.2903437034510286,0.043739860850555916,0.0,-0.4277889619672477,0.0046226631859000635,0.0,-8.986601017024753e-05,0.00636657247926466,0.0,,,,,,
2024-08-13 17:13:40.152632,-1.998727472446264,0.0024999933170557448,0.0,-1.5823407904995832,-0.000390242092239763,0.0,-1.4103944031867126,-0.05268086556450302,0.0,-3.2903437034510286,0.0437398608502264,0.0,-0.4277889619672477,0.00462266318577432,0.0,-8.986601016935936e-05,0.006366572479651857,0.0,,,,,,
2024-08-13 17:13:40.162265,-1.998727472446264,0.0024999933170705077,0.0,-1.5823407904995823,-0.000390242092085205,0.0,-1.4103944031867117,-0.05268086556485684,0.0,-3.2903437034510286,0.04373986085029136,0.0,-0.4277889619672477,0.004622663185946705,0.0,-8.986601016935936e-05,0.006366572479834253,0.0,,,,,,
2024-08-13 17:13:40.172476,-1.998727472446264,0.0024999933170198564,0.0,-1.5823407904995814,-0.00039024209211233713,0.0,-1.4103944031867117,-0.05268086556478574,0.0,-3.2903437034510286,0.04373986085051911,0.0,-0.4277889619672486,0.0046226631858672556,0.0,-8.986601017024753e-05,0.0063665724794905,0.0,,,,,,
2024-08-13 17:13:40.182601,-1.998727472446264,0.002499993317071554,0.0,-1.5823407904995823,-0.00039024209216348285,0.0,-1.4103944031867108,-0.05268086556472613,0.0,-3.2903437034510286,0.04373986085048702,0.0,-0.4277889619672477,0.004622663185855803,0.0,-8.986601017024753e-05,0.006366572479363222,0.0,,,,,,
2024-08-13 17:13:40.192214,-1.998727472446264,0.002499993317147316,0.0,-1.5823407904995823,-0.0003902420920973695,0.0,-1.4103944031867117,-0.052680865564946375,0.0,-3.2903437034510286,0.04373986085051511,0.0,-0.4277889619672468,0.00462266318589114,0.0,-8.986601016935936e-05,0.006366572479598516,0.0,,,,,,
2024-08-13 17:13:40.202286,-1.998727472446264,0.002499993317069056,0.0,-1.5823407904995832,-0.000390242092192616,0.0,-1.4103944031867108,-0.05268086556481372,0.0,-3.2903437034510286,0.04373986085065821,0.0,-0.4277889619672477,0.004622663185944253,0.0,-8.986601017024753e-05,0.006366572479323766,0.0,,,,,,
2024-08-13 17:13:40.212898,-1.998727472446265,0.0024999933169806824,0.0,-1.5823407904995832,-0.00039024209212059984,0.0,-1.4103944031867126,-0.052680865564955125,0.0,-3.2903437034510286,0.04373986085069085,0.0,-0.4277889619672477,0.004622663185798667,0.0,-8.986601017024753e-05,0.006366572479497683,0.0,,,,,,
2024-08-13 17:13:40.222719,-1.998727472446265,0.00249999331697898,0.0,-1.5823407904995832,-0.0003902420921963368,0.0,-1.4103944031867126,-0.052680865564662005,0.0,-3.2903437034510286,0.043739860850491225,0.0,-0.4277889619672468,0.004622663186153501,0.0,-8.986601016935936e-05,0.006366572479552325,0.0,,,,,,
2024-08-13 17:13:40.233120,-1.998727472446264,0.0024999933170498155,0.0,-1.5823407904995823,-0.00039024209214283444,0.0,-1.4103944031867117,-0.052680865564721756,0.0,-3.2903437034510286,0.04373986085038883,0.0,-0.4277889619672468,0.004622663185846882,0.0,-8.986601017024753e-05,0.0063665724796304725,0.0,,,,,,
2024-08-13 17:13:40.246610,-1.998727472446264,0.0024999933171327656,0.0,-1.5823407904995832,-0.0003902420921092686,0.0,-1.4103944031867126,-0.05268086556474261,0.0,-3.2903437034510286,0.043739860850432924,0.0,-0.4277889619672477,0.004622663185756118,0.0,-8.986601017024753e-05,0.0063665724794788395,0.0,,,,,,
2024-08-13 17:13:40.256499,-1.998727472446264,0.0024999933170252882,0.0,-1.5823407904995832,-0.0003902420921494383,0.0,-1.4103944031867126,-0.0526808655648375,0.0,-3.2903437034510286,0.0437398608507404,0.0,-0.4277889619672477,0.004622663186057275,0.0,-8.986601017024753e-05,0.006366572479504773,0.0,,,,,,
2024-08-13 17:13:40.266690,-1.998727472446264,0.0024999933170698485,0.0,-1.5823407904995814,-0.0003902420921399611,0.0,-1.4103944031867126,-0.05268086556496157,0.0,-3.2903437034510286,0.04373986085066499,0.0,-0.42778896196724947,0.004622663185748638,0.0,-8.986601016935936e-05,0.006366572479587284,0.0,,,,,,
2024-08-13 17:13:40.276447,-1.998727472446264,0.0024999933170484923,0.0,-1.5823407904995832,-0.00039024209216772274,0.0,-1.4103944031867126,-0.05268086556481521,0.0,-3.2903437034510286,0.043739860850629975,0.0,-0.4277889619672477,0.0046226631858471215,0.0,-8.986601017024753e-05,0.006366572479492939,0.0,,,,,,
2024-08-13 17:13:40.286644,-1.998727472446264,0.0024999933169769116,0.0,-1.5823407904995823,-0.000390242092224343,0.0,-1.4103944031867126,-0.052680865564517045,0.0,-3.2903437034510286,0.043739860850268805,0.0,-0.4277889619672477,0.004622663185850382,0.0,-8.986601016935936e-05,0.006366572479603119,0.0,,,,,,
2024-08-13 17:13:40.296977,-1.998727472446264,0.0024999933170552335,0.0,-1.5823407904995823,-0.00039024209216825356,0.0,-1.4103944031867126,-0.05268086556481767,0.0,-3.2903437034510286,0.04373986085056779,0.0,-0.4277889619672486,0.004622663185942682,0.0,-8.986601017024753e-05,0.00636657247950472,0.0,,,,,,
2024-08-13 17:13:40.306230,-1.998727472446264,0.0024999933170286623,0.0,-1.5823407904995823,-0.0003902420921725184,0.0,-1.4103944031867117,-0.05268086556470811,0.0,-3.2903437034510286,0.043739860850376865,0.0,-0.4277889619672477,0.004622663185463319,0.0,-8.986601016935936e-05,0.006366572479711407,0.0,,,,,,
2024-08-13 17:13:40.316517,-1.998727472446265,0.0024999933170619885,0.0,-1.5823407904995832,-0.00039024209209831255,0.0,-1.4103944031867126,-0.05268086556500304,0.0,-3.2903437034510286,0.04373986085058804,0.0,-0.4277889619672477,0.004622663185690792,0.0,-8.986601017024753e-05,0.0063665724794473,0.0,,,,,,
2024-08-13 17:13:40.326326,-1.998727472446264,0.0024999933170302695,0.0,-1.5823407904995832,-0.0003902420921501732,0.0,-1.4103944031867117,-0.05268086556490396,0.0,-3.2903437034510286,0.04373986085062542,0.0,-0.4277889619672468,0.004622663185616415,0.0,-8.986601016935936e-05,0.00636657247958417,0.0,,,,,,
2024-08-13 17:13:40.336794,-1.998727472446264,0.002499993317125864,0.0,-1.5823407904995832,-0.0003902420922014811,0.0,-1.4103944031867126,-0.05268086556469155,0.0,-3.2903437034510286,0.043739860850413655,0.0,-0.4277889619672468,0.004622663185880959,0.0,-8.986601016935936e-05,0.0063665724795531654,0.0,,,,,,
2024-08-13 17:13:40.346779,-1.998727472446264,0.0024999933170778772,0.0,-1.5823407904995832,-0.0003902420921947792,0.0,-1.4103944031867117,-0.05268086556457841,0.0,-3.2903437034510286,0.04373986085035914,0.0,-0.4277889619672477,0.004622663186047221,0.0,-8.986601017024753e-05,0.006366572479417533,0.0,,,,,,
2024-08-13 17:13:40.356776,-1.998727472446264,0.0024999933170664224,0.0,-1.5823407904995832,-0.0003902420921917209,0.0,-1.4103944031867135,-0.052680865564718134,0.0,-3.2903437034510286,0.04373986085058689,0.0,-0.4277889619672468,0.004622663185825573,0.0,-8.986601016935936e-05,0.006366572479434514,0.0,,,,,,
2024-08-13 17:13:40.366709,-1.998727472446264,0.0024999933170880275,0.0,-1.5823407904995814,-0.0003902420921683947,0.0,-1.4103944031867117,-0.05268086556485799,0.0,-3.2903437034510286,0.04373986085075634,0.0,-0.4277889619672486,0.004622663186015936,0.0,-8.986601016935936e-05,0.006366572479401974,0.0,,,,,,
2024-08-13 17:13:40.376751,-1.998727472446264,0.0024999933170178953,0.0,-1.5823407904995832,-0.00039024209215998695,0.0,-1.4103944031867126,-0.05268086556472585,0.0,-3.2903437034510286,0.043739860850439,0.0,-0.4277889619672477,0.0046226631859231995,0.0,-8.986601017024753e-05,0.0063665724795052316,0.0,,,,,,
2024-08-13 17:13:40.386763,-1.998727472446264,0.0024999933169781515,0.0,-1.5823407904995823,-0.00039024209210575906,0.0,-1.4103944031867117,-0.052680865564856835,0.0,-3.290343703451027,0.04373986085067924,0.0,-0.4277889619672486,0.004622663185661388,0.0,-8.986601017024753e-05,0.006366572479410509,0.0,,,,,,
2024-08-13 17:13:40.396789,-1.998727472446264,0.0024999933171255258,0.0,-1.5823407904995823,-0.00039024209215606995,0.0,-1.4103944031867126,-0.05268086556482639,0.0,-3.2903437034510286,0.04373986085061815,0.0,-0.4277889619672477,0.004622663185930418,0.0,-8.986601017024753e-05,0.006366572479372529,0.0,,,,,,
2024-08-13 17:13:40.407071,-1.998727472446264,0.0024999933171384377,0.0,-1.5823407904995814,-0.0003902420921293721,0.0,-1.4103944031867117,-0.05268086556462157,0.0,-3.2903437034510286,0.04373986085056353,0.0,-0.4277889619672468,0.004622663186129455,0.0,-8.986601017024753e-05,0.006366572479142455,0.0,,,,,,
2024-08-13 17:13:40.416988,-1.998727472446264,0.0024999933170849,0.0,-1.5823407904995832,-0.00039024209216986967,0.0,-1.4103944031867108,-0.05268086556468425,0.0,-3.2903437034510286,0.043739860850376865,0.0,-0.4277889619672477,0.0046226631858384635,0.0,-8.986601017024753e-05,0.006366572479408448,0.0,,,,,,
2024-08-13 17:13:40.426528,-1.998727472446264,0.0024999933170650507,0.0,-1.5823407904995823,-0.00039024209213987717,0.0,-1.4103944031867135,-0.05268086556464433,0.0,-3.2903437034510286,0.04373986085024423,0.0,-0.4277889619672468,0.0046226631860544305,0.0,-8.986601017024753e-05,0.006366572479701559,0.0,,,,,,
2024-08-13 17:13:40.436670,-1.998727472446265,0.002499993317044049,0.0,-1.5823407904995832,-0.0003902420922039791,0.0,-1.4103944031867126,-0.052680865564689004,0.0,-3.2903437034510286,0.043739860850452464,0.0,-0.4277889619672477,0.004622663186073386,0.0,-8.986601017024753e-05,0.006366572479496478,0.0,,,,,,
2024-08-13 17:13:40.447766,-1.998727472446264,0.0024999933170132774,0.0,-1.5823407904995832,-0.0003902420921316856,0.0,-1.4103944031867117,-0.05268086556474407,0.0,-3.2903437034510286,0.043739860850447954,0.0,-0.4277889619672486,0.0046226631858652485,0.0,-8.986601017024753e-05,0.006366572479529325,0.0,,,,,,
2024-08-13 17:13:40.456851,-1.998727472446264,0.002499993317076871,0.0,-1.5823407904995823,-0.0003902420921090169,0.0,-1.4103944031867117,-0.05268086556471858,0.0,-3.2903437034510286,0.04373986085031532,0.0,-0.4277889619672477,0.004622663185757022,0.0,-8.986601016935936e-05,0.006366572479674351,0.0,,,,,,
2024-08-13 17:13:40.466806,-1.998727472446264,0.002499993317040373,0.0,-1.5823407904995832,-0.0003902420921482548,0.0,-1.4103944031867126,-0.05268086556476301,0.0,-3.290343703451027,0.04373986085049137,0.0,-0.4277889619672477,0.004622663185903885,0.0,-8.986601017024753e-05,0.006366572479541713,0.0,,,,,,
2024-08-13 17:13:40.476792,-1.998727472446265,0.002499993317027619,0.0,-1.5823407904995823,-0.00039024209217875883,0.0,-1.4103944031867126,-0.05268086556478669,0.0,-3.2903437034510286,0.04373986085074185,0.0,-0.4277889619672468,0.004622663186003127,0.0,-8.986601017024753e-05,0.0063665724791664245,0.0,,,,,,
2024-08-13 17:13:40.486608,-1.998727472446264,0.0024999933169816534,0.0,-1.5823407904995832,-0.00039024209225045777,0.0,-1.4103944031867117,-0.05268086556460164,0.0,-3.2903437034510286,0.04373986085059554,0.0,-0.4277889619672486,0.004622663185694702,0.0,-8.986601016935936e-05,0.006366572479480157,0.0,,,,,,
2024-08-13 17:13:40.496608,-1.998727472446264,0.0024999933170374933,0.0,-1.5823407904995832,-0.0003902420921459977,0.0,-1.4103944031867117,-0.05268086556481225,0.0,-3.2903437034510286,0.04373986085046036,0.0,-0.4277889619672468,0.004622663185740701,0.0,-8.986601016935936e-05,0.006366572479551166,0.0,,,,,,
2024-08-13 17:13:40.506961,-1.998727472446264,0.0024999933170593816,0.0,-1.5823407904995832,-0.0003902420921273206,0.0,-1.4103944031867135,-0.05268086556471453,0.0,-3.2903437034510286,0.04373986085038633,0.0,-0.4277889619672486,0.004622663185719004,0.0,-8.986601017024753e-05,0.006366572479452321,0.0,,,,,,
2024-08-13 17:13:40.516585,-1.998727472446264,0.0024999933169590617,0.0,-1.5823407904995832,-0.0003902420923195364,0.0,-1.4103944031867135,-0.05268086556437589,0.0,-3.2903437034510286,0.04373986085058026,0.0,-0.4277889619672477,0.004622663185754363,0.0,-8.986601017024753e-05,0.006366572479292951,0.0,,,,,,
2024-08-13 17:13:40.526581,-1.998727472446265,0.002499993317064012,0.0,-1.5823407904995832,-0.0003902420921093935,0.0,-1.4103944031867117,-0.05268086556467658,0.0,-3.2903437034510286,0.0437398608501048,0.0,-0.4277889619672468,0.0046226631857576184,0.0,-8.986601016935936e-05,0.006366572479823411,0.0,,,,,,
2024-08-13 17:13:40.536718,-1.998727472446264,0.0024999933170597208,0.0,-1.5823407904995832,-0.0003902420921716454,0.0,-1.4103944031867126,-0.052680865564713436,0.0,-3.2903437034510286,0.04373986085034411,0.0,-0.4277889619672477,0.004622663185812791,0.0,-8.986601017024753e-05,0.006366572479552639,0.0,,,,,,
2024-08-13 17:13:40.546525,-1.998727472446264,0.0024999933170906886,0.0,-1.5823407904995832,-0.00039024209219307897,0.0,-1.4103944031867117,-0.05268086556476563,0.0,-3.2903437034510286,0.04373986085062613,0.0,-0.4277889619672477,0.004622663185980499,0.0,-8.986601017024753e-05,0.0063665724794160754,0.0,,,,,,
2024-08-13 17:13:40.556529,-1.998727472446264,0.0024999933171386242,0.0,-1.5823407904995823,-0.00039024209212506155,0.0,-1.4103944031867117,-0.05268086556497518,0.0,-3.2903437034510286,0.043739860850793344,0.0,-0.4277889619672468,0.004622663185897722,0.0,-8.986601017024753e-05,0.006366572479354611,0.0,,,,,,
2024-08-13 17:13:40.566689,-1.9987249724945588,0.0024998958348811788,0.0,-1.5823411819464777,-0.00039145302096093,0.0,-1.410447082749279,-0.052679563334230475,0.0,-3.2902999616289406,0.043741822191995676,0.0,-0.42778434002714594,0.004621940220328194,0.0,-8.349939323171185e-05,0.006364723345432057,0.0,,,,,,
2024-08-13 17:13:40.576364,-1.9987249724776035,0.002499912791455156,0.0,-1.582341181931368,-0.0003914379118846779,0.0,-1.4104470827476874,-0.052679561745214654,0.0,-3.290299961637135,0.04374181399684165,0.0,-0.42778434001489263,0.004621952472716335,0.0,-8.349940211171969e-05,0.006364714465355454,0.0,,,,,,
2024-08-13 17:13:40.586802,-1.9987249724728287,0.0024999175660064244,0.0,-1.5823411819279867,-0.0003914345299472371,0.0,-1.4104470827471012,-0.052679561157253044,0.0,-3.290299961639835,0.043741811298636024,0.0,-0.42778434001074395,0.00462195662060348,0.0,-8.34994042717696e-05,0.0063647123075078575,0.0,,,,,,
2024-08-13 17:13:40.597051,-1.998724972471436,0.0024999189589479413,0.0,-1.5823411819271216,-0.0003914336648715743,0.0,-1.4104470827469164,-0.05267956097112875,0.0,-3.2902999616406485,0.04374181048281642,0.0,-0.4277843400094783,0.004621957887726311,0.0,-8.349940485086194e-05,0.006364711729744785,0.0,,,,,,
2024-08-13 17:13:40.606784,-1.9987249724710106,0.002499919383623551,0.0,-1.582341181926881,-0.0003914334252376186,0.0,-1.4104470827468596,-0.05267956091535567,0.0,-3.29029996164089,0.04374181024277714,0.0,-0.42778434000910437,0.004621958262322304,0.0,-8.349940501251041e-05,0.006364711567709017,0.0,,,,,,
2024-08-13 17:13:40.616621,-1.9987249724708693,0.0024999195254017874,0.0,-1.5823411819268116,-0.0003914333552026215,0.0,-1.4104470827468427,-0.052679560898471124,0.0,-3.2902999616409594,0.04374181017282102,0.0,-0.42778434000899423,0.004621958372382147,0.0,-8.349940505958386e-05,0.006364711521105987,0.0,,,,,,
2024-08-13 17:13:40.626685,-1.9987249724708134,0.0024999195815972896,0.0,-1.5823411819267894,-0.00039143333323773087,0.0,-1.4104470827468365,-0.052679560893150325,0.0,-3.2902999616409807,0.04374181015219569,0.0,-0.4277843400089605,0.004621958405052948,0.0,-8.349940507379472e-05,0.0063647115073118665,0.0,,,,,,
2024-08-13 17:13:40.636498,-1.9987249724707858,0.00249991961000893,0.0,-1.5823411819267823,-0.00039143332539306997,0.0,-1.4104470827468347,-0.052679560891415296,0.0,-3.290299961640986,0.0437418101458051,0.0,-0.4277843400089498,0.004621958415580963,0.0,-8.349940507734743e-05,0.006364711503451281,0.0,,,,,,
2024-08-13 17:13:40.646460,-1.998724972470768,0.002499919627744334,0.0,-1.5823411819267788,-0.0003914333221389534,0.0,-1.4104470827468347,-0.052679560890170576,0.0,-3.2902999616409896,0.04374181014350955,0.0,-0.42778434000894805,0.0046219584191325765,0.0,-8.349940507823561e-05,0.006364711502136528,0.0,,,,,,
2024-08-13 17:13:40.656371,-1.9987249724707539,0.0024999196403380592,0.0,-1.582341181926777,-0.00039143332022816284,0.0,-1.4104470827468338,-0.05267956088947358,0.0,-3.2902999616409896,0.0437418101424,0.0,-0.4277843400089463,0.004621958420490005,0.0,-8.349940507912379e-05,0.00636471150176879,0.0,,,,,,
2024-08-13 17:13:40.666367,-1.9987249724707459,0.0024999196501235715,0.0,-1.582341181926776,-0.0003914333190221213,0.0,-1.4104470827468338,-0.052679560888949324,0.0,-3.2902999616409914,0.04374181014185178,0.0,-0.4277843400089445,0.0046219584216038905,0.0,-8.349940507912379e-05,0.006364711501421355,0.0,,,,,,
2024-08-13 17:13:40.676751,-1.9987249724707388,0.0024999196576275806,0.0,-1.5823411819267752,-0.00039143331808949404,0.0,-1.410447082746833,-0.05267956088841799,0.0,-3.2902999616409896,0.04374181014143881,0.0,-0.4277843400089436,0.004621958422444332,0.0,-8.349940507912379e-05,0.006364711501182031,0.0,,,,,,
2024-08-13 17:13:40.686746,-1.9987249724707308,0.002499919663587369,0.0,-1.5823411819267743,-0.00039143331741709093,0.0,-1.410447082746833,-0.05267956088824372,0.0,-3.2902999616409896,0.04374181014162676,0.0,-0.4277843400089436,0.004621958422824472,0.0,-8.349940508001197e-05,0.006364711500832944,0.0,,,,,,
2024-08-13 17:13:40.696832,-1.9987249724707281,0.002499919668217502,0.0,-1.5823411819267734,-0.00039143331691503984,0.0,-1.4104470827468312,-0.05267956088766111,0.0,-3.2902999616409896,0.04374181014090879,0.0,-0.4277843400089427,0.004621958423096031,0.0,-8.349940508001197e-05,0.006364711500911208,0.0,,,,,,
2024-08-13 17:13:40.706534,-1.9987249724707237,0.0024999196718134657,0.0,-1.5823411819267734,-0.0003914333166029876,0.0,-1.4104470827468312,-0.05267956088739937,0.0,-3.2902999616409896,0.04374181014144807,0.0,-0.4277843400089436,0.004621958423169332,0.0,-8.349940508001197e-05,0.006364711500420058,0.0,,,,,,
2024-08-13 17:13:40.716582,-1.998724972470722,0.002499919674869264,0.0,-1.5823411819267716,-0.00039143331631230367,0.0,-1.410447082746833,-0.05267956088706309,0.0,-3.290299961640993,0.04374181014057287,0.0,-0.4277843400089436,0.004621958423473336,0.0,-8.349940507912379e-05,0.006364711500798514,0.0,,,,,,
2024-08-13 17:13:40.726497,-1.9987249724707183,0.0024999196772816463,0.0,-1.5823411819267716,-0.000391433315965447,0.0,-1.4104470827468312,-0.052679560886826245,0.0,-3.2902999616409914,0.04374181014035071,0.0,-0.4277843400089427,0.004621958423891315,0.0,-8.349940508001197e-05,0.006364711500875558,0.0,,,,,,
2024-08-13 17:13:40.736858,-1.9987249724707166,0.002499919679161317,0.0,-1.5823411819267725,-0.0003914333157443795,0.0,-1.4104470827468338,-0.0526795608870235,0.0,-3.290299961640993,0.04374181014070059,0.0,-0.4277843400089427,0.004621958423513314,0.0,-8.349940508001197e-05,0.006364711500522334,0.0,,,,,,
2024-08-13 17:13:40.746687,-1.9987249724707148,0.002499919680664674,0.0,-1.5823411819267716,-0.00039143331566005024,0.0,-1.410447082746832,-0.05267956088672031,0.0,-3.290299961640993,0.043741810140422076,0.0,-0.4277843400089427,0.004621958423968033,0.0,-8.349940508001197e-05,0.006364711500669015,0.0,,,,,,
2024-08-13 17:13:40.756577,-1.9987249724707148,0.0024999196817707147,0.0,-1.5823411819267725,-0.00039143331564606837,0.0,-1.4104470827468312,-0.052679560886197754,0.0,-3.290299961640993,0.04374181014031865,0.0,-0.42778434000894183,0.004621958423960374,0.0,-8.349940508001197e-05,0.00636471150033714,0.0,,,,,,
2024-08-13 17:13:40.766447,-1.9987224725926573,0.0024998221897089543,0.0,-1.5823415745649256,-0.0003926442788778049,0.0,-1.4104997610047194,-0.05267825865595505,0.0,-3.2902562178696413,0.04374377145475507,0.0,-0.427779718773615,0.004621235445114225,0.0,-7.713452652158281e-05,0.006362862409663312,0.0,,,,,,
2024-08-13 17:13:40.776733,-1.9987226340844924,0.002499680843543137,0.0,-1.5822217820392808,-0.0004108769464748528,0.0,-1.411605031234119,-0.052658195258734185,0.0,-3.2892702288820286,0.043786769004069984,0.0,-0.4277799985254731,0.004608932591579604,0.0,-7.749352972918899e-05,0.006322192061384511,0.0,,,,,,
2024-08-13 17:13:40.786637,-1.9987227954386402,0.0024996771874764056,0.0,-1.5821019893794597,-0.00042897543917247536,0.0,-1.4127103014375866,-0.05263810592868402,0.0,-3.2882842399561425,0.04382970482788225,0.0,-0.4277802781870603,0.0045967200093041645,0.0,-7.785262663428938e-05,0.006281427961804483,0.0,,,,,,
2024-08-13 17:13:40.796542,-1.9987229567546798,0.0024997116403964637,0.0,-1.581982196693352,-0.0004470476461891598,0.0,-1.4138155716482075,-0.05261802375417189,0.0,-3.287298251043922,0.04387262698538453,0.0,-0.4277805578191751,0.004584536898394874,0.0,-7.821173636468615e-05,0.00624065101312557,0.0,,,,,,
2024-08-13 17:13:40.806409,-1.9987231180598108,0.0024997570003602396,0.0,-1.5818624040027973,-0.00046511540178120325,0.0,-1.4149208418720365,-0.052597954783767845,0.0,-3.2863122621297296,0.04391555111387466,0.0,-0.42778083744446427,0.0045723606147446225,0.0,-7.857084321827301e-05,0.006199876907261679,0.0,,,,,,
2024-08-13 17:13:40.816456,-1.998723279361731,0.002499805572364097,0.0,-1.5817426113129576,-0.00048318387774386423,0.0,-1.4160261121104867,-0.05257790043836481,0.0,-3.285326273208831,0.04395848194832796,0.0,-0.4277811170700323,0.004560184051714838,0.0,-7.892994353220217e-05,0.006159109301785263,0.0,,,,,,
2024-08-13 17:13:40.826405,-1.9987234406626415,0.0024998551542069806,0.0,-1.5816228186251935,-0.000501254423618749,0.0,-1.4171313823639746,-0.052557861129734186,0.0,-3.2843402842798053,0.04400142090977932,0.0,-0.4277813966979931,0.004548005095891013,0.0,-7.928903635168183e-05,0.006118349148253125,0.0,,,,,,
2024-08-13 17:13:40.836355,-1.9987236019631522,0.0024999051374615363,0.0,-1.5815030259403204,-0.0005193278843595715,0.0,-1.4182366526324728,-0.0525378368223754,0.0,-3.283354295342294,0.04404436835350047,0.0,-0.42778167632884756,0.004535823250784086,0.0,-7.964812141025845e-05,0.0060775967162048404,0.0,,,,,,
2024-08-13 17:13:40.847238,-1.9987237632634667,0.0024999553149825703,0.0,-1.5813832332581554,-0.000537404032632984,0.0,-1.4193419229161606,-0.0525178277138434,0.0,-3.2823683063960836,0.04408732449964859,0.0,-0.42778195596284707,0.00452363825672403,0.0,-8.000719865730588e-05,0.006036852052575421,0.0,,,,,,
2024-08-13 17:13:40.856944,-1.9987239245636452,0.002500005627446376,0.0,-1.5812634405784756,-0.0005554826661807594,0.0,-1.4204471932151819,-0.052497833939017274,0.0,-3.2813823174410555,0.0441302894648374,0.0,-0.4277822356000964,0.004511450012963206,0.0,-8.036626809371228e-05,0.005996115160103914,0.0,,,,,,
2024-08-13 17:13:40.866683,-1.9987240858637003,0.0025000560646686733,0.0,-1.5811436479013279,-0.0005735638302666293,0.0,-1.421552463529558,-0.05247785551916367,0.0,-3.2803963284771633,0.044173263292763436,0.0,-0.42778251524059474,0.004499258519097514,0.0,-8.07253297256949e-05,0.005955386030533435,0.0,,,,,,
2024-08-13 17:13:40.876630,-1.9987242471636355,0.0025001066228353373,0.0,-1.5810238552267044,-0.0005916475210142846,0.0,-1.4226577338593271,-0.052457892488325296,0.0,-3.2794103395043663,0.04421624602614521,0.0,-0.4277827948843411,0.004487063776831748,0.0,-8.108438356924097e-05,0.00591466464878211,0.0,,,,,,
2024-08-13 17:13:40.886808,-1.9987244084634472,0.0025001573019357874,0.0,-1.580904062554599,-0.0006097337281467481,0.0,-1.4237630042045142,-0.05243794488024729,0.0,-3.2784243505226236,0.044259237705689146,0.0,-0.4277830745313329,0.004474865788713285,0.0,-8.144342964211404e-05,0.005873950998431059,0.0,,,,,,
2024-08-13 17:13:40.896579,-1.9987245697631408,0.0025002081023561295,0.0,-1.580784269884999,-0.0006278224410261874,0.0,-1.424868274565159,-0.05241801272692248,0.0,-3.2774383615318943,0.044302238371628846,0.0,-0.4277833541815701,0.004462664558032589,0.0,-8.18024679611895e-05,0.005833245061639118,0.0,,,,,,
2024-08-13 17:13:40.906516,-1.9987247310627083,0.0025002590262544785,0.0,-1.580664477217893,-0.0006459136492310081,0.0,-1.425973544941285,-0.05239809605901266,0.0,-3.2764523725321393,0.04434524806286328,0.0,-0.4277836338350429,0.004450460089278865,0.0,-8.216149854511912e-05,0.0057925468210532115,0.0,,,,,,
2024-08-13 17:13:40.916453,-1.9987248923621506,0.002500310075418088,0.0,-1.580544684553275,-0.0006640073427405691,0.0,-1.4270788153329308,-0.05237819490602806,0.0,-3.2754663835233195,0.0443882668184223,0.0,-0.4277839134917487,0.004438252387103011,0.0,-8.252052141077826e-05,0.00575185625844943,0.0,,,,,,
2024-08-13 17:13:40.926882,-1.9987250536614676,0.0025003612528366444,0.0,-1.5804248918911312,-0.0006821035114278146,0.0,-1.428184085740119,-0.05235830929708388,0.0,-3.274480394505398,0.044431294677217695,0.0,-0.4277841931516857,0.004426041455149552,0.0,-8.287953657859504e-05,0.005711173355397069,0.0,,,,,,
2024-08-13 17:13:40.936881,-1.9987252149606487,0.0025004125615406677,0.0,-1.5803050992314522,-0.0007002021458150282,0.0,-1.4292893561628777,-0.0523384392598497,0.0,-3.2734944054783344,0.044474331677396645,0.0,-0.42778447281484855,0.004413827298371614,0.0,-8.323854406810938e-05,0.005670498093119623,0.0,,,,,,
2024-08-13 17:13:40.946850,-1.9987253762596984,0.002500464004916684,0.0,-1.5801853065742282,-0.0007183032356800936,0.0,-1.430394626601239,-0.05231858482321456,0.0,-3.272508416442092,0.0445173778564556,0.0,-0.4277847524812275,0.004401609921711429,0.0,-8.359754389442031e-05,0.005629830454547003,0.0,,,,,,
2024-08-13 17:13:40.956839,-1.9987255375586077,0.002500515586541753,0.0,-1.5800655139194528,-0.0007364067720583538,0.0,-1.4314998970552253,-0.052298746013310186,0.0,-3.2715224273966306,0.04456043325272348,0.0,-0.4277850321508243,0.004389389329851931,0.0,-8.39565360797323e-05,0.005589170419799021,0.0,,,,,,
2024-08-13 17:13:40.966657,-1.9987230368958704,0.002500607038231063,0.0,-1.5800662513566281,-0.0007374433217984379,0.0,-1.4315521944541514,-0.05229739967430773,0.0,-3.2714778651073426,0.04456228939639437,0.0,-0.42778064335275623,0.0043887981872455465,0.0,-7.83673206123936e-05,0.0055872061133985206,0.0,,,,,,
2024-08-13 17:13:40.976632,-1.9987232066494371,0.002500301163857183,0.0,-1.5799576929716925,-0.0007570359716593347,0.0,-1.4326925150308139,-0.05227614818567689,0.0,-3.2704456097714814,0.044606716231455845,0.0,-0.42778092560718584,0.004375736283652274,0.0,-7.870461709291732e-05,0.005545385143494206,0.0,,,,,,
2024-08-13 17:13:40.986550,-1.9987233762863212,0.002500111975667827,0.0,-1.5798491344576806,-0.0007764995427165683,0.0,-1.4338328355964762,-0.052254885695607094,0.0,-3.2694133544795583,0.0446510991275325,0.0,-0.4277812077944798,0.0043627415124629365,0.0,-7.904199147468205e-05,0.00550348617800627,0.0,,,,,,
2024-08-13 17:13:40.996783,-1.9987235458909494,0.0024999550439288747,0.0,-1.5797405759198735,-0.0007959393217377382,0.0,-1.434973156173676,-0.05223363474275022,0.0,-3.268381099195441,0.04469547421649076,0.0,-0.42778148995856125,0.004349769959011799,0.0,-7.937937519209015e-05,0.005461577851096506,0.0,,,,,,
2024-08-13 17:13:41.006589,-1.9987237154862214,0.0024998074660874817,0.0,-1.5796320173783582,-0.0008153753912975781,0.0,-1.4361134767669235,-0.052212399837114266,0.0,-3.2673488439062464,0.044739854384680346,0.0,-0.42778177211765467,0.004336803389697169,0.0,-7.971675504325759e-05,0.005419673360275596,0.0,,,,,,
2024-08-13 17:13:41.016511,-1.9987238850786078,0.002499662776055091,0.0,-1.5795234588376947,-0.0008348123115162196,0.0,-1.4372537973773367,-0.05219118209990794,0.0,-3.2663165886079657,0.04478424363873158,0.0,-0.4277820542776398,0.004323835928372185,0.0,-8.005412797462697e-05,0.005377775753074046,0.0,,,,,,
2024-08-13 17:13:41.026684,-1.9987240546699612,0.0024995191194057296,0.0,-1.57941490029905,-0.0008542512498549944,0.0,-1.4383941180052462,-0.05216998185490551,0.0,-3.2652843332993875,0.04482864318932059,0.0,-0.42778233644027797,0.0043108658160896755,0.0,-8.03914932072658e-05,0.0053358858113520344,0.0,,,,,,
2024-08-13 17:13:41.036497,-1.998724224260818,0.0024993759584612213,0.0,-1.579306341762736,-0.0008736925208357306,0.0,-1.4395344386507585,-0.05214879921506949,0.0,-3.2642520779801316,0.044873053417888706,0.0,-0.42778261860607625,0.00429789254173951,0.0,-8.072885053422851e-05,0.005294003737969357,0.0,,,,,,
2024-08-13 17:13:41.048123,-1.9987243938513384,0.0024992331342244293,0.0,-1.5791977832288377,-0.0008931362078370195,0.0,-1.4406747593139277,-0.052127634231300984,0.0,-3.2632198226500617,0.04491747446158261,0.0,-0.42778290077518744,0.004284915957486863,0.0,-8.106619991465891e-05,0.005252129577030561,0.0,,,,,,
2024-08-13 17:13:41.056879,-1.9987245634415718,0.002499090597612319,0.0,-1.579089224697375,-0.0009125823292152902,0.0,-1.441815079994785,-0.05210648693714657,0.0,-3.2621875673091076,0.044961906388140356,0.0,-0.4277831829476453,0.0042719360231576135,0.0,-8.14035413476688e-05,0.005210263326772839,0.0,,,,,,
2024-08-13 17:13:41.066873,-1.9987247330315334,0.00249894833275876,0.0,-1.5789806661683465,-0.0009320308851804749,0.0,-1.4429554006933616,-0.052085357361390916,0.0,-3.2611553119572254,0.04500634924558405,0.0,-0.4277834651234649,0.004258952727974777,0.0,-8.174087484924542e-05,0.005168404973411455,0.0,,,,,,
2024-08-13 17:13:41.076819,-1.9987249026212277,0.002498806334110655,0.0,-1.5788721076417456,-0.0009514818698342809,0.0,-1.444095721409683,-0.052064245530593654,0.0,-3.260123056594369,0.045050803073617,0.0,-0.427783747302648,0.004245966071187904,0.0,-8.207820043626413e-05,0.005126554500139605,0.0,,,,,,
2024-08-13 17:13:41.086646,-1.9987250722106573,0.0024986645990669907,0.0,-1.5787635491175684,-0.0009709352768894975,0.0,-1.4452360421437742,-0.05204315147009387,0.0,-3.2590908012205007,0.045095267913183114,0.0,-0.42778402948519023,0.004232976053526932,0.0,-8.241551812915304e-05,0.0050847118865404856,0.0,,,,,,
2024-08-13 17:13:41.096753,-1.9987252417998258,0.0024985231281805177,0.0,-1.5786549905958063,-0.0009903910987633137,0.0,-1.4463763628956618,-0.05202207520520375,0.0,-3.258058545835585,0.04513974380272302,0.0,-0.42778431167109154,0.00421998267755695,0.0,-8.275282794567573e-05,0.005042877113955712,0.0,,,,,,
2024-08-13 17:13:41.106899,-1.9987254113887278,0.0024983819216466974,0.0,-1.5785464320764493,-0.001009849328119818,0.0,-1.44751668366537,-0.05200101675995901,0.0,-3.2570262904395815,0.045184230779179255,0.0,-0.4277845938603493,0.0042069859455702695,0.0,-8.309012990714848e-05,0.005001050163129913,0.0,,,,,,
2024-08-13 17:13:41.116775,-1.9987255809773554,0.0024982409913572303,0.0,-1.5784378735596805,-0.001029310160827412,0.0,-1.4486570044528486,-0.05197997608108719,0.0,-3.2559940350324883,0.04522872884123297,0.0,-0.4277848760529128,0.004193985910830018,0.0,-8.342742402600578e-05,0.004959231022430742,0.0,,,,,,
2024-08-13 17:13:41.126752,-1.9987257505656952,0.0024981003474070654,0.0,-1.57832931504592,-0.0010487739840343454,0.0,-1.4497973252579621,-0.05195895304104536,0.0,-3.2549617796143515,0.045273237951886466,0.0,-0.42778515824867647,0.004180982671597423,0.0,-8.376471031112942e-05,0.004917419679417225,0.0,,,,,,
2024-08-13 17:13:41.137104,-1.9987259201537757,0.0024979599625755797,0.0,-1.5782207565344295,-0.0010682400788455647,0.0,-1.4509376460810088,-0.05193794793555511,0.0,-3.2539295241849917,0.04531775828414193,0.0,-0.4277854404478223,0.004167976051700416,0.0,-8.410198880604014e-05,0.004875616094284054,0.0,,,,,,
2024-08-13 17:13:41.147223,-1.9987260897415862,0.002497819849004096,0.0,-1.5781121980253052,-0.0010877085393794148,0.0,-1.4520779669219763,-0.051916960749695706,0.0,-3.2528972687443907,0.04536228985725519,0.0,-0.42778572265031567,0.0041549660816821805,0.0,-8.44392595249488e-05,0.004833820251977485,0.0,,,,,,
2024-08-13 17:13:41.157019,-1.9987262593291204,0.0024976800103826886,0.0,-1.5780036395185515,-0.0011071793699632345,0.0,-1.4532182877808806,-0.05189599150187702,0.0,-3.2518650132925155,0.04540683270621608,0.0,-0.4277860048561557,0.0041419527675344795,0.0,-8.477652248561895e-05,0.004792032133236657,0.0,,,,,,
2024-08-13 17:13:41.167064,-1.9987237614834346,0.002497790198494087,0.0,-1.5780047477093573,-0.0011081969697251672,0.0,-1.4532701824356273,-0.0518946554779667,0.0,-3.251819604616116,0.04540867651524803,0.0,-0.42778186348735936,0.004141368913973922,0.0,-7.998444904711022e-05,0.00479007534221429,0.0,,,,,,
2024-08-13 17:13:41.176907,-1.9987239317100167,0.0024972745507993816,0.0,-1.577913818283888,-0.0011283395203524863,0.0,-1.4543927141005204,-0.05187318119581892,0.0,-3.250787555025905,0.04545253590859073,0.0,-0.4277821336834373,0.00412808213356346,0.0,-8.027992241910198e-05,0.004749066426330887,0.0,,,,,,
2024-08-13 17:13:41.187141,-1.9987241018143065,0.0024968811970144545,0.0,-1.5778228887152481,-0.001148338900252171,0.0,-1.455515245762144,-0.05185170364816879,0.0,-3.2497555054789444,0.045496352048933084,0.0,-0.42778240381126054,0.004114863607423495,0.0,-8.057547248618846e-05,0.004707980700326862,0.0,,,,,,
2024-08-13 17:13:41.197064,-1.9987242718846794,0.002496521760527631,0.0,-1.5777319591203456,-0.0011683120158285602,0.0,-1.4566377774365806,-0.05183023891052717,0.0,-3.248723455939724,0.04554016045314432,0.0,-0.42778267391459845,0.004101669568950667,0.0,-8.087103259502015e-05,0.004666884913753138,0.0,,,,,,
2024-08-13 17:13:41.207206,-1.9987244419451402,0.0024961722384741125,0.0,-1.5776410295210217,-0.0011882807117483353,0.0,-1.4577603091277815,-0.051808790935547314,0.0,-3.2476914063947255,0.04558397463319306,0.0,-0.4277829440123826,0.004088481081379494,0.0,-8.116658952683764e-05,0.004625792282326534,0.0,,,,,,
2024-08-13 17:13:41.217079,-1.9987246120024587,0.00249582585675703,0.0,-1.5775500999221668,-0.0012082498752555826,0.0,-1.4588828408368393,-0.05178736082139698,0.0,-3.2466593568396878,0.04562779885230487,0.0,-0.42778321411076536,0.004075291994440181,0.0,-8.146214016768738e-05,0.004584705918516198,0.0,,,,,,
2024-08-13 17:13:41.227100,-1.9987247820585807,0.0024954806722323306,0.0,-1.5774591703250207,-0.0012282207489848112,0.0,-1.4600053725640878,-0.051765948894914184,0.0,-3.2456273072733235,0.045671634398992106,0.0,-0.42778348421159507,0.004062100463513127,0.0,-8.17576837057743e-05,0.004543626629450036,0.0,,,,,,
2024-08-13 17:13:41.237073,-1.9987249521140704,0.002495136118684826,0.0,-1.5773682407299237,-0.0012481936699161845,0.0,-1.4611279043096292,-0.05174455526287384,0.0,-3.2445952576952326,0.04571548167132424,0.0,-0.4277837543154055,0.004048905950090072,0.0,-8.205321993237646e-05,0.004502554626260753,0.0,,,,,,
2024-08-13 17:13:41.247350,-1.9987251221691,0.002494792025986185,0.0,-1.5772773111369636,-0.0012681687298776903,0.0,-1.462250436073509,-0.05172317997018527,0.0,-3.243563208105279,0.04575934080739598,0.0,-0.42778402442235564,0.004035708297953292,0.0,-8.234874879864407e-05,0.004461489956458809,0.0,,,,,,
2024-08-13 17:13:41.256862,-1.9987252922237246,0.0024944483388947528,0.0,-1.577186381546168,-0.0012881459528319814,0.0,-1.463372967855756,-0.05170182304265949,0.0,-3.242531158503397,0.04580321187104695,0.0,-0.427784294532489,0.004022507461716599,0.0,-8.26442703045771e-05,0.004420432621090735,0.0,,,,,,
2024-08-13 17:13:41.266993,-1.998725462277962,0.002494105037746219,0.0,-1.5770954519575378,-0.0013081253427044452,0.0,-1.4644954996563886,-0.05168048450140189,0.0,-3.2414991088895473,0.04584709490410485,0.0,-0.4277845646458207,0.004009303427175913,0.0,-8.29397844617219e-05,0.004379382608213654,0.0,,,,,,
2024-08-13 17:13:41.277474,-1.9987256323318245,0.002493762112548491,0.0,-1.5770045223710738,-0.0013281068984405666,0.0,-1.4656180314754241,-0.0516591643636726,0.0,-3.2404670592636893,0.04589098994169155,0.0,-0.4277848347623552,0.003996096190665441,0.0,-8.323529128606566e-05,0.004338339901114552,0.0,,,,,,
2024-08-13 17:13:41.287436,-1.998725802385315,0.002493419558733598,0.0,-1.5769135927867726,-0.001348090616598374,0.0,-1.466740563312884,-0.05163786264876829,0.0,-3.239435009625795,0.04593489701768315,0.0,-0.4277851048820924,0.003982885750693149,0.0,-8.353079079714831e-05,0.004297304483150745,0.0,,,,,,
2024-08-13 17:13:41.297458,-1.9987259724384385,0.0024930773727983874,0.0,-1.5768226632046305,-0.0013680764932596729,0.0,-1.4678630951687826,-0.05161657937395025,0.0,-3.238402959975833,0.045978816163469424,0.0,-0.427785375005036,0.003969672105991577,0.0,-8.382628300829253e-05,0.004256276337721326,0.0,,,,,,
2024-08-13 17:13:41.307456,-1.9987261424911953,0.002492735552643697,0.0,-1.5767317336246423,-0.001388064524890183,0.0,-1.4689856270431383,-0.05159531455640863,0.0,-3.2373709103137664,0.046022747412650125,0.0,-0.42778564513118233,0.003956455255928925,0.0,-8.412176794170279e-05,0.004215255446139062,0.0,,,,,,
2024-08-13 17:13:41.317201,-1.9987263125435888,0.0024923940969840313,0.0,-1.5766408040468052,-0.0014080547074613674,0.0,-1.4701081589359681,-0.05157406821278653,0.0,-3.236338860639563,0.04606669079649528,0.0,-0.4277859152605359,0.003943235199801621,0.0,-8.441724561158992e-05,0.004174241791352506,0.0,,,,,,
2024-08-13 17:13:41.327250,-1.9987264825956181,0.002492053004985792,0.0,-1.5765498744711166,-0.0014280470369525784,0.0,-1.471230690847289,-0.0515528403606235,0.0,-3.2353068109531957,0.04611064634750266,0.0,-0.42778618539309665,0.003930011937348512,0.0,-8.471271603660568e-05,0.0041332353561168555,0.0,,,,,,
2024-08-13 17:13:41.337323,-1.9987266526472833,0.0024917122769873403,0.0,-1.5764589448975685,-0.0014480415090851386,0.0,-1.4723532227771186,-0.051531631016680374,0.0,-3.234274761254628,0.0461546140972554,0.0,-0.42778645552886285,0.003916785468185439,0.0,-8.500817923629e-05,0.004092236122330993,0.0,,,,,,
2024-08-13 17:13:41.347279,-1.9987268226985835,0.0024913719127447674,0.0,-1.57636801532616,-0.0014680381202302796,0.0,-1.4734757547254755,-0.051510440196474674,0.0,-3.233242711543829,0.046198594077665835,0.0,-0.4277867256678354,0.003903555791390508,0.0,-8.530363522574191e-05,0.004051244072296945,0.0,,,,,,
2024-08-13 17:13:41.357087,-1.9987269927495204,0.0024910319123133437,0.0,-1.5762770857568877,-0.0014880368663611168,0.0,-1.474598286692368,-0.05148926791681429,0.0,-3.232210661820769,0.04624258631993807,0.0,-0.42778699581001955,0.0038903229066144292,0.0,-8.559908402450134e-05,0.004010259188692664,0.0,,,,,,
2024-08-13 17:13:41.367266,-1.9987245015419335,0.002491152348137685,0.0,-1.576278574794413,-0.0014890436853218952,0.0,-1.474649774636557,-0.05148794490892065,0.0,-3.23216441739768,0.04624442321542084,0.0,-0.42778310606991177,0.0038897402181305068,0.0,-8.158877870823034e-05,0.004008315649991836,0.0,,,,,,
2024-08-13 17:13:41.377169,-1.9987246716576053,0.00249042831137831,0.0,-1.5762054678450192,-0.0015096962780819087,0.0,-1.4757524999766023,-0.05146629924269755,0.0,-3.2311343979444196,0.0462876594822002,0.0,-0.4277833632690209,0.003876254743185508,0.0,-8.18422381616557e-05,0.00396818034206692,0.0,,,,,,
2024-08-13 17:13:41.387038,-1.9987248416439591,0.0024898335958852815,0.0,-1.5761323607371531,-0.0015301903777352195,0.0,-1.4768552253212661,-0.051444658199909545,0.0,-3.2301043785344157,0.04633085249970084,0.0,-0.4277836203975953,0.003862839800443075,0.0,-8.209577323459172e-05,0.003927969274527317,0.0,,,,,,
2024-08-13 17:13:41.397903,-1.998725011594023,0.0024892751680776573,0.0,-1.5760592536000428,-0.0015506552344489272,0.0,-1.477957950679988,-0.051423031215866305,0.0,-3.229074359132584,0.046374037342792725,0.0,-0.4277838774998042,0.003849451222894907,0.0,-8.234931902428855e-05,0.0038877474727734046,0.0,,,,,,
2024-08-13 17:13:41.407569,-1.9987251815333806,0.0024887274469250495,0.0,-1.575986146457702,-0.001571114861793046,0.0,-1.479060676055937,-0.051401421458058094,0.0,-3.2280443397246703,0.046417228270031405,0.0,-0.42778413459567943,0.003836068980086437,0.0,-8.260286233241487e-05,0.0038475281393225906,0.0,,,,,,
2024-08-13 17:13:41.417782,-1.9987253514693215,0.0024881831432478968,0.0,-1.5759130393154732,-0.0015915745996390505,0.0,-1.4801634014501541,-0.051379829970305414,0.0,-3.227014320306056,0.04646042989353771,0.0,-0.42778439169182114,0.0038226864702761406,0.0,-8.285639995531113e-05,0.0038073144744463897,0.0,,,,,,
2024-08-13 17:13:41.427180,-1.9987255214039141,0.002487640187364152,0.0,-1.575839932174709,-0.0016120358029184636,0.0,-1.4812661268629732,-0.051358257081554705,0.0,-3.2259843008753495,0.04650364361443949,0.0,-0.42778464879021527,0.0038093017065829893,0.0,-8.310993104387876e-05,0.0037671073249665723,0.0,,,,,,
2024-08-13 17:13:41.437483,-1.9987256913377731,0.0024870979652855778,0.0,-1.5757668250357788,-0.0016324988413776002,0.0,-1.4823688522944938,-0.05133670289654363,0.0,-3.224954281432115,0.046546869859944384,0.0,-0.42778490589144713,0.0037959141064039126,0.0,-8.336345537340861e-05,0.00372690691648493,0.0,,,,,,
2024-08-13 17:13:41.447311,-1.9987258612710876,0.00248655628795332,0.0,-1.5756937178987218,-0.001652963755558904,0.0,-1.483471577744778,-0.05131516747258318,0.0,-3.2239242619762045,0.04659010878237532,0.0,-0.4277851629957006,0.0037825234863440712,0.0,-8.36169729021563e-05,0.003686713290540286,0.0,,,,,,
2024-08-13 17:13:41.457093,-1.9987260312039066,0.0024860151066482985,0.0,-1.5756206107631348,-0.0016734301359090078,0.0,-1.484574303213975,-0.05129365096419475,0.0,-3.2228942425074933,0.04663336050538381,0.0,-0.4277854201030964,0.0037691297207063366,0.0,-8.387048368696526e-05,0.0036465263892027943,0.0,,,,,,
2024-08-13 17:13:41.467644,-1.9987262011362734,0.0024854743734777666,0.0,-1.575547503629388,-0.001693898358358609,0.0,-1.4856770287019847,-0.05127215326687751,0.0,-3.2218642230260035,0.0466766250077024,0.0,-0.42778567721360083,0.00375573284869188,0.0,-8.412398768431473e-05,0.0036063462559688935,0.0,,,,,,
2024-08-13 17:13:41.477440,-1.9987263710682042,0.0024849340814988683,0.0,-1.5754743964976121,-0.001714368549393234,0.0,-1.4867797542087864,-0.05125067436125835,0.0,-3.220834203531716,0.0467199023056187,0.0,-0.4277859343271908,0.003742332889629686,0.0,-8.437748488887564e-05,0.0035661728967220276,0.0,,,,,,
2024-08-13 17:13:41.487221,-1.998726540999698,0.002484394224281117,0.0,-1.5754012893676153,-0.0017348405262826872,0.0,-1.4878824797346413,-0.051229214506934566,0.0,-3.219804184024433,0.046763192599013015,0.0,-0.427786191443956,0.0037289297576397,0.0,-8.463097516830942e-05,0.003526006440679205,0.0,,,,,,
2024-08-13 17:13:41.497318,-1.9987267109307343,0.0024838548240313633,0.0,-1.575328182239536,-0.001755314412861805,0.0,-1.4889852052793788,-0.05120777353853349,0.0,-3.2187741645042642,0.046806495777319955,0.0,-0.42778644856380854,0.003715523536037945,0.0,-8.488445864962557e-05,0.003485846766242046,0.0,,,,,,
2024-08-13 17:13:41.507371,-1.9987268808613372,0.0024833158588155337,0.0,-1.5752550751134213,-0.0017757902670549846,0.0,-1.4900879308429484,-0.05118635140036226,0.0,-3.2177441449712236,0.04684981183119819,0.0,-0.42778670568675015,0.003702114227594283,0.0,-8.513793538167391e-05,0.0034456938234150745,0.0,,,,,,
2024-08-13 17:13:41.517177,-1.9987270507915156,0.0024827773162833418,0.0,-1.5751819679892873,-0.0017962681026171643,0.0,-1.4911906564253474,-0.051164948092462574,0.0,-3.216714125425284,0.04689314078478561,0.0,-0.4277869628127817,0.003688701825920411,0.0,-8.539140538221801e-05,0.00340554759259374,0.0,,,,,,
2024-08-13 17:13:41.527224,-1.9987272207212783,0.0024822391903039677,0.0,-1.5751088608671375,-0.0018167479213859494,0.0,-1.4922933820265873,-0.051143563624215425,0.0,-3.215684105866414,0.04693648266498276,0.0,-0.4277872199419157,0.0036752863261204664,0.0,-8.564486866724508e-05,0.003365408059268497,0.0,,,,,,
2024-08-13 17:13:41.537264,-1.998727390650628,0.0024817014771142086,0.0,-1.5750357537469701,-0.0018372297231116868,0.0,-1.4933961076466726,-0.051122198005731576,0.0,-3.2146540862945923,0.046979837498545514,0.0,-0.42778747707414766,0.003661867723223078,0.0,-8.589832525274232e-05,0.0033252752077090647,0.0,,,,,,
2024-08-13 17:13:41.547359,-1.9987275605795674,0.0024811641738050464,0.0,-1.574962646628787,-0.0018577135069250189,0.0,-1.4944988332856237,-0.05110085124773412,0.0,-3.2136240667097895,0.047023205311922237,0.0,-0.4277877342094909,0.0036484460138368592,0.0,-8.615177515380879e-05,0.0032851490227603984,0.0,,,,,,
2024-08-13 17:13:41.557278,-1.9987277305081,0.0024806272787328445,0.0,-1.5748895395125844,-0.0018781992718762503,0.0,-1.4956015589434415,-0.051079523360196846,0.0,-3.2125940471119847,0.0470665861312551,0.0,-0.427787991347941,0.003635021195275965,0.0,-8.640521838554349e-05,0.003245029489097168,0.0,,,,,,
2024-08-13 17:13:41.567228,-1.9987252496951822,0.0024807579645368463,0.0,-1.574891418701229,-0.0018791948169927396,0.0,-1.4956526371572396,-0.05107821450319953,0.0,-3.212546978694794,0.04706841732164336,0.0,-0.4277843569085693,0.003634439476233141,0.0,-8.316013419928936e-05,0.003243099745249024,0.0,,,,,,
2024-08-13 17:13:41.577163,-1.9987254194796993,0.002479828814155365,0.0,-1.5748360471822973,-0.0019003560741751874,0.0,-1.4967360180651266,-0.051056401218118524,0.0,-3.211518613617255,0.0471110659257455,0.0,-0.4277846008815116,0.0036207551959742835,0.0,-8.33724297404359e-05,0.003203809560271108,0.0,,,,,,
2024-08-13 17:13:41.587058,-1.9987255891285303,0.0024790353492025173,0.0,-1.5747806754904363,-0.0019213444033270824,0.0,-1.4978193989842445,-0.051034599168452766,0.0,-3.2104902485833473,0.04715367090241705,0.0,-0.42778484478210377,0.0036071432656195127,0.0,-8.358480037795601e-05,0.003164444119343834,0.0,,,,,,
2024-08-13 17:13:41.597718,-1.9987257587396208,0.0024782796287978904,0.0,-1.5747253037677724,-0.001942301944327681,0.0,-1.4989027799177093,-0.05101281145658775,0.0,-3.209461883558264,0.04719626704780362,0.0,-0.4277850886550274,0.003593559005820446,0.0,-8.37971824623196e-05,0.0031250672209075167,0.0,,,,,,
2024-08-13 17:13:41.607179,-1.9987259283396233,0.00247753499526358,0.0,-1.5746699320396178,-0.00196325398021746,0.0,-1.4999861608685272,-0.050991041105256096,0.0,-3.208433518526885,0.04723886949491134,0.0,-0.4277853325211458,0.003579981549686382,0.0,-8.400956262555326e-05,0.0030856922360507316,0.0,,,,,,
2024-08-13 17:13:41.617152,-1.9987260979360508,0.002476793935942455,0.0,-1.5746145603112847,-0.0019842058357058007,0.0,-1.5010695418378805,-0.05096928929199574,0.0,-3.2074051534842627,0.04728148318271564,0.0,-0.4277855763873637,0.003566403994029986,0.0,-8.422193759471952e-05,0.0030463224332200763,0.0,,,,,,
2024-08-13 17:13:41.627834,-1.9987262675310555,0.002476054299830104,0.0,-1.574559188584251,-0.002005158993082367,0.0,-1.5021529228260881,-0.05094755632874642,0.0,-3.206376788428941,0.04732410957099141,0.0,-0.42778582025571765,0.003552824301743628,0.0,-8.443430649940353e-05,0.0030069586821964626,0.0,,,,,,
2024-08-13 17:13:41.637717,-1.9987264371252715,0.002475315453739397,0.0,-1.5745038168589145,-0.0020261138471241325,0.0,-1.5032363038332441,-0.05092584231523178,0.0,-3.2053484233604763,0.04736674910222585,0.0,-0.427786064126809,0.0035392418724764325,0.0,-8.464666910956709e-05,0.002967601214318716,0.0,,,,,,
2024-08-13 17:13:41.647762,-1.9987266067189546,0.0024745771540871735,0.0,-1.574448445135143,-0.0020470703412291493,0.0,-1.5043196848593814,-0.050904147282534715,0.0,-3.204320058278725,0.0474094019173984,0.0,-0.4277863080008082,0.0035256565342159886,0.0,-8.485902536303769e-05,0.002928250088988622,0.0,,,,,,
2024-08-13 17:13:41.657802,-1.9987267763122105,0.0024738392665990226,0.0,-1.5743930734128637,-0.0020680282516547916,0.0,-1.5054030659045061,-0.05088247123778677,0.0,-3.2032916931836373,0.047452068071995285,0.0,-0.4277865518777677,0.003512068235225444,0.0,-8.507137525182173e-05,0.0028889053161515387,0.0,,,,,,
2024-08-13 17:13:41.667674,-1.9987269459049344,0.002473101912156199,0.0,-1.5743377016924878,-0.0020889880660586832,0.0,-1.5064864469686299,-0.05086081419250039,0.0,-3.202263328075176,0.04749474759912473,0.0,-0.4277867957577177,0.0034984769491207403,0.0,-8.52837187892419e-05,0.002849566880831331,0.0,,,,,,
2024-08-13 17:13:41.677544,-1.9987271154971449,0.0024723650676878846,0.0,-1.5742823299739752,-0.0021099497430124435,0.0,-1.5075698280517615,-0.050839176154210054,0.0,-3.20123496295332,0.04753744052238357,0.0,-0.4277870396406609,0.0034848826664371124,0.0,-8.549605598773269e-05,0.002810234771707099,0.0,,,,,,
2024-08-13 17:13:41.687546,-1.998727285088865,0.002471628715868209,0.0,-1.5742269582573225,-0.0021309132809747416,0.0,-1.5086532091539056,-0.05081755712934419,0.0,-3.2002065978180423,0.04758014686550166,0.0,-0.4277872835266088,0.0034712853795868456,0.0,-8.570838686150495e-05,0.002770908975443989,0.0,,,,,,
2024-08-13 17:13:41.697335,-1.9987274546801057,0.0024708928426922334,0.0,-1.574171586542534,-0.0021518786814240802,0.0,-1.5097365902750726,-0.050795957125091315,0.0,-3.199178232669325,0.04762286664973005,0.0,-0.4277875274155676,0.0034576850827120866,0.0,-8.592071142032864e-05,0.0027315894797431965,0.0,,,,,,
2024-08-13 17:13:41.707344,-1.998727624270881,0.0024701574371325586,0.0,-1.5741162148296108,-0.0021728459464726434,0.0,-1.5108199714152626,-0.05077437614776762,0.0,-3.1981498675071425,0.047665599897748774,0.0,-0.4277877713075444,0.0034440817689654277,0.0,-8.613302967930281e-05,0.0026922762718677167,0.0,,,,,,
2024-08-13 17:13:41.717511,-1.998727793861196,0.0024694224899311076,0.0,-1.5740608431185528,-0.002193815077664062,0.0,-1.5119033525744872,-0.05075281420390576,0.0,-3.197121502331475,0.04770834663093268,0.0,-0.42778801520254195,0.0034304754328085495,0.0,-8.634534165086194e-05,0.002652969338728855,0.0,,,,,,
2024-08-13 17:13:41.727201,-1.99872796345106,0.002468687993088768,0.0,-1.5740054714093608,-0.00221478607695582,0.0,-1.5129867337527525,-0.05073127129899389,0.0,-3.196093137142302,0.047751106870551605,0.0,-0.4277882591005673,0.003416866068709416,0.0,-8.655764734744054e-05,0.0026136686674884503,0.0,,,,,,
2024-08-13 17:13:41.737268,-1.9987281330404834,0.0024679539395406724,0.0,-1.5739500997020401,-0.0022357589458089216,0.0,-1.5140701149500613,-0.05070974743850838,0.0,-3.195064771939603,0.04779388063678143,0.0,-0.42778850300162663,0.0034032536699896768,0.0,-8.676994678324945e-05,0.0025743742452203153,0.0,,,,,,
2024-08-13 17:13:41.747526,-1.9987283026294662,0.002467220323410511,0.0,-1.57389472799659,-0.002256733685949984,0.0,-1.5151534961664197,-0.05068824262771555,0.0,-3.194036406723354,0.047836667952145626,0.0,-0.4277887469057262,0.0033896382315568713,0.0,-8.698223997072319e-05,0.0025350860582569537,0.0,,,,,,
2024-08-13 17:13:41.757289,-1.9987284722180183,0.0024664871400483456,0.0,-1.5738393562930122,-0.0022777102985521323,0.0,-1.5162368774018367,-0.05066675687320696,0.0,-3.1930080414935347,0.04787946883705116,0.0,-0.42778899081287314,0.003376019747771815,0.0,-8.719452692318441e-05,0.002495804094433812,0.0,,,,,,
2024-08-13 17:13:41.767871,-1.998726005536561,0.0024666268340085146,0.0,-1.5738416349831101,-0.002278696349486748,0.0,-1.5162875428625622,-0.05066546141512923,0.0,-3.1929601601985915,0.04788129508180124,0.0,-0.4277856153749946,0.0033754379743443767,0.0,-8.469865655857944e-05,0.002493888148297279,0.0,,,,,,
2024-08-13 17:13:41.777673,-1.9987261747913836,0.00246549348384516,0.0,-1.5738039241528996,-0.002300372541217509,0.0,-1.5173521127924925,-0.050643475441026764,0.0,-3.1919329898361064,0.04792338913386242,0.0,-0.42778584592772617,0.003361552483261231,0.0,-8.487065952778039e-05,0.0024554132381598404,0.0,,,,,,
2024-08-13 17:13:41.787749,-1.998726343904102,0.00246450223755169,0.0,-1.57376621313527,-0.0023218613129270555,0.0,-1.5184166827405523,-0.050621507594822514,0.0,-3.1909058195175657,0.04796543924297353,0.0,-0.42778607640628774,0.003347741158434612,0.0,-8.504273668652473e-05,0.0024168639557347943,0.0,,,,,,
2024-08-13 17:13:41.797907,-1.9987265129773988,0.002463550415285737,0.0,-1.5737285020837486,-0.002343316190962035,0.0,-1.519481252703848,-0.05059955498565857,0.0,-3.189878649208431,0.04800747994591631,0.0,-0.4277863068560315,0.0033339586536158365,0.0,-8.521482586409945e-05,0.0023783026462861853,0.0,,,,,,
2024-08-13 17:13:41.807655,-1.9987266820391012,0.0024626101889177357,0.0,-1.5736907910270312,-0.002364765887895962,0.0,-1.520545822684289,-0.05057761951926282,0.0,-3.1888514788931346,0.04804952680829402,0.0,-0.42778653729826654,0.003320183660523461,0.0,-8.53869135752916e-05,0.0023397427987529446,0.0,,,,,,
2024-08-13 17:13:41.817729,-1.9987268510970795,0.0024616736845321373,0.0,-1.5736530799698778,-0.0023862151354953785,0.0,-1.5216103926833942,-0.050555702720241846,0.0,-3.1878243085662477,0.04809158526332748,0.0,-0.42778676774043944,0.003306408727102893,0.0,-8.555899651518928e-05,0.00230118771724198,0.0,,,,,,
2024-08-13 17:13:41.827610,-1.9987270201535683,0.0024607386679127074,0.0,-1.573615368913895,-0.0024076655543632114,0.0,-1.5226749627014629,-0.05053380488396627,0.0,-3.1867971382262326,0.048133656846729655,0.0,-0.42778699818466137,0.0032926317432990025,0.0,-8.573107378229139e-05,0.002262638300048526,0.0,,,,,,
2024-08-13 17:13:41.837645,-1.998727189209231,0.0024598044789594753,0.0,-1.5735776578595189,-0.0024291175785101224,0.0,-1.5237395327385865,-0.05051192610377048,0.0,-3.1857699678726283,0.04817574201877614,0.0,-0.4277872286315567,0.0032788520864444233,0.0,-8.59031451350134e-05,0.0022240947895649102,0.0,,,,,,
2024-08-13 17:13:41.848506,-1.9987273582642757,0.0024588709110876833,0.0,-1.5735399468068676,-0.0024505713285390986,0.0,-1.5248041027947963,-0.05049006640876173,0.0,-3.184742797505292,0.048217840923207876,0.0,-0.4277874590813102,0.0032650695724913033,0.0,-8.607521051029465e-05,0.0021855572457348976,0.0,,,,,,
2024-08-13 17:13:41.857555,-1.9987275273187715,0.0024579378891539773,0.0,-1.573502235755983,-0.0024720268430003943,0.0,-1.5258686728701019,-0.05046822580741418,0.0,-3.1837156271241676,0.048259953615225545,0.0,-0.4277876895339787,0.0032512841406252733,0.0,-8.624726990280607e-05,0.0021470256769937092,0.0,,,,,,
2024-08-13 17:13:41.867448,-1.9987276963727556,0.0024570053794160758,0.0,-1.5734645247068746,-0.002493484135896115,0.0,-1.5269332429644997,-0.050446404303249606,0.0,-3.1826884567292293,0.048302080120917676,0.0,-0.42778791998958976,0.003237495769705531,0.0,-8.641932331610036e-05,0.0021085000788504315,0.0,,,,,,
2024-08-13 17:13:41.877501,-1.9987278654263072,0.0024560733038165197,0.0,-1.573426813659325,-0.002514943024321792,0.0,-1.5279978130779144,-0.05042460181857579,0.0,-3.1816612863204696,0.04834422044879887,0.0,-0.42778815044814067,0.003223704455924554,0.0,-8.659137074840118e-05,0.0020699804514497286,0.0,,,,,,
2024-08-13 17:13:41.887939,-1.9987280344793685,0.0024551417172509315,0.0,-1.5733891026135927,-0.0025364036925628226,0.0,-1.5290623832104178,-0.050402818417091724,0.0,-3.180634115897861,0.04838637462507764,0.0,-0.4277883809096501,0.003209910186369182,0.0,-8.676341222191297e-05,0.002031466775898316,0.0,,,,,,
2024-08-13 17:13:41.897978,-1.9987282035319343,0.0024542106250171848,0.0,-1.573351391569665,-0.002557866164756722,0.0,-1.530126953362016,-0.0503810541123438,0.0,-3.179606945461387,0.048428542667406906,0.0,-0.4277886113741243,0.0031961129508882163,0.0,-8.693544774907025e-05,0.0019929590395186677,0.0,,,,,,
2024-08-13 17:13:41.907872,-1.9987283725840195,0.0024532800126280435,0.0,-1.5733136805275352,-0.002579330436437843,0.0,-1.5311915235327138,-0.05035930890567564,0.0,-3.178579775011031,0.048470724591717515,0.0,-0.42778884184157207,0.0031823127405389996,0.0,-8.710747733609026e-05,0.0019544572320438058,0.0,,,,,,
2024-08-13 17:13:41.917899,-1.998728541635641,0.0024523498659791113,0.0,-1.5732759694872092,-0.0026007965110521015,0.0,-1.5322560937225127,-0.05033758279907534,0.0,-3.1775526045467757,0.04851292041558862,0.0,-0.42778907231200325,0.003168509547216143,0.0,-8.727950099629567e-05,0.0019159613427015849,0.0,,,,,,
2024-08-13 17:13:41.927610,-1.998728710686808,0.002451420173578245,0.0,-1.5732382584486897,-0.002622264392484301,0.0,-1.533320663931411,-0.050315875794000035,0.0,-3.1765254340686027,0.04855513015511175,0.0,-0.4277893027854267,0.003154703362026012,0.0,-8.745151874300916e-05,0.00187747136095988,0.0,,,,,,
2024-08-13 17:13:41.937737,-1.9987288797375289,0.0024504909247614524,0.0,-1.5732005474119821,-0.002643734085108534,0.0,-1.534385234159414,-0.0502941878917943,0.0,-3.1754982635765003,0.048597353827590874,0.0,-0.4277895332618513,0.0031408941769965524,0.0,-8.762353058333616e-05,0.0018389872764043758,0.0,,,,,,
2024-08-13 17:13:41.947805,-1.9987290487878173,0.0024495621107762785,0.0,-1.5731628363770873,-0.002665205591925096,0.0,-1.5354498044065226,-0.050272519094084596,0.0,-3.1744710930704465,0.04863959144835934,0.0,-0.4277897637412824,0.0031270819837900385,0.0,-8.779553652704664e-05,0.001800509078367317,0.0,,,,,,
2024-08-13 17:13:41.957791,-1.9987292178376777,0.002448633723077057,0.0,-1.5731251253440115,-0.0026866789175154617,0.0,-1.5365143746727323,-0.05025086940102781,0.0,-3.1734439225504296,0.04868184303386465,0.0,-0.4277899942237289,0.003113266775063031,0.0,-8.796753658746326e-05,0.0017620367560862208,0.0,,,,,,
2024-08-13 17:13:41.967979,-1.9987267690013582,0.0024487820429593917,0.0,-1.5731278129935446,-0.002687655817116397,0.0,-1.5365646242593858,-0.05024958733224928,0.0,-3.1733952388857105,0.04868366486418793,0.0,-0.42778688153920985,0.003112684604651256,0.0,-8.620541885573374e-05,0.0017601348685457952,0.0,,,,,,
2024-08-13 17:13:41.977984,-1.9987269375299848,0.0024474454480562795,0.0,-1.5731077127552167,-0.0027098533293170735,0.0,-1.537610872696293,-0.050227421746638266,0.0,-3.172368822933653,0.04872523229183545,0.0,-0.4277870984772658,0.0030985949680892647,0.0,-8.633797029578005e-05,0.0017224493228838907,0.0,,,,,,
2024-08-13 17:13:41.987905,-1.9987271059101381,0.002446257328486083,0.0,-1.5730876123149427,-0.002731848893836308,0.0,-1.5386571211581783,-0.050205281137039794,0.0,-3.171342407025911,0.04876675540801345,0.0,-0.4277873153393763,0.003084581277399079,0.0,-8.64705949030764e-05,0.001684690404881414,0.0,,,,,,
2024-08-13 17:13:41.997827,-1.998727274249231,0.0024451102697390127,0.0,-1.5730675118389452,-0.0027538087469730745,0.0,-1.5397033696356175,-0.0501831560767726,0.0,-3.170315991128554,0.04880826813217599,0.0,-0.42778753217126386,0.0030705978124612515,0.0,-8.660323195641695e-05,0.0016469190301559885,0.0,,,,,,
2024-08-13 17:13:42.008035,-1.9987274425763193,0.0024439752157129433,0.0,-1.5730474113567448,-0.0027757623871643797,0.0,-1.5407496181303895,-0.050161048355836936,0.0,-3.1692895752250565,0.048849787001126306,0.0,-0.4277877489953381,0.003056622159065321,0.0,-8.673586795904242e-05,0.0016091487078785903,0.0,,,,,,
2024-08-13 17:13:42.017646,-1.9987276108995546,0.0024428440136155883,0.0,-1.5730273108740105,-0.0027977154927004,0.0,-1.541795866643783,-0.05013895925540016,0.0,-3.1682631593098023,0.04889131762726478,0.0,-0.4277879658191859,0.00304264672833826,0.0,-8.686849951367037e-05,0.0015713828282153306,0.0,,,,,,
2024-08-13 17:13:42.027506,-1.9987277792212668,0.002441714337104116,0.0,-1.5730072103924042,-0.002819669726900284,0.0,-1.5428421151761151,-0.05011688909129756,0.0,-3.167236743381162,0.04893286163950849,0.0,-0.4277881826450258,0.0030286693101781188,0.0,-8.700112570370067e-05,0.0015336223106041974,0.0,,,,,,
2024-08-13 17:13:42.037830,-1.9987279475421413,0.002440585498288217,0.0,-1.5729871099123656,-0.0028416255279649734,0.0,-1.5438883637274792,-0.05009483796187406,0.0,-3.166210327438652,0.04897441952214498,0.0,-0.4277883994735019,0.003014689254022717,0.0,-8.713374627600246e-05,0.0014958674026780087,0.0,,,,,,
2024-08-13 17:13:42.048347,-1.9987281158623942,0.002439457278893225,0.0,-1.5729670094340225,-0.0028635830224464373,0.0,-1.5449346122979062,-0.050072805893578605,0.0,-3.1651839114821207,0.04901599142316911,0.0,-0.4277886163048086,0.0030007063659527274,0.0,-8.726636117106779e-05,0.0014581181680867147,0.0,,,,,,
2024-08-13 17:13:42.057477,-1.9987282841821088,0.0024383295981690433,0.0,-1.5729469089574122,-0.0028855422513165757,0.0,-1.545980860887397,-0.050050792891045914,0.0,-3.164157495511524,0.04905757739196798,0.0,-0.42778883313900984,0.002986720583135154,0.0,-8.73989703746858e-05,0.0014203746193804422,0.0,,,,,,
2024-08-13 17:13:42.067440,-1.9987284525013234,0.00243720241750373,0.0,-1.5729268084825516,-0.002907503232159564,0.0,-1.5470271094959536,-0.050028798952764054,0.0,-3.163131079526833,0.049099177452767796,0.0,-0.4277890499761323,0.0029727318806505305,0.0,-8.753157388952104e-05,0.001382636752574433,0.0,,,,,,
2024-08-13 17:13:42.077974,-1.9987286208200619,0.002436075712921721,0.0,-1.572906708009455,-0.002929465974220191,0.0,-1.548073358123574,-0.05000682407711192,0.0,-3.162104663528039,0.04914079161982692,0.0,-0.42778926681618934,0.0029587402436230116,0.0,-8.766417172267893e-05,0.00134490456221767,0.0,,,,,,
2024-08-13 17:13:42.087857,-1.9987287891384762,0.002434949349198807,0.0,-1.572886607538068,-0.0029514304398869213,0.0,-1.549119606770076,-0.04998486810936183,0.0,-3.1610782475152166,0.04918241982721252,0.0,-0.42778948365918446,0.0029447456675219244,0.0,-8.779676387593582e-05,0.00130717804442577,0.0,,,,,,
2024-08-13 17:13:42.097835,-1.9987289574564802,0.00243382337902641,0.0,-1.572866507068446,-0.002973396657004114,0.0,-1.550165855435571,-0.049962931109018366,0.0,-3.1600518314882944,0.049224062120286675,0.0,-0.4277897005051319,0.0029307481403838985,0.0,-8.792935036083804e-05,0.001269457190014098,0.0,,,,,,
2024-08-13 17:13:42.108005,-1.998729125774016,0.002432697875789135,0.0,-1.5728464066006118,-0.0029953646625301283,0.0,-1.551212104120122,-0.0499410131651434,0.0,-3.1590254154472253,0.04926571856033219,0.0,-0.42778991735404137,0.002916747650720505,0.0,-8.80619311933728e-05,0.0012317419848575629,0.0,,,,,,
2024-08-13 17:13:42.117907,-1.9987292940911043,0.0024315728213608785,0.0,-1.5728263061345638,-0.0030173344549121314,0.0,-1.5522583528237162,-0.04991911426798178,0.0,-3.1579989993920043,0.049307389152999356,0.0,-0.4277901342059218,0.002902744187815854,0.0,-8.819450637531645e-05,0.0011940324230235236,0.0,,,,,,
2024-08-13 17:13:42.127806,-1.99872946240776,0.002430448199276057,0.0,-1.5728062056703098,-0.0030393060394807853,0.0,-1.5533046015463583,-0.04989723441458082,0.0,-3.1569725833226183,0.04934907391103079,0.0,-0.42779035106078744,0.0028887377418542544,0.0,-8.832707591643896e-05,0.0011563284948009783,0.0,,,,,,
2024-08-13 17:13:42.138142,-1.9987296307239975,0.002429323995554343,0.0,-1.5727861052078518,-0.003061279422363328,0.0,-1.5543508502880412,-0.04987537360210899,0.0,-3.1559461672390534,0.049390772845918925,0.0,-0.4277905679186471,0.0028747283019162754,0.0,-8.845963982651028e-05,0.0011186301919251544,0.0,,,,,,
2024-08-13 17:13:42.147966,-1.998729799039829,0.0024282001981292102,0.0,-1.5727660047471994,-0.0030832546091667003,0.0,-1.555397099048763,-0.049853531828555564,0.0,-3.1549197511413034,0.04943248596865054,0.0,-0.4277907847795115,0.002860715858667966,0.0,-8.859219811263586e-05,0.001080937507551386,0.0,,,,,,
2024-08-13 17:13:42.157603,-1.9987299673552652,0.002427076796014977,0.0,-1.5727459042883554,-0.003105231605505701,0.0,-1.5564433478285187,-0.049831709090715125,0.0,-3.1538933350293537,0.04947421329071016,0.0,-0.4277910016433877,0.0028467004012300086,0.0,-8.872475078547382e-05,0.0010432504329439761,0.0,,,,,,
2024-08-13 17:13:42.167715,-1.9987275400678817,0.002427233493608523,0.0,-1.5727490104817023,-0.00310619963751851,0.0,-1.5564931782681697,-0.04983044033986446,0.0,-3.153843858998478,0.04947603103988815,0.0,-0.4277881555258931,0.002846117567175273,0.0,-8.76814015446925e-05,0.0010413629485573096,0.0,,,,,,
2024-08-13 17:13:42.177491,-1.998727707675373,0.002425693638723092,0.0,-1.572746493987326,-0.0031289258569134957,0.0,-1.5575215488121827,-0.049808085283238095,0.0,-3.152817779819744,0.049517094122147026,0.0,-0.42778835865210585,0.0028318204179660572,0.0,-8.777531373471703e-05,0.001004444444759142,0.0,,,,,,
2024-08-13 17:13:42.187525,-1.9987278751279822,0.0024243086673698495,0.0,-1.5727439772772607,-0.0031514363995711722,0.0,-1.558549919387696,-0.04978576172069794,0.0,-3.1517917006859193,0.04955811229375551,0.0,-0.4277885617003605,0.002817601229008664,0.0,-8.786929794002418e-05,0.0009674536938105642,0.0,,,,,,
2024-08-13 17:13:42.198277,-1.9987280425379828,0.0024229663098080676,0.0,-1.5727414605288412,-0.003173908578460557,0.0,-1.5595782899793011,-0.049763454259032676,0.0,-3.150765621563447,0.04959911911544317,0.0,-0.4277887647172438,0.00280341341043706,0.0,-8.796329495019961e-05,0.0009304501282332935,0.0,,,,,,
2024-08-13 17:13:42.207388,-1.9987282099355799,0.002421636349305082,0.0,-1.5727389437731547,-0.0031963734885238106,0.0,-1.560606660588368,-0.04974116425407442,0.0,-3.149739542434975,0.049640131935246835,0.0,-0.427788967726058,0.0027892336589631964,0.0,-8.805729122585149e-05,0.0008934473005245938,0.0,,,,,,
2024-08-13 17:13:42.217439,-1.998728377329229,0.0024203103409735183,0.0,-1.5727364270169308,-0.0032188378629227467,0.0,-1.5616350312158787,-0.04971889269745772,0.0,-3.1487134632947456,0.04968115651227172,0.0,-0.42778917073450984,0.0027750542719700813,0.0,-8.815128329420219e-05,0.0008564486758599423,0.0,,,,,,
2024-08-13 17:13:42.228047,-1.9987285447213416,0.002418985869577984,0.0,-1.5727339102618296,-0.0032413033581758094,0.0,-1.5626634018621939,-0.04969663994133392,0.0,-3.1476873841410264,0.04972219457966641,0.0,-0.4277893737449112,0.0027608729342079477,0.0,-8.824527022355255e-05,0.0008194551890897961,0.0,,,,,,
2024-08-13 17:13:42.238110,-1.9987287121126283,0.002417662221491077,0.0,-1.572731393508297,-0.0032637704226126463,0.0,-1.5636917725274087,-0.04967440608837342,0.0,-3.1466613049733105,0.04976324664450411,0.0,-0.4277895767579416,0.0027466889680200393,0.0,-8.833925175544266e-05,0.0007824670955868516,0.0,,,,,,
2024-08-13 17:13:42.249561,-1.9987288795033233,0.002416339167315003,0.0,-1.572728876756466,-0.0032862391882200904,0.0,-1.5647201432115523,-0.04965219116105616,0.0,-3.1456352257914477,0.04980431285554157,0.0,-0.42778977977380084,0.002732502171215136,0.0,-8.843322782237095e-05,0.0007454844618284408,0.0,,,,,,
2024-08-13 17:13:42.257913,-1.9987290468935086,0.002415016620651057,0.0,-1.5727263600063803,-0.003308709699119476,0.0,-1.565748513914622,-0.04962999516117353,0.0,-3.144609146595389,0.04984539326139058,0.0,-0.4277899827925582,0.002718312477673934,0.0,-8.852719841101475e-05,0.0007085073026509526,0.0,,,,,,
2024-08-13 17:13:42.268040,-1.998729214283232,0.0024136945380198865,0.0,-1.5727238432580568,-0.0033311819750973153,0.0,-1.5667768846366137,-0.04960781808365673,0.0,-3.1435830673851193,0.049886487880697536,0.0,-0.42779018581424033,0.0027041198603747043,0.0,-8.862116352048588e-05,0.0006715356176942968,0.0,,,,,,
2024-08-13 17:13:42.277816,-1.9987293816725167,0.0024123728921589594,0.0,-1.5727213265115123,-0.0033536560279131527,0.0,-1.5678052553775217,-0.04958565992216471,0.0,-3.142556988160625,0.049927596724104045,0.0,-0.42779038883886056,0.0026899243031421704,0.0,-8.871512315788976e-05,0.0006345694027781968,0.0,,,,,,
2024-08-13 17:13:42.287789,-1.9987295490615073,0.002411051555999551,0.0,-1.5727188097667415,-0.003376131858149733,0.0,-1.568833626137316,-0.049563520648967574,0.0,-3.14153090892187,0.04996871982128117,0.0,-0.42779059186644375,0.00267572578454227,0.0,-8.880907732411458e-05,0.0005976086541092957,0.0,,,,,,
2024-08-13 17:13:42.297870,-1.9987297164501676,0.002409730534932188,0.0,-1.5727162930237613,-0.0033986094745531385,0.0,-1.569861996915991,-0.049541400254866724,0.0,-3.140504829668861,0.05000985717912559,0.0,-0.4277907948969979,0.0026615242936665587,0.0,-8.890302602626576e-05,0.0005606533651973792,0.0,,,,,,
2024-08-13 17:13:42.307673,-1.998729883838405,0.002408409936193561,0.0,-1.572713776282585,-0.003421088896164356,0.0,-1.5708903677135577,-0.04951929875199727,0.0,-3.1394787504016093,0.05005100877892279,0.0,-0.4277909979305283,0.002647319829009979,0.0,-8.899696927144873e-05,0.0005237035282773766,0.0,,,,,,
