will-d-chen/ur3e-codebase/joint_states_20240803_221110.csv
time,shoulder_pan_joint_position,shoulder_pan_joint_velocity,shoulder_pan_joint_effort,shoulder_lift_joint_position,shoulder_lift_joint_velocity,shoulder_lift_joint_effort,elbow_joint_position,elbow_joint_velocity,elbow_joint_effort,wrist_1_joint_position,wrist_1_joint_velocity,wrist_1_joint_effort,wrist_2_joint_position,wrist_2_joint_velocity,wrist_2_joint_effort,wrist_3_joint_position,wrist_3_joint_velocity,wrist_3_joint_effort,force_x,force_y,force_z,torque_x,torque_y,torque_z
2024-08-03 22:11:11.368844,7.145891889059897e-05,0.0010756022893535393,0.0,-1.5699932102836767,-0.003172477415079482,0.0,-1.6019780665565975e-05,0.0013965992711974682,0.0,-1.5699775018227768,4.824288001222638e-05,0.0,-2.1447262877671847e-05,-0.001075514249203812,0.0,-1.923627606270628e-05,-0.000340663415384587,0.0,,,,,,
2024-08-03 22:11:11.369186,7.145891889059897e-05,0.0010756022893761686,0.0,-1.5699932102836767,-0.0031724774149915983,0.0,-1.6019780665565975e-05,0.001396599271108283,0.0,-1.569977501822776,4.8242880199628885e-05,0.0,-2.1447262878560025e-05,-0.0010755142492518733,0.0,-1.923627606359446e-05,-0.00034066341546135645,0.0,,,,,,
2024-08-03 22:11:11.369972,7.145891889059897e-05,0.001075602289409973,0.0,-1.5699932102836767,-0.0031724774150450937,0.0,-1.6019780665565975e-05,0.0013965992710905759,0.0,-1.5699775018227768,4.824287991243533e-05,0.0,-2.1447262878560025e-05,-0.001075514249223876,0.0,-1.923627606359446e-05,-0.0003406634151143156,0.0,,,,,,
2024-08-03 22:11:11.370363,7.145891889059897e-05,0.0010756022894029714,0.0,-1.5699932102836767,-0.003172477415050996,0.0,-1.6019780665565975e-05,0.001396599271261836,0.0,-1.5699775018227768,4.8242880046758005e-05,0.0,-2.1447262878560025e-05,-0.0010755142493590693,0.0,-1.923627606359446e-05,-0.00034066341536312286,0.0,,,,,,
2024-08-03 22:11:11.370583,7.145891889059897e-05,0.0010756022894008945,0.0,-1.5699932102836767,-0.0031724774150384376,0.0,-1.6019780665565975e-05,0.0013965992712384676,0.0,-1.5699775018227777,4.824288003194661e-05,0.0,-2.1447262878560025e-05,-0.0010755142493163402,0.0,-1.923627606359446e-05,-0.0003406634154037042,0.0,,,,,,
2024-08-03 22:11:11.370740,7.145891889059897e-05,0.0010756022894178679,0.0,-1.5699932102836767,-0.0031724774150522755,0.0,-1.6019780665565975e-05,0.0013965992712534022,0.0,-1.5699775018227768,4.824287994337727e-05,0.0,-2.1447262877671847e-05,-0.0010755142492054563,0.0,-1.923627606270628e-05,-0.0003406634153663968,0.0,,,,,,
2024-08-03 22:11:11.370897,7.145891889059897e-05,0.0010756022893740286,0.0,-1.5699932102836767,-0.0031724774150267386,0.0,-1.6019780665565975e-05,0.001396599271244888,0.0,-1.5699775018227768,4.824287989473215e-05,0.0,-2.1447262877671847e-05,-0.0010755142492727392,0.0,-1.923627606359446e-05,-0.0003406634153001268,0.0,,,,,,
2024-08-03 22:11:11.371064,7.145891889059897e-05,0.0010756022893724205,0.0,-1.5699932102836767,-0.0031724774150587677,0.0,-1.6019780666454153e-05,0.0013965992712430817,0.0,-1.5699775018227768,4.824287997177935e-05,0.0,-2.1447262878560025e-05,-0.0010755142492179205,0.0,-1.923627606359446e-05,-0.00034066341520941964,0.0,,,,,,
2024-08-03 22:11:11.371274,7.145891889059897e-05,0.0010756022893454332,0.0,-1.5699932102836767,-0.0031724774150433156,0.0,-1.6019780665565975e-05,0.0013965992711456434,0.0,-1.5699775018227768,4.824288021919212e-05,0.0,-2.1447262877671847e-05,-0.0010755142493934402,0.0,-1.923627606359446e-05,-0.00034066341544939326,0.0,,,,,,
2024-08-03 22:11:11.371427,7.145891889059897e-05,0.001075602289405199,0.0,-1.5699932102836767,-0.003172477415033035,0.0,-1.6019780666454153e-05,0.0013965992711352316,0.0,-1.569977501822776,4.824288007853608e-05,0.0,-2.1447262878560025e-05,-0.0010755142493270968,0.0,-1.923627606359446e-05,-0.0003406634152675381,0.0,,,,,,
2024-08-03 22:11:11.371582,7.145891889059897e-05,0.0010756022893711947,0.0,-1.5699932102836767,-0.003172477415036575,0.0,-1.6019780665565975e-05,0.001396599271074364,0.0,-1.5699775018227768,4.824287987044917e-05,0.0,-2.1447262877671847e-05,-0.0010755142492850848,0.0,-1.923627606270628e-05,-0.0003406634151623387,0.0,,,,,,
2024-08-03 22:11:11.380899,7.145891889059897e-05,0.0010756022893471833,0.0,-1.5699932102836767,-0.003172477415060084,0.0,-1.6019780665565975e-05,0.0013965992712443368,0.0,-1.5699775018227768,4.824287989845324e-05,0.0,-2.1447262877671847e-05,-0.0010755142492857727,0.0,-1.923627606270628e-05,-0.000340663415296525,0.0,,,,,,
2024-08-03 22:11:11.390732,7.145891889059897e-05,0.0010756022893701877,0.0,-1.5699932102836767,-0.0031724774150517646,0.0,-1.6019780666454153e-05,0.0013965992711269396,0.0,-1.5699775018227768,4.824287994292396e-05,0.0,-2.1447262878560025e-05,-0.0010755142493256969,0.0,-1.923627606359446e-05,-0.00034066341510935883,0.0,,,,,,
2024-08-03 22:11:11.400511,7.145891889059897e-05,0.001075602289397834,0.0,-1.5699932102836767,-0.0031724774150751634,0.0,-1.6019780666454153e-05,0.0013965992711874363,0.0,-1.5699775018227768,4.824287999762196e-05,0.0,-2.1447262878560025e-05,-0.001075514249173971,0.0,-1.923627606270628e-05,-0.00034066341533386187,0.0,,,,,,
2024-08-03 22:11:11.410937,7.145891889059897e-05,0.0010756022894459524,0.0,-1.5699932102836767,-0.0031724774150787946,0.0,-1.6019780665565975e-05,0.0013965992712392061,0.0,-1.5699775018227768,4.8242880130418514e-05,0.0,-2.1447262878560025e-05,-0.0010755142492530853,0.0,-1.923627606359446e-05,-0.0003406634154289053,0.0,,,,,,
2024-08-03 22:11:11.420792,7.145891889059897e-05,0.001075602289414143,0.0,-1.5699932102836767,-0.0031724774150034465,0.0,-1.6019780665565975e-05,0.0013965992711015558,0.0,-1.5699775018227768,4.824287995228854e-05,0.0,-2.1447262877671847e-05,-0.0010755142494034684,0.0,-1.923627606359446e-05,-0.00034066341523443207,0.0,,,,,,
2024-08-03 22:11:11.430513,7.145891889059897e-05,0.0010756022893921064,0.0,-1.5699932102836767,-0.0031724774150535154,0.0,-1.6019780666454153e-05,0.0013965992711141356,0.0,-1.569977501822776,4.8242880296400976e-05,0.0,-2.1447262878560025e-05,-0.0010755142492813318,0.0,-1.923627606359446e-05,-0.00034066341543012644,0.0,,,,,,
2024-08-03 22:11:11.440779,7.145891889059897e-05,0.0010756022893938504,0.0,-1.5699932102836767,-0.003172477415101329,0.0,-1.6019780665565975e-05,0.001396599271197188,0.0,-1.5699775018227768,4.824287994310459e-05,0.0,-2.1447262878560025e-05,-0.0010755142491347496,0.0,-1.923627606359446e-05,-0.00034066341524830466,0.0,,,,,,
2024-08-03 22:11:11.450419,7.145891889059897e-05,0.0010756022893666022,0.0,-1.5699932102836758,-0.0031724774150608927,0.0,-1.6019780665565975e-05,0.0013965992711990768,0.0,-1.5699775018227768,4.824287987945726e-05,0.0,-2.1447262877671847e-05,-0.0010755142492667865,0.0,-1.923627606359446e-05,-0.00034066341525399195,0.0,,,,,,
2024-08-03 22:11:11.460758,7.145891889059897e-05,0.001075602289297098,0.0,-1.5699932102836758,-0.0031724774149924544,0.0,-1.6019780665565975e-05,0.0013965992711154013,0.0,-1.5699775018227768,4.824288018767165e-05,0.0,-2.1447262877671847e-05,-0.001075514249309811,0.0,-1.9236276064482638e-05,-0.00034066341550230417,0.0,,,,,,
2024-08-03 22:11:11.471077,7.145891889059897e-05,0.0010756022894038897,0.0,-1.5699932102836767,-0.0031724774150552635,0.0,-1.6019780665565975e-05,0.0013965992710944144,0.0,-1.5699775018227768,4.824288019048039e-05,0.0,-2.1447262878560025e-05,-0.00107551424935067,0.0,-1.923627606270628e-05,-0.00034066341543185943,0.0,,,,,,
2024-08-03 22:11:11.480594,7.145891889059897e-05,0.0010756022893693257,0.0,-1.5699932102836767,-0.0031724774150249193,0.0,-1.6019780665565975e-05,0.0013965992711593067,0.0,-1.5699775018227768,4.82428800672517e-05,0.0,-2.1447262877671847e-05,-0.0010755142492725677,0.0,-1.923627606270628e-05,-0.00034066341532264536,0.0,,,,,,
2024-08-03 22:11:11.490916,7.145891889059897e-05,0.0010756022894164298,0.0,-1.5699932102836767,-0.0031724774150539317,0.0,-1.6019780665565975e-05,0.001396599271128185,0.0,-1.5699775018227768,4.8242880026618516e-05,0.0,-2.1447262878560025e-05,-0.001075514249428754,0.0,-1.923627606359446e-05,-0.0003406634152973109,0.0,,,,,,
2024-08-03 22:11:11.500793,7.145891889059897e-05,0.001075602289444522,0.0,-1.5699932102836767,-0.0031724774150566197,0.0,-1.6019780665565975e-05,0.0013965992711324439,0.0,-1.569977501822776,4.82428801990072e-05,0.0,-2.1447262878560025e-05,-0.0010755142493556052,0.0,-1.923627606359446e-05,-0.0003406634153981454,0.0,,,,,,
2024-08-03 22:11:11.510355,7.145891889059897e-05,0.0010756022893890966,0.0,-1.5699932102836767,-0.0031724774150677774,0.0,-1.6019780665565975e-05,0.001396599271125546,0.0,-1.569977501822776,4.824287997618815e-05,0.0,-2.1447262878560025e-05,-0.0010755142493593418,0.0,-1.923627606270628e-05,-0.0003406634151387161,0.0,,,,,,
2024-08-03 22:11:11.520822,7.145891889059897e-05,0.001075602289400368,0.0,-1.5699932102836767,-0.003172477415013913,0.0,-1.6019780665565975e-05,0.0013965992711893389,0.0,-1.5699775018227768,4.824287991355694e-05,0.0,-2.1447262878560025e-05,-0.0010755142492418766,0.0,-1.923627606359446e-05,-0.00034066341526516346,0.0,,,,,,
2024-08-03 22:11:11.530464,7.145891889059897e-05,0.001075602289443413,0.0,-1.5699932102836767,-0.003172477415081444,0.0,-1.6019780665565975e-05,0.0013965992712628426,0.0,-1.5699775018227768,4.824288004714257e-05,0.0,-2.1447262878560025e-05,-0.0010755142493581598,0.0,-1.923627606359446e-05,-0.00034066341541924994,0.0,,,,,,
2024-08-03 22:11:11.540802,7.145891889059897e-05,0.0010756022893728642,0.0,-1.5699932102836758,-0.003172477415044086,0.0,-1.6019780664677796e-05,0.0013965992711732378,0.0,-1.5699775018227768,4.824288010085655e-05,0.0,-2.1447262878560025e-05,-0.0010755142492209209,0.0,-1.923627606359446e-05,-0.0003406634153850813,0.0,,,,,,
2024-08-03 22:11:11.550794,7.145891889059897e-05,0.0010756022894256058,0.0,-1.5699932102836767,-0.0031724774150821275,0.0,-1.6019780665565975e-05,0.0013965992711757404,0.0,-1.5699775018227768,4.82428801646123e-05,0.0,-2.1447262877671847e-05,-0.001075514249472771,0.0,-1.923627606359446e-05,-0.00034066341542653264,0.0,,,,,,
2024-08-03 22:11:11.561301,7.145891889059897e-05,0.0010756022893866268,0.0,-1.5699932102836767,-0.0031724774150535995,0.0,-1.6019780665565975e-05,0.0013965992713177123,0.0,-1.5699775018227768,4.82428798772482e-05,0.0,-2.1447262878560025e-05,-0.0010755142493253324,0.0,-1.923627606270628e-05,-0.0003406634153056546,0.0,,,,,,
2024-08-03 22:11:11.571114,7.145891889059897e-05,0.0010756022893882878,0.0,-1.5699932102836767,-0.003172477415006666,0.0,-1.6019780665565975e-05,0.001396599271194766,0.0,-1.5699775018227768,4.824288002423013e-05,0.0,-2.1447262878560025e-05,-0.0010755142492993297,0.0,-1.923627606359446e-05,-0.00034066341556232733,0.0,,,,,,
2024-08-03 22:11:11.580773,7.145891889059897e-05,0.0010756022894284278,0.0,-1.5699932102836767,-0.0031724774150527647,0.0,-1.6019780665565975e-05,0.001396599271103475,0.0,-1.5699775018227768,4.824287999503495e-05,0.0,-2.1447262877671847e-05,-0.0010755142494137332,0.0,-1.923627606359446e-05,-0.00034066341530315477,0.0,,,,,,
2024-08-03 22:11:11.591088,7.145891889059897e-05,0.0010756022894266779,0.0,-1.5699932102836758,-0.003172477414994527,0.0,-1.6019780665565975e-05,0.001396599271168766,0.0,-1.5699775018227768,4.824288007027565e-05,0.0,-2.1447262878560025e-05,-0.0010755142493068942,0.0,-1.923627606359446e-05,-0.00034066341519212206,0.0,,,,,,
2024-08-03 22:11:11.600716,7.145891889059897e-05,0.0010756022893994887,0.0,-1.5699932102836767,-0.0031724774150374167,0.0,-1.6019780665565975e-05,0.0013965992712118027,0.0,-1.5699775018227768,4.8242879998083724e-05,0.0,-2.1447262877671847e-05,-0.0010755142493099913,0.0,-1.923627606359446e-05,-0.0003406634152885023,0.0,,,,,,
2024-08-03 22:11:11.611007,7.145891889059897e-05,0.001075602289316749,0.0,-1.5699932102836758,-0.0031724774150252684,0.0,-1.6019780665565975e-05,0.0013965992711703536,0.0,-1.5699775018227768,4.8242880039667865e-05,0.0,-2.1447262878560025e-05,-0.001075514249199739,0.0,-1.923627606359446e-05,-0.0003406634152178236,0.0,,,,,,
2024-08-03 22:11:11.620713,7.145891889059897e-05,0.0010756022893987954,0.0,-1.5699932102836767,-0.0031724774150451163,0.0,-1.6019780666454153e-05,0.001396599271102418,0.0,-1.5699775018227768,4.8242880225683456e-05,0.0,-2.1447262878560025e-05,-0.0010755142492568951,0.0,-1.923627606359446e-05,-0.0003406634154360268,0.0,,,,,,
2024-08-03 22:11:11.630957,7.145891889059897e-05,0.0010756022893634101,0.0,-1.5699932102836767,-0.0031724774151009345,0.0,-1.6019780665565975e-05,0.0013965992712437875,0.0,-1.569977501822776,4.824288000303517e-05,0.0,-2.1447262877671847e-05,-0.0010755142491971443,0.0,-1.923627606270628e-05,-0.00034066341534510277,0.0,,,,,,
2024-08-03 22:11:11.640849,7.145891889059897e-05,0.0010756022893648406,0.0,-1.5699932102836767,-0.0031724774151205178,0.0,-1.6019780665565975e-05,0.0013965992713203023,0.0,-1.5699775018227768,4.824287996886469e-05,0.0,-2.1447262877671847e-05,-0.0010755142493229343,0.0,-1.923627606359446e-05,-0.0003406634153593081,0.0,,,,,,
2024-08-03 22:11:11.651107,7.145891889059897e-05,0.0010756022893856961,0.0,-1.5699932102836758,-0.0031724774150489236,0.0,-1.6019780666454153e-05,0.0013965992712465871,0.0,-1.5699775018227768,4.824288008335319e-05,0.0,-2.1447262878560025e-05,-0.0010755142492895975,0.0,-1.923627606359446e-05,-0.0003406634154191363,0.0,,,,,,
2024-08-03 22:11:11.660943,7.145891889059897e-05,0.0010756022893911928,0.0,-1.5699932102836767,-0.003172477415073551,0.0,-1.6019780666454153e-05,0.0013965992710409793,0.0,-1.5699775018227768,4.824288030447622e-05,0.0,-2.1447262877671847e-05,-0.001075514249318358,0.0,-1.923627606359446e-05,-0.0003406634153915952,0.0,,,,,,
2024-08-03 22:11:11.670658,7.145891889059897e-05,0.0010756022894186645,0.0,-1.5699932102836767,-0.0031724774150410054,0.0,-1.6019780665565975e-05,0.0013965992712296374,0.0,-1.569977501822776,4.8242879880268786e-05,0.0,-2.1447262878560025e-05,-0.0010755142492496824,0.0,-1.923627606270628e-05,-0.00034066341522603005,0.0,,,,,,
2024-08-03 22:11:11.680893,7.145891889059897e-05,0.0010756022894272382,0.0,-1.5699932102836767,-0.0031724774150488884,0.0,-1.6019780665565975e-05,0.0013965992711552867,0.0,-1.5699775018227768,4.824288013179827e-05,0.0,-2.1447262878560025e-05,-0.0010755142492440823,0.0,-1.923627606270628e-05,-0.0003406634153948904,0.0,,,,,,
2024-08-03 22:11:11.690816,7.145891889059897e-05,0.001075602289422764,0.0,-1.5699932102836767,-0.00317247741504998,0.0,-1.6019780665565975e-05,0.0013965992712314194,0.0,-1.5699775018227777,4.8242879769452374e-05,0.0,-2.1447262878560025e-05,-0.001075514249233977,0.0,-1.923627606270628e-05,-0.0003406634152719175,0.0,,,,,,
2024-08-03 22:11:11.701137,7.145891889059897e-05,0.0010756022893896097,0.0,-1.5699932102836767,-0.0031724774150116604,0.0,-1.6019780665565975e-05,0.0013965992711206699,0.0,-1.5699775018227768,4.8242880001627764e-05,0.0,-2.1447262878560025e-05,-0.0010755142493501437,0.0,-1.923627606359446e-05,-0.0003406634153366746,0.0,,,,,,
2024-08-03 22:11:11.710849,7.145891889059897e-05,0.0010756022893435866,0.0,-1.5699932102836767,-0.0031724774150642936,0.0,-1.6019780665565975e-05,0.0013965992712833746,0.0,-1.5699775018227768,4.8242879814896925e-05,0.0,-2.1447262877671847e-05,-0.0010755142493386973,0.0,-1.923627606359446e-05,-0.00034066341511156627,0.0,,,,,,
2024-08-03 22:11:11.720656,7.145891889059897e-05,0.0010756022893936871,0.0,-1.5699932102836767,-0.003172477415046523,0.0,-1.6019780665565975e-05,0.0013965992712224695,0.0,-1.5699775018227768,4.824287971774417e-05,0.0,-2.1447262877671847e-05,-0.0010755142494016207,0.0,-1.923627606359446e-05,-0.0003406634150557487,0.0,,,,,,
2024-08-03 22:11:11.730888,7.145891889059897e-05,0.0010756022893618712,0.0,-1.5699932102836767,-0.0031724774150232917,0.0,-1.6019780665565975e-05,0.0013965992712468072,0.0,-1.5699775018227768,4.824287973585815e-05,0.0,-2.1447262877671847e-05,-0.0010755142492985727,0.0,-1.923627606270628e-05,-0.00034066341526389917,0.0,,,,,,
2024-08-03 22:11:11.740685,7.145891889059897e-05,0.0010756022894057478,0.0,-1.5699932102836767,-0.0031724774150567485,0.0,-1.6019780665565975e-05,0.001396599271155135,0.0,-1.5699775018227768,4.824287998106262e-05,0.0,-2.1447262878560025e-05,-0.0010755142493580822,0.0,-1.923627606270628e-05,-0.0003406634152988362,0.0,,,,,,
2024-08-03 22:11:11.750860,7.145891889059897e-05,0.0010756022894320265,0.0,-1.5699932102836767,-0.0031724774150596316,0.0,-1.6019780666454153e-05,0.0013965992711594377,0.0,-1.5699775018227768,4.824287998711474e-05,0.0,-2.1447262877671847e-05,-0.0010755142494177413,0.0,-1.923627606359446e-05,-0.00034066341531899713,0.0,,,,,,
2024-08-03 22:11:11.760812,7.145891889059897e-05,0.0010756022893694838,0.0,-1.5699932102836767,-0.0031724774150575855,0.0,-1.6019780665565975e-05,0.001396599271253719,0.0,-1.5699775018227768,4.8242880015900744e-05,0.0,-2.1447262878560025e-05,-0.0010755142492988319,0.0,-1.923627606359446e-05,-0.0003406634154011401,0.0,,,,,,
2024-08-03 22:11:11.771083,7.145891889059897e-05,0.0010756022894125017,0.0,-1.5699932102836767,-0.003172477415058816,0.0,-1.6019780665565975e-05,0.0013965992712366283,0.0,-1.5699775018227768,4.8242880051237386e-05,0.0,-2.1447262878560025e-05,-0.001075514249319813,0.0,-1.923627606359446e-05,-0.00034066341540075096,0.0,,,,,,
2024-08-03 22:11:11.780791,7.145891889059897e-05,0.0010756022893669056,0.0,-1.5699932102836767,-0.003172477415068985,0.0,-1.6019780666454153e-05,0.001396599271137933,0.0,-1.5699775018227768,4.824288011663386e-05,0.0,-2.1447262878560025e-05,-0.001075514249213298,0.0,-1.923627606359446e-05,-0.00034066341527716904,0.0,,,,,,
2024-08-03 22:11:11.791046,7.145891889059897e-05,0.0010756022894542713,0.0,-1.5699932102836758,-0.0031724774150136983,0.0,-1.6019780665565975e-05,0.0013965992711480052,0.0,-1.5699775018227768,4.824288006409006e-05,0.0,-2.1447262878560025e-05,-0.0010755142494452922,0.0,-1.9236276064482638e-05,-0.0003406634152978541,0.0,,,,,,
2024-08-03 22:11:11.800784,7.145891889059897e-05,0.0010756022893872626,0.0,-1.5699932102836767,-0.0031724774150785687,0.0,-1.6019780665565975e-05,0.0013965992712315894,0.0,-1.569977501822776,4.824287991955995e-05,0.0,-2.1447262877671847e-05,-0.0010755142492693789,0.0,-1.923627606270628e-05,-0.0003406634151374518,0.0,,,,,,
2024-08-03 22:11:11.811011,7.145891889059897e-05,0.0010756022893992439,0.0,-1.5699932102836767,-0.003172477415075035,0.0,-1.6019780665565975e-05,0.001396599271187626,0.0,-1.5699775018227768,4.824287999689522e-05,0.0,-2.1447262877671847e-05,-0.0010755142492619072,0.0,-1.923627606270628e-05,-0.0003406634152089786,0.0,,,,,,
2024-08-03 22:11:11.820815,7.145891889059897e-05,0.0010756022893760498,0.0,-1.5699932102836758,-0.0031724774150355996,0.0,-1.6019780665565975e-05,0.0013965992710442462,0.0,-1.5699775018227768,4.824288022716263e-05,0.0,-2.1447262878560025e-05,-0.001075514249164966,0.0,-1.923627606359446e-05,-0.00034066341540425066,0.0,,,,,,
2024-08-03 22:11:11.830980,7.145891889059897e-05,0.0010756022894449523,0.0,-1.5699932102836758,-0.0031724774150236577,0.0,-1.6019780665565975e-05,0.0013965992711272883,0.0,-1.569977501822776,4.824288013517838e-05,0.0,-2.1447262878560025e-05,-0.0010755142494626858,0.0,-1.923627606270628e-05,-0.0003406634154008316,0.0,,,,,,
2024-08-03 22:11:11.840764,7.145891889059897e-05,0.0010756022894695175,0.0,-1.5699932102836767,-0.0031724774150816747,0.0,-1.6019780665565975e-05,0.001396599271227932,0.0,-1.5699775018227768,4.824288013247546e-05,0.0,-2.1447262877671847e-05,-0.0010755142492772079,0.0,-1.923627606359446e-05,-0.00034066341541848016,0.0,,,,,,
2024-08-03 22:11:11.851003,7.145891889059897e-05,0.001075602289438668,0.0,-1.5699932102836767,-0.0031724774150406394,0.0,-1.6019780665565975e-05,0.0013965992711704176,0.0,-1.5699775018227768,4.82428800720004e-05,0.0,-2.1447262877671847e-05,-0.0010755142492445552,0.0,-1.923627606359446e-05,-0.00034066341524851976,0.0,,,,,,
2024-08-03 22:11:11.860683,7.145891889059897e-05,0.0010756022893684554,0.0,-1.5699932102836767,-0.003172477415036726,0.0,-1.6019780665565975e-05,0.0013965992711474145,0.0,-1.5699775018227768,4.824288000951078e-05,0.0,-2.1447262878560025e-05,-0.0010755142492085608,0.0,-1.923627606359446e-05,-0.00034066341531659204,0.0,,,,,,
2024-08-03 22:11:11.870875,7.145891889059897e-05,0.001075602289414618,0.0,-1.5699932102836767,-0.0031724774150553962,0.0,-1.6019780666454153e-05,0.0013965992712000567,0.0,-1.5699775018227768,4.82428800525741e-05,0.0,-2.1447262877671847e-05,-0.0010755142492821514,0.0,-1.923627606359446e-05,-0.0003406634153918337,0.0,,,,,,
2024-08-03 22:11:11.881195,7.145891889059897e-05,0.001075602289427926,0.0,-1.5699932102836758,-0.003172477415040396,0.0,-1.6019780665565975e-05,0.0013965992710673605,0.0,-1.5699775018227768,4.824288019031082e-05,0.0,-2.1447262878560025e-05,-0.0010755142494190937,0.0,-1.923627606359446e-05,-0.0003406634152316423,0.0,,,,,,
2024-08-03 22:11:11.891251,7.145891889059897e-05,0.0010756022894059356,0.0,-1.5699932102836767,-0.00317247741501996,0.0,-1.6019780665565975e-05,0.0013965992711093451,0.0,-1.5699775018227768,4.824288037306307e-05,0.0,-2.1447262878560025e-05,-0.0010755142492465653,0.0,-1.9236276064482638e-05,-0.0003406634155610378,0.0,,,,,,
2024-08-03 22:11:11.900750,7.145891889059897e-05,0.001075602289425092,0.0,-1.5699932102836767,-0.0031724774150574874,0.0,-1.6019780666454153e-05,0.0013965992711937516,0.0,-1.5699775018227768,4.8242880172162466e-05,0.0,-2.1447262877671847e-05,-0.0010755142494494982,0.0,-1.923627606359446e-05,-0.0003406634154694945,0.0,,,,,,
2024-08-03 22:11:11.911152,7.145891889059897e-05,0.0010756022893950203,0.0,-1.5699932102836767,-0.003172477415051983,0.0,-1.6019780665565975e-05,0.001396599271229045,0.0,-1.5699775018227768,4.8242880039447446e-05,0.0,-2.1447262878560025e-05,-0.0010755142492898141,0.0,-1.923627606359446e-05,-0.0003406634153323156,0.0,,,,,,
2024-08-03 22:11:11.920704,7.145891889059897e-05,0.0010756022893959943,0.0,-1.5699932102836767,-0.00317247741504464,0.0,-1.6019780665565975e-05,0.0013965992711222142,0.0,-1.569977501822776,4.824287994269487e-05,0.0,-2.1447262877671847e-05,-0.0010755142492234026,0.0,-1.923627606359446e-05,-0.0003406634151643025,0.0,,,,,,
2024-08-03 22:11:11.931056,7.145891889059897e-05,0.0010756022893748704,0.0,-1.5699932102836767,-0.003172477415085532,0.0,-1.6019780666454153e-05,0.0013965992712692212,0.0,-1.5699775018227768,4.824288000021299e-05,0.0,-2.1447262877671847e-05,-0.0010755142492668583,0.0,-1.923627606270628e-05,-0.0003406634153424404,0.0,,,,,,
2024-08-03 22:11:11.940847,7.145891889059897e-05,0.001075602289417862,0.0,-1.5699932102836767,-0.0031724774150369943,0.0,-1.6019780666454153e-05,0.0013965992711242165,0.0,-1.5699775018227768,4.8242880262217166e-05,0.0,-2.1447262878560025e-05,-0.0010755142494238302,0.0,-1.923627606270628e-05,-0.00034066341549218596,0.0,,,,,,
2024-08-03 22:11:11.951123,7.145891889059897e-05,0.0010756022893718222,0.0,-1.5699932102836767,-0.0031724774150018913,0.0,-1.6019780665565975e-05,0.0013965992711459868,0.0,-1.5699775018227768,4.824287984897058e-05,0.0,-2.1447262877671847e-05,-0.0010755142492703204,0.0,-1.923627606359446e-05,-0.0003406634152557659,0.0,,,,,,
2024-08-03 22:11:11.960775,7.145891889059897e-05,0.0010756022893602508,0.0,-1.5699932102836767,-0.003172477415055782,0.0,-1.6019780665565975e-05,0.0013965992713091376,0.0,-1.5699775018227768,4.8242879862705037e-05,0.0,-2.1447262878560025e-05,-0.001075514249292085,0.0,-1.923627606359446e-05,-0.00034066341537713736,0.0,,,,,,
2024-08-03 22:11:11.971026,7.145891889059897e-05,0.0010756022894189048,0.0,-1.5699932102836767,-0.0031724774150771193,0.0,-1.6019780665565975e-05,0.0013965992713017737,0.0,-1.5699775018227768,4.8242880116997934e-05,0.0,-2.1447262878560025e-05,-0.0010755142493050422,0.0,-1.923627606359446e-05,-0.00034066341552578126,0.0,,,,,,
2024-08-03 22:11:11.980713,7.145891889059897e-05,0.001075602289362261,0.0,-1.5699932102836767,-0.003172477415045705,0.0,-1.6019780665565975e-05,0.0013965992711958391,0.0,-1.5699775018227768,4.824287997188116e-05,0.0,-2.1447262878560025e-05,-0.0010755142492325871,0.0,-1.923627606359446e-05,-0.00034066341530775124,0.0,,,,,,
2024-08-03 22:11:11.991068,7.145891889059897e-05,0.0010756022893973834,0.0,-1.5699932102836758,-0.0031724774150567567,0.0,-1.6019780665565975e-05,0.0013965992712554444,0.0,-1.5699775018227768,4.824287989664501e-05,0.0,-2.1447262878560025e-05,-0.001075514249345434,0.0,-1.923627606359446e-05,-0.0003406634152260021,0.0,,,,,,
2024-08-03 22:11:12.000756,7.145891889059897e-05,0.0010756022893781403,0.0,-1.5699932102836767,-0.0031724774150504,0.0,-1.6019780665565975e-05,0.001396599271131893,0.0,-1.5699775018227768,4.8242880166356346e-05,0.0,-2.1447262878560025e-05,-0.0010755142493566626,0.0,-1.923627606359446e-05,-0.0003406634153303957,0.0,,,,,,
2024-08-03 22:11:12.011301,7.145891889059897e-05,0.001075602289448354,0.0,-1.5699932102836767,-0.0031724774150418905,0.0,-1.6019780665565975e-05,0.0013965992712282214,0.0,-1.5699775018227768,4.824288008758971e-05,0.0,-2.1447262878560025e-05,-0.0010755142492980137,0.0,-1.9236276064482638e-05,-0.0003406634153870771,0.0,,,,,,
2024-08-03 22:11:12.020859,7.145891889059897e-05,0.0010756022893728628,0.0,-1.5699932102836767,-0.0031724774150877887,0.0,-1.6019780665565975e-05,0.0013965992711885075,0.0,-1.569977501822776,4.824288020275616e-05,0.0,-2.1447262878560025e-05,-0.0010755142494196803,0.0,-1.923627606359446e-05,-0.00034066341535227715,0.0,,,,,,
2024-08-03 22:11:12.031239,7.145891889059897e-05,0.0010756022894350611,0.0,-1.5699932102836767,-0.003172477415095969,0.0,-1.6019780665565975e-05,0.001396599271222153,0.0,-1.569977501822776,4.824287987076662e-05,0.0,-2.1447262878560025e-05,-0.001075514249214279,0.0,-1.923627606270628e-05,-0.0003406634152258788,0.0,,,,,,
2024-08-03 22:11:12.040870,7.145891889059897e-05,0.001075602289391765,0.0,-1.5699932102836758,-0.0031724774150353264,0.0,-1.6019780666454153e-05,0.001396599271208099,0.0,-1.5699775018227768,4.8242880232437276e-05,0.0,-2.1447262877671847e-05,-0.001075514249315473,0.0,-1.923627606270628e-05,-0.000340663415446369,0.0,,,,,,
2024-08-03 22:11:12.051113,7.145891889059897e-05,0.0010756022894059345,0.0,-1.5699932102836767,-0.003172477415047399,0.0,-1.6019780665565975e-05,0.0013965992713327877,0.0,-1.5699775018227768,4.824287996764995e-05,0.0,-2.1447262878560025e-05,-0.0010755142492642293,0.0,-1.923627606359446e-05,-0.0003406634154032574,0.0,,,,,,
2024-08-03 22:11:12.060860,7.145891889059897e-05,0.0010756022893808614,0.0,-1.5699932102836767,-0.0031724774150441648,0.0,-1.6019780665565975e-05,0.0013965992710350944,0.0,-1.5699775018227768,4.824288002657981e-05,0.0,-2.1447262878560025e-05,-0.0010755142492783832,0.0,-1.923627606270628e-05,-0.0003406634152143802,0.0,,,,,,
2024-08-03 22:11:12.071081,7.145891889059897e-05,0.001075602289381016,0.0,-1.5699932102836767,-0.0031724774150360836,0.0,-1.6019780665565975e-05,0.0013965992712735079,0.0,-1.5699775018227768,4.8242879963602734e-05,0.0,-2.1447262878560025e-05,-0.0010755142493242785,0.0,-1.923627606270628e-05,-0.000340663415257343,0.0,,,,,,
2024-08-03 22:11:12.080719,7.145891889059897e-05,0.0010756022894093688,0.0,-1.5699932102836767,-0.00317247741506003,0.0,-1.6019780665565975e-05,0.0013965992712448288,0.0,-1.5699775018227768,4.824287979802858e-05,0.0,-2.1447262877671847e-05,-0.0010755142494231539,0.0,-1.923627606270628e-05,-0.00034066341519099416,0.0,,,,,,
2024-08-03 22:11:12.091089,7.145891889059897e-05,0.001075602289399252,0.0,-1.5699932102836758,-0.0031724774150239466,0.0,-1.6019780666454153e-05,0.0013965992710790888,0.0,-1.5699775018227768,4.824287994818668e-05,0.0,-2.1447262877671847e-05,-0.0010755142493754505,0.0,-1.923627606270628e-05,-0.0003406634151982685,0.0,,,,,,
2024-08-03 22:11:12.101250,7.145891889059897e-05,0.0010756022894036856,0.0,-1.5699932102836767,-0.003172477415042144,0.0,-1.6019780665565975e-05,0.0013965992711774825,0.0,-1.5699775018227768,4.8242880030359664e-05,0.0,-2.1447262878560025e-05,-0.0010755142493228695,0.0,-1.923627606359446e-05,-0.0003406634152511948,0.0,,,,,,
2024-08-03 22:11:12.111194,7.145891889059897e-05,0.0010756022894228864,0.0,-1.5699932102836767,-0.0031724774150400873,0.0,-1.6019780664677796e-05,0.0013965992712743909,0.0,-1.5699775018227768,4.824288003152117e-05,0.0,-2.1447262877671847e-05,-0.0010755142493808789,0.0,-1.923627606359446e-05,-0.00034066341539001487,0.0,,,,,,
2024-08-03 22:11:12.121051,7.145891889059897e-05,0.0010756022894503436,0.0,-1.5699932102836767,-0.0031724774150460365,0.0,-1.6019780666454153e-05,0.0013965992711796103,0.0,-1.5699775018227768,4.824288021094893e-05,0.0,-2.1447262878560025e-05,-0.0010755142492450227,0.0,-1.923627606359446e-05,-0.00034066341552343364,0.0,,,,,,
2024-08-03 22:11:12.131282,7.145891889059897e-05,0.001075602289365939,0.0,-1.5699932102836767,-0.0031724774150731507,0.0,-1.6019780665565975e-05,0.0013965992712031872,0.0,-1.5699775018227768,4.824288001198959e-05,0.0,-2.1447262878560025e-05,-0.0010755142492204592,0.0,-1.923627606359446e-05,-0.00034066341538312314,0.0,,,,,,
2024-08-03 22:11:12.140995,7.145891889059897e-05,0.0010756022894148137,0.0,-1.5699932102836767,-0.0031724774150498174,0.0,-1.6019780666454153e-05,0.001396599271076032,0.0,-1.5699775018227768,4.8242880161876315e-05,0.0,-2.1447262878560025e-05,-0.001075514249323138,0.0,-1.923627606270628e-05,-0.0003406634153172214,0.0,,,,,,
2024-08-03 22:11:12.151286,7.145891889059897e-05,0.0010756022894311316,0.0,-1.5699932102836767,-0.003172477415052828,0.0,-1.6019780666454153e-05,0.0013965992712301947,0.0,-1.5699775018227768,4.824287998459701e-05,0.0,-2.1447262878560025e-05,-0.0010755142493143457,0.0,-1.923627606270628e-05,-0.00034066341533056806,0.0,,,,,,
2024-08-03 22:11:12.161300,7.145891889059897e-05,0.0010756022893996225,0.0,-1.5699932102836767,-0.0031724774150408835,0.0,-1.6019780665565975e-05,0.0013965992711553613,0.0,-1.5699775018227768,4.824287994423379e-05,0.0,-2.1447262878560025e-05,-0.0010755142492267008,0.0,-1.923627606359446e-05,-0.00034066341531459505,0.0,,,,,,
2024-08-03 22:11:12.171438,7.145891889059897e-05,0.001075602289388829,0.0,-1.5699932102836758,-0.003172477415063161,0.0,-1.6019780665565975e-05,0.0013965992711013992,0.0,-1.5699775018227768,4.824288020111359e-05,0.0,-2.1447262878560025e-05,-0.0010755142492789257,0.0,-1.923627606359446e-05,-0.0003406634154101087,0.0,,,,,,
2024-08-03 22:11:12.181109,7.145891889059897e-05,0.0010756022894129339,0.0,-1.5699932102836767,-0.003172477414994499,0.0,-1.6019780665565975e-05,0.001396599271156449,0.0,-1.5699775018227768,4.824287997533402e-05,0.0,-2.1447262878560025e-05,-0.0010755142491530286,0.0,-1.923627606359446e-05,-0.0003406634154512042,0.0,,,,,,
2024-08-03 22:11:12.191358,7.145891889059897e-05,0.0010756022893604166,0.0,-1.5699932102836767,-0.0031724774150086094,0.0,-1.6019780665565975e-05,0.001396599271100234,0.0,-1.5699775018227768,4.824288001170792e-05,0.0,-2.1447262877671847e-05,-0.001075514249308887,0.0,-1.923627606359446e-05,-0.0003406634153142532,0.0,,,,,,
2024-08-03 22:11:12.201061,7.145891889059897e-05,0.0010756022894043303,0.0,-1.5699932102836767,-0.003172477415026697,0.0,-1.6019780665565975e-05,0.00139659927114173,0.0,-1.569977501822776,4.8242880116049474e-05,0.0,-2.1447262878560025e-05,-0.0010755142493496022,0.0,-1.923627606359446e-05,-0.00034066341538051227,0.0,,,,,,
2024-08-03 22:11:12.210823,7.145891889059897e-05,0.0010756022893750883,0.0,-1.5699932102836758,-0.0031724774150314623,0.0,-1.6019780666454153e-05,0.0013965992711149674,0.0,-1.569977501822776,4.8242880193211384e-05,0.0,-2.1447262877671847e-05,-0.0010755142493608708,0.0,-1.923627606359446e-05,-0.0003406634153603303,0.0,,,,,,
2024-08-03 22:11:12.221108,7.145891889059897e-05,0.0010756022893896712,0.0,-1.5699932102836767,-0.003172477415088898,0.0,-1.6019780665565975e-05,0.001396599271164362,0.0,-1.5699775018227768,4.824287983420884e-05,0.0,-2.1447262877671847e-05,-0.0010755142494130955,0.0,-1.923627606270628e-05,-0.00034066341509180126,0.0,,,,,,
2024-08-03 22:11:12.231280,7.145891889059897e-05,0.0010756022893767855,0.0,-1.5699932102836767,-0.003172477415014871,0.0,-1.6019780665565975e-05,0.0013965992710616025,0.0,-1.5699775018227768,4.824287997236569e-05,0.0,-2.1447262878560025e-05,-0.00107551424940779,0.0,-1.923627606270628e-05,-0.00034066341523447815,0.0,,,,,,
2024-08-03 22:11:12.241069,7.145891889059897e-05,0.0010756022893002913,0.0,-1.5699932102836767,-0.0031724774150444267,0.0,-1.6019780665565975e-05,0.0013965992711095871,0.0,-1.569977501822776,4.8242880212752285e-05,0.0,-2.1447262878560025e-05,-0.001075514249280888,0.0,-1.923627606359446e-05,-0.00034066341537551735,0.0,,,,,,
2024-08-03 22:11:12.251294,7.145891889059897e-05,0.0010756022894106516,0.0,-1.5699932102836767,-0.003172477415077063,0.0,-1.6019780665565975e-05,0.0013965992712322713,0.0,-1.5699775018227768,4.82428800491246e-05,0.0,-2.1447262878560025e-05,-0.0010755142494084228,0.0,-1.923627606359446e-05,-0.0003406634153450117,0.0,,,,,,
2024-08-03 22:11:12.261102,7.145891889059897e-05,0.001075602289399756,0.0,-1.5699932102836758,-0.003172477415046899,0.0,-1.6019780665565975e-05,0.0013965992712207248,0.0,-1.5699775018227768,4.824288010158806e-05,0.0,-2.1447262878560025e-05,-0.0010755142494184222,0.0,-1.923627606359446e-05,-0.00034066341538333206,0.0,,,,,,
2024-08-03 22:11:12.271246,7.145891889059897e-05,0.0010756022894190403,0.0,-1.5699932102836767,-0.003172477415010545,0.0,-1.6019780665565975e-05,0.0013965992711387197,0.0,-1.5699775018227768,4.824287996585939e-05,0.0,-2.1447262877671847e-05,-0.0010755142493106833,0.0,-1.923627606359446e-05,-0.00034066341527081605,0.0,,,,,,
2024-08-03 22:11:12.280943,7.145891889059897e-05,0.0010756022894121231,0.0,-1.5699932102836767,-0.003172477415037905,0.0,-1.6019780665565975e-05,0.0013965992711468616,0.0,-1.569977501822776,4.8242880091524604e-05,0.0,-2.1447262878560025e-05,-0.0010755142493377762,0.0,-1.923627606359446e-05,-0.0003406634153234393,0.0,,,,,,
2024-08-03 22:11:12.291231,7.145891889059897e-05,0.0010756022894071436,0.0,-1.5699932102836758,-0.003172477415120521,0.0,-1.6019780665565975e-05,0.0013965992713793041,0.0,-1.5699775018227768,4.8242879720685286e-05,0.0,-2.1447262878560025e-05,-0.0010755142492437657,0.0,-1.923627606359446e-05,-0.00034066341518855113,0.0,,,,,,
2024-08-03 22:11:12.300868,7.145891889059897e-05,0.001075602289397499,0.0,-1.5699932102836767,-0.003172477415062095,0.0,-1.6019780665565975e-05,0.0013965992711752846,0.0,-1.5699775018227768,4.8242880083984954e-05,0.0,-2.1447262878560025e-05,-0.001075514249224993,0.0,-1.923627606359446e-05,-0.0003406634154101884,0.0,,,,,,
2024-08-03 22:11:12.311274,7.145891889059897e-05,0.0010756022894558724,0.0,-1.5699932102836767,-0.003172477415034467,0.0,-1.6019780665565975e-05,0.001396599271119841,0.0,-1.5699775018227768,4.824287994368854e-05,0.0,-2.1447262878560025e-05,-0.001075514249197372,0.0,-1.923627606270628e-05,-0.0003406634152168319,0.0,,,,,,
2024-08-03 22:11:12.320916,7.145891889059897e-05,0.0010756022893609741,0.0,-1.5699932102836767,-0.003172477415048878,0.0,-1.6019780666454153e-05,0.0013965992711440743,0.0,-1.5699775018227768,4.8242880056423884e-05,0.0,-2.1447262878560025e-05,-0.0010755142492376872,0.0,-1.923627606359446e-05,-0.00034066341537305285,0.0,,,,,,
2024-08-03 22:11:12.331152,7.145891889059897e-05,0.001075602289383141,0.0,-1.5699932102836767,-0.0031724774150338132,0.0,-1.6019780666454153e-05,0.0013965992711404268,0.0,-1.5699775018227768,4.82428800704398e-05,0.0,-2.1447262878560025e-05,-0.001075514249263855,0.0,-1.923627606359446e-05,-0.0003406634153842108,0.0,,,,,,
2024-08-03 22:11:12.340766,7.145891889059897e-05,0.001075602289436281,0.0,-1.5699932102836767,-0.0031724774150655097,0.0,-1.6019780665565975e-05,0.0013965992712726455,0.0,-1.5699775018227768,4.8242879984151184e-05,0.0,-2.1447262878560025e-05,-0.0010755142492592132,0.0,-1.923627606359446e-05,-0.00034066341532034555,0.0,,,,,,
2024-08-03 22:11:12.351131,7.145891889059897e-05,0.0010756022893809484,0.0,-1.5699932102836767,-0.0031724774150593193,0.0,-1.6019780665565975e-05,0.0013965992712058257,0.0,-1.5699775018227768,4.824287989631368e-05,0.0,-2.1447262878560025e-05,-0.001075514249338031,0.0,-1.923627606270628e-05,-0.0003406634152392996,0.0,,,,,,
2024-08-03 22:11:12.361347,7.145891889059897e-05,0.0010756022894213564,0.0,-1.5699932102836767,-0.0031724774150832117,0.0,-1.6019780664677796e-05,0.0013965992712046509,0.0,-1.5699775018227768,4.8242880032863845e-05,0.0,-2.1447262878560025e-05,-0.0010755142492917759,0.0,-1.923627606270628e-05,-0.0003406634152719784,0.0,,,,,,
2024-08-03 22:11:12.371041,7.145891889059897e-05,0.0010756022893645125,0.0,-1.5699932102836767,-0.003172477415097936,0.0,-1.6019780665565975e-05,0.0013965992711731162,0.0,-1.5699775018227768,4.824288005720397e-05,0.0,-2.1447262877671847e-05,-0.0010755142493022022,0.0,-1.923627606270628e-05,-0.00034066341525858766,0.0,,,,,,
2024-08-03 22:11:12.381306,7.145891889059897e-05,0.001075602289391165,0.0,-1.5699932102836767,-0.0031724774150435125,0.0,-1.6019780666454153e-05,0.0013965992711159727,0.0,-1.5699775018227768,4.824288004605848e-05,0.0,-2.1447262877671847e-05,-0.0010755142493011714,0.0,-1.923627606270628e-05,-0.0003406634153321693,0.0,,,,,,
2024-08-03 22:11:12.391060,7.145891889059897e-05,0.0010756022894184124,0.0,-1.5699932102836767,-0.00317247741503947,0.0,-1.6019780665565975e-05,0.0013965992711130765,0.0,-1.5699775018227768,4.8242879933209836e-05,0.0,-2.1447262877671847e-05,-0.0010755142494270633,0.0,-1.923627606270628e-05,-0.00034066341515284716,0.0,,,,,,
2024-08-03 22:11:12.401284,7.145891889059897e-05,0.0010756022894302423,0.0,-1.5699932102836767,-0.0031724774150620376,0.0,-1.6019780665565975e-05,0.0013965992712311024,0.0,-1.5699775018227768,4.824287979993472e-05,0.0,-2.1447262877671847e-05,-0.001075514249339995,0.0,-1.923627606359446e-05,-0.00034066341514432685,0.0,,,,,,
2024-08-03 22:11:12.411120,7.145891889059897e-05,0.0010756022893709935,0.0,-1.5699932102836767,-0.003172477415007965,0.0,-1.6019780666454153e-05,0.0013965992710941791,0.0,-1.5699775018227768,4.8242880056599525e-05,0.0,-2.1447262877671847e-05,-0.0010755142493429175,0.0,-1.923627606359446e-05,-0.00034066341555318014,0.0,,,,,,
2024-08-03 22:11:12.421448,7.145891889059897e-05,0.0010756022894207716,0.0,-1.5699932102836767,-0.003172477415063844,0.0,-1.6019780665565975e-05,0.0013965992711671986,0.0,-1.5699775018227768,4.824288008771927e-05,0.0,-2.1447262878560025e-05,-0.0010755142494457176,0.0,-1.923627606359446e-05,-0.0003406634154425292,0.0,,,,,,
2024-08-03 22:11:12.431153,7.145891889059897e-05,0.0010756022894215038,0.0,-1.5699932102836767,-0.0031724774150425406,0.0,-1.6019780665565975e-05,0.0013965992710649783,0.0,-1.5699775018227768,4.8242880219979576e-05,0.0,-2.1447262878560025e-05,-0.0010755142493041228,0.0,-1.923627606270628e-05,-0.00034066341538944696,0.0,,,,,,
2024-08-03 22:11:12.441366,7.145891889059897e-05,0.0010756022893942201,0.0,-1.5699932102836767,-0.003172477415026516,0.0,-1.6019780665565975e-05,0.0013965992710587229,0.0,-1.569977501822776,4.824288016946866e-05,0.0,-2.1447262878560025e-05,-0.0010755142492806116,0.0,-1.9236276064482638e-05,-0.0003406634152940532,0.0,,,,,,
2024-08-03 22:11:12.451130,7.145891889059897e-05,0.0010756022894245806,0.0,-1.5699932102836758,-0.003172477415033505,0.0,-1.6019780665565975e-05,0.0013965992711163053,0.0,-1.5699775018227768,4.824288022212315e-05,0.0,-2.1447262878560025e-05,-0.0010755142493901928,0.0,-1.923627606359446e-05,-0.0003406634153850801,0.0,,,,,,
2024-08-03 22:11:12.461354,7.145891889059897e-05,0.0010756022893329577,0.0,-1.5699932102836758,-0.0031724774150367167,0.0,-1.6019780665565975e-05,0.001396599271191904,0.0,-1.5699775018227768,4.824288005980356e-05,0.0,-2.1447262878560025e-05,-0.0010755142492602959,0.0,-1.9236276064482638e-05,-0.00034066341537668775,0.0,,,,,,
2024-08-03 22:11:12.470958,7.145891889059897e-05,0.0010756022893530957,0.0,-1.5699932102836767,-0.0031724774150205673,0.0,-1.6019780665565975e-05,0.0013965992711580172,0.0,-1.5699775018227768,4.824288007893073e-05,0.0,-2.1447262878560025e-05,-0.0010755142493712587,0.0,-1.923627606359446e-05,-0.00034066341535056845,0.0,,,,,,
2024-08-03 22:11:12.481270,7.145891889059897e-05,0.0010756022893989418,0.0,-1.5699932102836767,-0.0031724774150671715,0.0,-1.6019780665565975e-05,0.001396599271172918,0.0,-1.5699775018227768,4.824288018486194e-05,0.0,-2.1447262878560025e-05,-0.001075514249307065,0.0,-1.923627606359446e-05,-0.0003406634154901415,0.0,,,,,,
2024-08-03 22:11:12.491012,7.145891889059897e-05,0.0010756022894390614,0.0,-1.5699932102836767,-0.003172477415033837,0.0,-1.6019780665565975e-05,0.0013965992712104396,0.0,-1.5699775018227768,4.824287989856611e-05,0.0,-2.1447262878560025e-05,-0.0010755142492994405,0.0,-1.923627606270628e-05,-0.00034066341535205803,0.0,,,,,,
2024-08-03 22:11:12.504360,7.145891889059897e-05,0.0010756022894089243,0.0,-1.5699932102836767,-0.0031724774150486733,0.0,-1.6019780665565975e-05,0.0013965992710872665,0.0,-1.5699775018227768,4.824288016931752e-05,0.0,-2.1447262878560025e-05,-0.0010755142493867665,0.0,-1.923627606359446e-05,-0.00034066341545185353,0.0,,,,,,
2024-08-03 22:11:12.514324,7.145891889059897e-05,0.0010756022893499192,0.0,-1.5699932102836758,-0.0031724774150482986,0.0,-1.6019780665565975e-05,0.0013965992711913434,0.0,-1.5699775018227768,4.824288017421638e-05,0.0,-2.1447262877671847e-05,-0.0010755142493358333,0.0,-1.923627606359446e-05,-0.0003406634154437113,0.0,,,,,,
2024-08-03 22:11:12.523880,7.145891889059897e-05,0.0010756022893732688,0.0,-1.5699932102836767,-0.0031724774150625667,0.0,-1.6019780665565975e-05,0.0013965992712153953,0.0,-1.5699775018227768,4.824288010024831e-05,0.0,-2.1447262878560025e-05,-0.0010755142491861128,0.0,-1.923627606270628e-05,-0.00034066341520548886,0.0,,,,,,
2024-08-03 22:11:12.533527,7.145891889059897e-05,0.001075602289437392,0.0,-1.5699932102836767,-0.003172477415045712,0.0,-1.6019780665565975e-05,0.0013965992711645282,0.0,-1.5699775018227768,4.824288017755236e-05,0.0,-2.1447262877671847e-05,-0.001075514249384976,0.0,-1.923627606359446e-05,-0.0003406634154024858,0.0,,,,,,
2024-08-03 22:11:12.543264,7.145891889059897e-05,0.0010756022893410996,0.0,-1.5699932102836767,-0.0031724774150631483,0.0,-1.6019780665565975e-05,0.0013965992713181673,0.0,-1.5699775018227768,4.8242879843849677e-05,0.0,-2.1447262878560025e-05,-0.0010755142493171388,0.0,-1.923627606359446e-05,-0.00034066341529407317,0.0,,,,,,
2024-08-03 22:11:12.552854,7.145891889059897e-05,0.001075602289376988,0.0,-1.5699932102836767,-0.0031724774150915782,0.0,-1.6019780665565975e-05,0.0013965992712152285,0.0,-1.5699775018227768,4.82428801367045e-05,0.0,-2.1447262878560025e-05,-0.0010755142492999983,0.0,-1.923627606359446e-05,-0.0003406634154854819,0.0,,,,,,
2024-08-03 22:11:12.563187,7.145891889059897e-05,0.0010756022893486977,0.0,-1.5699932102836758,-0.003172477415029653,0.0,-1.6019780666454153e-05,0.0013965992711008983,0.0,-1.5699775018227768,4.824288012194146e-05,0.0,-2.1447262878560025e-05,-0.001075514249316928,0.0,-1.923627606359446e-05,-0.00034066341543809316,0.0,,,,,,
2024-08-03 22:11:12.572864,7.145891889059897e-05,0.0010756022893638009,0.0,-1.5699932102836767,-0.0031724774151063815,0.0,-1.6019780665565975e-05,0.0013965992711998925,0.0,-1.5699775018227768,4.82428800110253e-05,0.0,-2.1447262877671847e-05,-0.001075514249284138,0.0,-1.923627606359446e-05,-0.00034066341541130925,0.0,,,,,,
2024-08-03 22:11:12.582554,7.145891889059897e-05,0.0010756022893365096,0.0,-1.5699932102836767,-0.0031724774150369405,0.0,-1.6019780665565975e-05,0.0013965992711024193,0.0,-1.5699775018227768,4.824288012477795e-05,0.0,-2.1447262878560025e-05,-0.0010755142493113715,0.0,-1.923627606359446e-05,-0.00034066341530067607,0.0,,,,,,
2024-08-03 22:11:12.592709,7.145891889059897e-05,0.0010756022893421192,0.0,-1.5699932102836758,-0.0031724774150476637,0.0,-1.6019780665565975e-05,0.001396599271212823,0.0,-1.5699775018227768,4.82428799861961e-05,0.0,-2.1447262878560025e-05,-0.0010755142492502126,0.0,-1.923627606359446e-05,-0.0003406634153429633,0.0,,,,,,
2024-08-03 22:11:12.602512,7.145891889059897e-05,0.001075602289382135,0.0,-1.5699932102836767,-0.003172477415060982,0.0,-1.6019780665565975e-05,0.0013965992711130124,0.0,-1.5699775018227768,4.824287998790198e-05,0.0,-2.1447262878560025e-05,-0.0010755142492121753,0.0,-1.923627606270628e-05,-0.000340663415218278,0.0,,,,,,
2024-08-03 22:11:12.612186,7.145891889059897e-05,0.0010756022893809187,0.0,-1.5699932102836758,-0.003172477415045746,0.0,-1.6019780665565975e-05,0.0013965992711396146,0.0,-1.569977501822776,4.8242880245542136e-05,0.0,-2.1447262878560025e-05,-0.0010755142492902472,0.0,-1.923627606359446e-05,-0.0003406634153604425,0.0,,,,,,
2024-08-03 22:11:12.622347,7.145891889059897e-05,0.001075602289377569,0.0,-1.5699932102836767,-0.0031724774150562046,0.0,-1.6019780665565975e-05,0.0013965992711952742,0.0,-1.5699775018227768,4.824288002985475e-05,0.0,-2.1447262878560025e-05,-0.0010755142493790463,0.0,-1.923627606359446e-05,-0.0003406634152979326,0.0,,,,,,
2024-08-03 22:11:12.632147,7.145891889059897e-05,0.0010756022893684263,0.0,-1.5699932102836767,-0.0031724774150510716,0.0,-1.6019780666454153e-05,0.0013965992712443673,0.0,-1.5699775018227768,4.824288009405394e-05,0.0,-2.1447262877671847e-05,-0.0010755142493522947,0.0,-1.923627606359446e-05,-0.0003406634153026996,0.0,,,,,,
2024-08-03 22:11:12.642364,7.145891889059897e-05,0.001075602289399209,0.0,-1.5699932102836767,-0.0031724774150536164,0.0,-1.6019780665565975e-05,0.001396599271231817,0.0,-1.5699775018227768,4.824288006020146e-05,0.0,-2.1447262878560025e-05,-0.0010755142493645293,0.0,-1.9236276064482638e-05,-0.00034066341549505834,0.0,,,,,,
2024-08-03 22:11:12.652133,7.145891889059897e-05,0.0010756022893447016,0.0,-1.5699932102836767,-0.0031724774150472803,0.0,-1.6019780665565975e-05,0.0013965992711996505,0.0,-1.5699775018227768,4.82428799895723e-05,0.0,-2.1447262878560025e-05,-0.0010755142492501779,0.0,-1.923627606270628e-05,-0.0003406634153060419,0.0,,,,,,
2024-08-03 22:11:12.661778,7.145891889059897e-05,0.001075602289388999,0.0,-1.5699932102836767,-0.0031724774150494687,0.0,-1.6019780665565975e-05,0.0013965992711248046,0.0,-1.5699775018227768,4.8242880077920035e-05,0.0,-2.1447262878560025e-05,-0.0010755142492999202,0.0,-1.923627606270628e-05,-0.0003406634152055435,0.0,,,,,,
2024-08-03 22:11:12.671988,7.145891889059897e-05,0.0010756022893599038,0.0,-1.5699932102836767,-0.0031724774150130113,0.0,-1.6019780665565975e-05,0.0013965992712336413,0.0,-1.5699775018227768,4.824287995208829e-05,0.0,-2.1447262877671847e-05,-0.001075514249354761,0.0,-1.923627606359446e-05,-0.00034066341526320257,0.0,,,,,,
2024-08-03 22:11:12.681670,7.145891889059897e-05,0.0010756022894125097,0.0,-1.5699932102836767,-0.003172477415052035,0.0,-1.6019780666454153e-05,0.0013965992711604395,0.0,-1.5699775018227768,4.8242879811559534e-05,0.0,-2.1447262878560025e-05,-0.0010755142494413162,0.0,-1.923627606359446e-05,-0.00034066341500140667,0.0,,,,,,
2024-08-03 22:11:12.691905,7.145891889059897e-05,0.001075602289339379,0.0,-1.5699932102836758,-0.0031724774150276164,0.0,-1.6019780665565975e-05,0.0013965992711732012,0.0,-1.5699775018227768,4.8242880050539485e-05,0.0,-2.1447262878560025e-05,-0.0010755142491399262,0.0,-1.923627606359446e-05,-0.00034066341536667666,0.0,,,,,,
2024-08-03 22:11:12.701735,7.145891889059897e-05,0.0010756022894117796,0.0,-1.5699932102836758,-0.003172477415037109,0.0,-1.6019780665565975e-05,0.0013965992711620877,0.0,-1.569977501822776,4.824287994024642e-05,0.0,-2.1447262878560025e-05,-0.0010755142493308776,0.0,-1.923627606359446e-05,-0.00034066341532090793,0.0,,,,,,
2024-08-03 22:11:12.712015,7.145891889059897e-05,0.0010756022894194233,0.0,-1.5699932102836767,-0.0031724774150270843,0.0,-1.6019780665565975e-05,0.0013965992711139565,0.0,-1.5699775018227768,4.824288014688245e-05,0.0,-2.1447262877671847e-05,-0.0010755142493223272,0.0,-1.923627606359446e-05,-0.00034066341535446876,0.0,,,,,,
2024-08-03 22:11:12.721778,7.145891889059897e-05,0.0010756022893724801,0.0,-1.5699932102836767,-0.0031724774150872926,0.0,-1.6019780665565975e-05,0.0013965992712935836,0.0,-1.5699775018227768,4.824287997853686e-05,0.0,-2.1447262877671847e-05,-0.0010755142492657544,0.0,-1.923627606270628e-05,-0.0003406634153834819,0.0,,,,,,
2024-08-03 22:11:12.732040,7.145891889059897e-05,0.0010756022893893265,0.0,-1.5699932102836767,-0.003172477415041928,0.0,-1.6019780665565975e-05,0.0013965992712112578,0.0,-1.5699775018227768,4.82428800981107e-05,0.0,-2.1447262877671847e-05,-0.0010755142493226724,0.0,-1.923627606270628e-05,-0.0003406634153705506,0.0,,,,,,
2024-08-03 22:11:12.741680,7.145891889059897e-05,0.0010756022893967506,0.0,-1.5699932102836767,-0.0031724774150177267,0.0,-1.6019780666454153e-05,0.0013965992711742232,0.0,-1.569977501822776,4.82428798985969e-05,0.0,-2.1447262878560025e-05,-0.0010755142492707296,0.0,-1.923627606270628e-05,-0.00034066341519410084,0.0,,,,,,
2024-08-03 22:11:12.751913,7.145891889059897e-05,0.0010756022893803976,0.0,-1.5699932102836767,-0.0031724774150455673,0.0,-1.6019780665565975e-05,0.001396599271136284,0.0,-1.5699775018227768,4.824287995568383e-05,0.0,-2.1447262877671847e-05,-0.0010755142491747777,0.0,-1.923627606270628e-05,-0.00034066341518742486,0.0,,,,,,
2024-08-03 22:11:12.761581,7.145891889059897e-05,0.0010756022894150637,0.0,-1.5699932102836767,-0.0031724774150915323,0.0,-1.6019780665565975e-05,0.0013965992711849776,0.0,-1.5699775018227768,4.824288024352346e-05,0.0,-2.1447262877671847e-05,-0.0010755142493365532,0.0,-1.923627606359446e-05,-0.00034066341548920603,0.0,,,,,,
2024-08-03 22:11:12.771878,7.145891889059897e-05,0.0010756022894038988,0.0,-1.5699932102836767,-0.0031724774149938196,0.0,-1.6019780666454153e-05,0.001396599270995196,0.0,-1.569977501822776,4.824288032662712e-05,0.0,-2.1447262878560025e-05,-0.001075514249225258,0.0,-1.923627606359446e-05,-0.00034066341546289515,0.0,,,,,,
2024-08-03 22:11:12.781620,7.145891889059897e-05,0.0010756022894104242,0.0,-1.5699932102836767,-0.0031724774150380056,0.0,-1.6019780665565975e-05,0.0013965992711930826,0.0,-1.569977501822776,4.8242880049114084e-05,0.0,-2.1447262878560025e-05,-0.001075514249339638,0.0,-1.923627606270628e-05,-0.0003406634153377483,0.0,,,,,,
2024-08-03 22:11:12.791873,7.145891889059897e-05,0.0010756022894659269,0.0,-1.5699932102836758,-0.0031724774150205166,0.0,-1.6019780666454153e-05,0.0013965992711128777,0.0,-1.5699775018227768,4.824287993586483e-05,0.0,-2.1447262878560025e-05,-0.0010755142493853388,0.0,-1.923627606270628e-05,-0.0003406634151524256,0.0,,,,,,
2024-08-03 22:11:12.802169,7.145891889059897e-05,0.0010756022893740663,0.0,-1.5699932102836767,-0.003172477415032249,0.0,-1.6019780665565975e-05,0.0013965992711461764,0.0,-1.5699775018227768,4.824288004702851e-05,0.0,-2.1447262878560025e-05,-0.001075514249265599,0.0,-1.923627606270628e-05,-0.0003406634154105233,0.0,,,,,,
2024-08-03 22:11:12.811891,7.145891889059897e-05,0.001075602289315707,0.0,-1.5699932102836767,-0.003172477415051022,0.0,-1.6019780665565975e-05,0.0013965992711982155,0.0,-1.5699775018227768,4.824288016155062e-05,0.0,-2.1447262878560025e-05,-0.0010755142492457385,0.0,-1.923627606359446e-05,-0.00034066341547329265,0.0,,,,,,
2024-08-03 22:11:12.821524,7.145891889059897e-05,0.0010756022893508436,0.0,-1.5699932102836767,-0.0031724774150746777,0.0,-1.6019780665565975e-05,0.0013965992712467214,0.0,-1.5699775018227768,4.824287989438412e-05,0.0,-2.1447262877671847e-05,-0.0010755142492891183,0.0,-1.923627606359446e-05,-0.0003406634152935009,0.0,,,,,,
2024-08-03 22:11:12.831901,7.145891889059897e-05,0.0010756022893730127,0.0,-1.5699932102836767,-0.003172477415004203,0.0,-1.6019780665565975e-05,0.0013965992710584564,0.0,-1.5699775018227768,4.824288012481427e-05,0.0,-2.1447262877671847e-05,-0.0010755142492409272,0.0,-1.923627606359446e-05,-0.0003406634153597473,0.0,,,,,,
2024-08-03 22:11:12.842022,7.145891889059897e-05,0.0010756022893911564,0.0,-1.5699932102836767,-0.0031724774150740116,0.0,-1.6019780665565975e-05,0.001396599271190423,0.0,-1.569977501822776,4.824288005471887e-05,0.0,-2.1447262878560025e-05,-0.0010755142494310891,0.0,-1.923627606270628e-05,-0.0003406634153433135,0.0,,,,,,
2024-08-03 22:11:12.851731,7.145891889059897e-05,0.0010756022893510572,0.0,-1.5699932102836767,-0.003172477415064329,0.0,-1.6019780665565975e-05,0.0013965992712073579,0.0,-1.569977501822776,4.8242880017231385e-05,0.0,-2.1447262877671847e-05,-0.0010755142493489446,0.0,-1.923627606359446e-05,-0.0003406634153209774,0.0,,,,,,
2024-08-03 22:11:12.862004,7.145891889059897e-05,0.001075602289407375,0.0,-1.5699932102836767,-0.003172477415055939,0.0,-1.6019780665565975e-05,0.0013965992712260998,0.0,-1.5699775018227768,4.824287991855695e-05,0.0,-2.1447262878560025e-05,-0.0010755142492975516,0.0,-1.923627606270628e-05,-0.00034066341530895417,0.0,,,,,,
2024-08-03 22:11:12.871665,7.145891889059897e-05,0.0010756022893979994,0.0,-1.5699932102836767,-0.003172477415052663,0.0,-1.6019780665565975e-05,0.0013965992711714402,0.0,-1.5699775018227768,4.824288001931446e-05,0.0,-2.1447262878560025e-05,-0.0010755142492522092,0.0,-1.923627606359446e-05,-0.0003406634153199563,0.0,,,,,,
2024-08-03 22:11:12.881970,7.145891889059897e-05,0.001075602289420329,0.0,-1.5699932102836767,-0.0031724774150907174,0.0,-1.6019780665565975e-05,0.0013965992711941712,0.0,-1.5699775018227768,4.824288030142213e-05,0.0,-2.1447262878560025e-05,-0.0010755142492398226,0.0,-1.923627606359446e-05,-0.00034066341557582663,0.0,,,,,,
2024-08-03 22:11:12.891632,7.145891889059897e-05,0.0010756022894434375,0.0,-1.5699932102836767,-0.003172477414995819,0.0,-1.6019780666454153e-05,0.001396599270990228,0.0,-1.5699775018227768,4.824288030042532e-05,0.0,-2.1447262878560025e-05,-0.0010755142493425755,0.0,-1.923627606270628e-05,-0.00034066341548933776,0.0,,,,,,
2024-08-03 22:11:12.901864,7.145891889059897e-05,0.0010756022893746444,0.0,-1.5699932102836767,-0.003172477415049982,0.0,-1.6019780665565975e-05,0.0013965992710952611,0.0,-1.5699775018227768,4.824288018058585e-05,0.0,-2.1447262878560025e-05,-0.0010755142493222326,0.0,-1.923627606270628e-05,-0.0003406634153573742,0.0,,,,,,
2024-08-03 22:11:12.912037,7.145891889059897e-05,0.001075602289386121,0.0,-1.5699932102836767,-0.0031724774150116005,0.0,-1.6019780666454153e-05,0.0013965992710856174,0.0,-1.5699775018227768,4.8242880173367665e-05,0.0,-2.1447262877671847e-05,-0.0010755142492797378,0.0,-1.923627606359446e-05,-0.000340663415409963,0.0,,,,,,
2024-08-03 22:11:12.921778,7.145891889059897e-05,0.0010756022894164794,0.0,-1.5699932102836767,-0.003172477415028291,0.0,-1.6019780665565975e-05,0.001396599271135337,0.0,-1.5699775018227768,4.8242879999372515e-05,0.0,-2.1447262877671847e-05,-0.0010755142493312764,0.0,-1.923627606270628e-05,-0.00034066341523215926,0.0,,,,,,
2024-08-03 22:11:12.932054,7.145891889059897e-05,0.0010756022894304515,0.0,-1.5699932102836767,-0.0031724774150467946,0.0,-1.6019780665565975e-05,0.0013965992711384432,0.0,-1.5699775018227768,4.824287994991457e-05,0.0,-2.1447262878560025e-05,-0.0010755142492628717,0.0,-1.923627606359446e-05,-0.00034066341538717285,0.0,,,,,,
2024-08-03 22:11:12.941597,7.145891889059897e-05,0.0010756022893751377,0.0,-1.5699932102836767,-0.0031724774150618715,0.0,-1.6019780665565975e-05,0.001396599271165915,0.0,-1.5699775018227768,4.8242879939249385e-05,0.0,-2.1447262878560025e-05,-0.0010755142494296656,0.0,-1.923627606359446e-05,-0.0003406634153271435,0.0,,,,,,
2024-08-03 22:11:12.951833,7.145891889059897e-05,0.0010756022893515774,0.0,-1.5699932102836767,-0.0031724774150542695,0.0,-1.6019780665565975e-05,0.0013965992712073345,0.0,-1.569977501822776,4.8242880210821754e-05,0.0,-2.1447262877671847e-05,-0.0010755142492030335,0.0,-1.923627606359446e-05,-0.0003406634154519688,0.0,,,,,,
2024-08-03 22:11:12.962065,7.145891889059897e-05,0.001075602289352779,0.0,-1.5699932102836767,-0.003172477415059065,0.0,-1.6019780665565975e-05,0.0013965992711524244,0.0,-1.569977501822776,4.824288006848151e-05,0.0,-2.1447262877671847e-05,-0.0010755142491899125,0.0,-1.923627606270628e-05,-0.00034066341531495566,0.0,,,,,,
2024-08-03 22:11:12.971657,7.145891889059897e-05,0.0010756022893662841,0.0,-1.5699932102836767,-0.003172477415012684,0.0,-1.6019780666454153e-05,0.001396599271173984,0.0,-1.569977501822776,4.824288011879923e-05,0.0,-2.1447262878560025e-05,-0.001075514249181662,0.0,-1.923627606359446e-05,-0.00034066341540619637,0.0,,,,,,
2024-08-03 22:11:12.981924,7.145891889059897e-05,0.0010756022893421045,0.0,-1.5699932102836767,-0.0031724774150267885,0.0,-1.6019780666454153e-05,0.001396599271196462,0.0,-1.5699775018227768,4.824287996215912e-05,0.0,-2.1447262877671847e-05,-0.0010755142492649037,0.0,-1.923627606270628e-05,-0.0003406634151951367,0.0,,,,,,
2024-08-03 22:11:12.992157,7.145891889059897e-05,0.0010756022893943116,0.0,-1.5699932102836758,-0.0031724774150412474,0.0,-1.6019780665565975e-05,0.0013965992711456334,0.0,-1.569977501822776,4.8242880180671176e-05,0.0,-2.1447262878560025e-05,-0.0010755142493604848,0.0,-1.923627606359446e-05,-0.00034066341534978836,0.0,,,,,,
2024-08-03 22:11:13.001809,7.145891889059897e-05,0.001075602289413865,0.0,-1.5699932102836767,-0.003172477415042782,0.0,-1.6019780664677796e-05,0.0013965992711807455,0.0,-1.569977501822776,4.8242879973895824e-05,0.0,-2.1447262878560025e-05,-0.0010755142493625326,0.0,-1.923627606359446e-05,-0.0003406634152865384,0.0,,,,,,
2024-08-03 22:11:13.012106,7.145891889059897e-05,0.0010756022894070814,0.0,-1.5699932102836767,-0.003172477415025076,0.0,-1.6019780665565975e-05,0.001396599271169416,0.0,-1.5699775018227768,4.8242880038740655e-05,0.0,-2.1447262877671847e-05,-0.0010755142493331894,0.0,-1.923627606270628e-05,-0.0003406634153632879,0.0,,,,,,
2024-08-03 22:11:13.021736,7.145891889059897e-05,0.0010756022894259714,0.0,-1.5699932102836767,-0.003172477415063522,0.0,-1.6019780665565975e-05,0.001396599271248728,0.0,-1.5699775018227768,4.824287996290071e-05,0.0,-2.1447262878560025e-05,-0.0010755142492307917,0.0,-1.923627606359446e-05,-0.00034066341532840237,0.0,,,,,,
2024-08-03 22:11:13.031985,7.145891889059897e-05,0.0010756022894237323,0.0,-1.5699932102836758,-0.0031724774150132485,0.0,-1.6019780665565975e-05,0.0013965992711699477,0.0,-1.5699775018227768,4.824288005458909e-05,0.0,-2.1447262878560025e-05,-0.0010755142492949528,0.0,-1.923627606359446e-05,-0.0003406634154208615,0.0,,,,,,
2024-08-03 22:11:13.041657,7.145891889059897e-05,0.001075602289440715,0.0,-1.5699932102836767,-0.003172477415008791,0.0,-1.6019780665565975e-05,0.0013965992710920153,0.0,-1.5699775018227768,4.82428801992982e-05,0.0,-2.1447262878560025e-05,-0.0010755142492777049,0.0,-1.923627606359446e-05,-0.0003406634155759473,0.0,,,,,,
2024-08-03 22:11:13.051882,7.145891889059897e-05,0.0010756022894110955,0.0,-1.5699932102836767,-0.003172477415056364,0.0,-1.6019780665565975e-05,0.0013965992711430014,0.0,-1.5699775018227768,4.8242880233214866e-05,0.0,-2.1447262878560025e-05,-0.0010755142493312092,0.0,-1.923627606359446e-05,-0.0003406634154260916,0.0,,,,,,
2024-08-03 22:11:13.061592,7.145891889059897e-05,0.001075602289365417,0.0,-1.5699932102836758,-0.0031724774150482865,0.0,-1.6019780665565975e-05,0.0013965992711581666,0.0,-1.5699775018227768,4.8242880062143376e-05,0.0,-2.1447262877671847e-05,-0.0010755142493119156,0.0,-1.923627606270628e-05,-0.00034066341540788425,0.0,,,,,,
2024-08-03 22:11:13.071809,7.145891889059897e-05,0.0010756022894305444,0.0,-1.5699932102836767,-0.0031724774150404676,0.0,-1.6019780665565975e-05,0.001396599271192199,0.0,-1.5699775018227768,4.824288017824918e-05,0.0,-2.1447262877671847e-05,-0.001075514249411906,0.0,-1.923627606359446e-05,-0.0003406634154701783,0.0,,,,,,
2024-08-03 22:11:13.082068,7.145891889059897e-05,0.00107560228939466,0.0,-1.5699932102836767,-0.0031724774150141072,0.0,-1.6019780665565975e-05,0.0013965992711978486,0.0,-1.569977501822776,4.824287988612521e-05,0.0,-2.1447262877671847e-05,-0.00107551424935188,0.0,-1.923627606359446e-05,-0.0003406634151253893,0.0,,,,,,
2024-08-03 22:11:13.091753,7.145891889059897e-05,0.0010756022893887685,0.0,-1.5699932102836767,-0.003172477415059151,0.0,-1.6019780665565975e-05,0.0013965992712378032,0.0,-1.5699775018227768,4.824287984478025e-05,0.0,-2.1447262877671847e-05,-0.0010755142493269064,0.0,-1.923627606270628e-05,-0.0003406634152703724,0.0,,,,,,
2024-08-03 22:11:13.102170,7.145891889059897e-05,0.0010756022894208193,0.0,-1.5699932102836767,-0.003172477415040626,0.0,-1.6019780665565975e-05,0.0013965992711466929,0.0,-1.5699775018227768,4.8242879956622966e-05,0.0,-2.1447262878560025e-05,-0.0010755142493382441,0.0,-1.923627606270628e-05,-0.0003406634153056906,0.0,,,,,,
2024-08-03 22:11:13.111806,7.828328516357175e-05,0.0010751768830079703,0.0,-1.5699963832035368,-0.0031728963236950345,0.0,-1.4642379589702159e-05,0.0013973324943165918,0.0,-1.5699774539862332,4.783886207514849e-05,0.0,-2.2237824864212996e-05,-0.0010750935419168066,0.0,-1.9148013790548646e-05,-0.000340542774699633,0.0,,,,,,
2024-08-03 22:11:13.122147,8.449810458710516e-05,0.0010811270298176072,0.0,-1.5699574976357977,-0.0031877459672976973,0.0,0.00029488448699055425,0.0014499277119450118,0.0,-1.5698626134608897,1.0894953770600917e-05,0.0,0.0002156322064870153,-0.0010805806511784799,0.0,-1.9214562021474535e-05,-0.00034162892440478033,0.0,,,,,,
2024-08-03 22:11:13.131781,0.00010129868368125017,0.0010972941267862746,0.0,-1.5698508382938685,-0.0032281863020217115,0.0,0.0011438267229006982,0.0015942761551191347,0.0,-1.56954761860991,-9.115483664890811e-05,0.0,0.0008687817164076961,-0.0010956421541487773,0.0,-1.9396457344278417e-05,-0.0003440233399208014,0.0,,,,,,
2024-08-03 22:11:13.141997,0.00012862689941073313,0.0011235166295719065,0.0,-1.5696768866173325,-0.003293820984548758,0.0,0.0025283725025460058,0.0018295858975197902,0.0,-1.5690338915467432,-0.0002575062620159646,0.0,0.0019340347089693566,-0.0011202229492719767,0.0,-1.9693138548326772e-05,-0.00034794195102920737,0.0,,,,,,
2024-08-03 22:11:13.151768,0.00016594183527463002,0.001158966531215159,0.0,-1.5694408741282968,-0.003382611361689313,0.0,0.004406881217851932,0.0021487552473499994,0.0,-1.5683368825791053,-0.0004831517701708687,0.0,0.0033793397709436235,-0.001153565071201019,0.0,-2.009568622618474e-05,-0.00035326123203021113,0.0,,,,,,
2024-08-03 22:11:13.161956,0.00021201980272778087,0.0012023029203602625,0.0,-1.5691514963659043,-0.0034912503050090497,0.0,0.006710141554543192,0.002539993009913528,0.0,-1.5674822720796175,-0.0007597564432446278,0.0,0.005151445131402532,-0.0011944108111835371,0.0,-2.058927695713919e-05,-0.00035979000003779195,0.0,,,,,,
2024-08-03 22:11:13.171675,0.00026513492836688357,0.0012518568571223512,0.0,-1.5688196269047567,-0.0036156199208840153,0.0,0.009351606521476263,0.002988546328819752,0.0,-1.566502172713096,-0.0010768905504023967,0.0,0.007183762162492613,-0.001241183519993807,0.0,-2.1155364010816413e-05,-0.0003672903037557079,0.0,,,,,,
2024-08-03 22:11:13.182123,0.00032335809094075074,0.001305812835260089,0.0,-1.5684570313451862,-0.0037512211254248427,0.0,0.012237628779838694,0.003478417196314352,0.0,-1.5654313316604904,-0.0014232587956260236,0.0,0.009404239561100702,-0.0012921540782457176,0.0,-2.1773865813479176e-05,-0.0003755003792580801,0.0,,,,,,
2024-08-03 22:11:13.191654,0.0003848149258294242,0.001362454094114588,0.0,-1.5680750815522992,-0.0038938519843948333,0.0,0.015277696128004337,0.003994207822035778,0.0,-1.5643033328611935,-0.0017879478784918273,0.0,0.01174323812739786,-0.001345697816391147,0.0,-2.2425380150181695e-05,-0.00038417948126785815,0.0,,,,,,
2024-08-03 22:11:13.201985,0.0004479086345927641,0.001420309252188016,0.0,-1.567683469512558,-0.004039903599001929,0.0,0.018394666797249215,0.004522772195867079,0.0,-1.5631467992328139,-0.002161651576894614,0.0,0.014141405794770634,-0.0014004103241770818,0.0,-2.3093366655402292e-05,-0.0003931184274023722,0.0,,,,,,
2024-08-03 22:11:13.211663,0.0005115296766957655,0.0014783570109901955,0.0,-1.567288921416887,-0.004186882518638807,0.0,0.02153500486257709,0.005054981565936516,0.0,-1.561981594901133,-0.0025379059807921264,0.0,0.01655755260180758,-0.0014553075756042816,0.0,-2.3766345297104863e-05,-0.0004021725486583808,0.0,,,,,,
2024-08-03 22:11:13.221844,0.0005752238739118454,0.00153617086218911,0.0,-1.566894148616553,-0.004333769209189216,0.0,0.02467712965185509,0.005587118783343633,0.0,-1.5608157271871592,-0.0029140847826247583,0.0,0.018975074672026082,-0.0015099606954869869,0.0,-2.443968186494061e-05,-0.0004112835532975136,0.0,,,,,,
2024-08-03 22:11:13.232202,0.0006389441541090335,0.001593700099360343,0.0,-1.5664993756605996,-0.0044805002838936275,0.0,0.02781925402883889,0.00611884335870784,0.0,-1.5596498591469974,-0.003289937399308171,0.0,0.02139259705719443,-0.0015643060858554303,0.0,-2.5112990581277472e-05,-0.0004204533835847109,0.0,,,,,,
2024-08-03 22:11:13.241888,0.0007026834716956643,0.0016509269187954046,0.0,-1.5661046025766392,-0.004627103352293702,0.0,0.030961377965067705,0.006650126938160455,0.0,-1.5584839907433397,-0.0036654265204002926,0.0,0.02381011977603542,-0.0016183228198517199,0.0,-2.5786274585826163e-05,-0.00042969138680079805,0.0,,,,,,
2024-08-03 22:11:13.252141,0.000766437057915681,0.0017078244499680077,0.0,-1.565709829359412,-0.004773573159136244,0.0,0.03410350141414131,0.007180923187179901,0.0,-1.5573181219359284,-0.004040511886727011,0.0,0.026227642858063227,-0.0016719799947156168,0.0,-2.6459535040324056e-05,-0.0004390037457881182,0.0,,,,,,
2024-08-03 22:11:13.261705,0.0008302015722616574,0.0017643648345672088,0.0,-1.5653150559993223,-0.004919900106052213,0.0,0.03724562432684131,0.007711182932816249,0.0,-1.5561522526841944,-0.004415152930670314,0.0,0.028645166334327676,-0.0017252456407661327,0.0,-2.713277388455282e-05,-0.000448396067844007,0.0,,,,,,
2024-08-03 22:11:13.271999,0.0008939746048168828,0.0018205209814425075,0.0,-1.5649202824864739,-0.005066074296352068,0.0,0.040387746654457324,0.00824085749405033,0.0,-1.5549863829478676,-0.004789309383629493,0.0,0.031062690235364343,-0.0017780885870843975,0.0,-2.7805994112561905e-05,-0.0004578738475955217,0.0,,,,,,
2024-08-03 22:11:13.281743,0.0009577543719290205,0.0018762663603653716,0.0,-1.564525508810721,-0.005212085587564844,0.0,0.043529868348275436,0.008769898178438155,0.0,-1.5538205126869098,-0.00516294120744845,0.0,0.033480214591278035,-0.0018304782829627678,0.0,-2.8479199499109598e-05,-0.00046744240470294356,0.0,,,,,,
2024-08-03 22:11:13.291868,0.0010215395238910574,0.001931575021006676,0.0,-1.5641307349617202,-0.005357923632918496,0.0,0.04667198935953909,0.009298256246382763,0.0,-1.552654641861528,-0.005536008606896013,0.0,0.03589773943163621,-0.001882384829392058,0.0,-2.9152394397158332e-05,-0.0004771068678272285,0.0,,,,,,
2024-08-03 22:11:13.302251,0.001085329019365311,0.0019864216261317536,0.0,-1.5637359609289205,-0.005503577883726386,0.0,0.04981410963944821,0.009825882909550613,0.0,-1.551488770432191,-0.005908472047771733,0.0,0.03831526478540148,-0.0019337790226279048,0.0,-2.9825583559350832e-05,-0.00048687216246505054,0.0,,,,,,
2024-08-03 22:11:13.311967,0.0011491220412098713,0.002040781690012803,0.0,-1.5633411867018114,-0.005649037825511891,0.0,0.05295622913958109,0.010352729753581053,0.0,-1.5503228983597168,-0.006280292356283364,0.0,0.04073279068064384,-0.001984632600688677,0.0,-3.049877202521145e-05,-0.0004967430416451611,0.0,,,,,,
2024-08-03 22:11:13.322306,0.001212917938261171,0.0020946314069157255,0.0,-1.5629464122694585,-0.005794292531141713,0.0,0.05609834781145384,0.01087874830466683,0.0,-1.549157025605215,-0.0066514306391422745,0.0,0.0431503171447174,-0.0020349180647961642,0.0,-3.117196501989383e-05,-0.0005067240498763796,0.0,,,,,,
2024-08-03 22:11:13.331965,0.0012767161841891195,0.0021479474226029174,0.0,-1.5625516376205322,-0.005939330665186311,0.0,0.059240465606030135,0.01140388952852939,0.0,-1.5479911521300327,-0.007021848237433375,0.0,0.04556784420445226,-0.002084608476359471,0.0,-3.184516773835355e-05,-0.000516819425790764,0.0,,,,,,
2024-08-03 22:11:13.342296,0.0013405163483666271,0.0022007070391549186,0.0,-1.5621568627435927,-0.006084140790284303,0.0,0.0623825824740738,0.011928104195452725,0.0,-1.5468252778958043,-0.0073915067918325274,0.0,0.04798537188591556,-0.002133677671020737,0.0,-3.251838531426188e-05,-0.0005270331415748903,0.0,,,,,,
2024-08-03 22:11:13.351947,0.0014043180736580396,0.002252887433037877,0.0,-1.5617620876231848,-0.006228707446003633,0.0,0.06552469836440622,0.01245134113012885,0.0,-1.5456594028643282,-0.0077603680983149015,0.0,0.05040290021554128,-0.0021820991443780562,0.0,-3.3191622407002797e-05,-0.0005373685265486372,0.0,,,,,,
2024-08-03 22:11:13.362207,0.001468121052660365,0.002304457787856519,0.0,-1.5613673122088494,-0.006372980182875275,0.0,0.0686668132055992,0.01297352890595092,0.0,-1.5444935269950273,-0.008128391581781781,0.0,0.05282042923084784,-0.0022298353190947696,0.0,-3.386487903966895e-05,-0.0005478250241970199,0.0,,,,,,
2024-08-03 22:11:13.371759,0.0015319250374234983,0.002355400742796729,0.0,-1.5609725364970426,-0.006516955450760026,0.0,0.07180892695365237,0.01349462352797082,0.0,-1.5433276502511628,-0.008495540501429597,0.0,0.05523795895141159,-0.002276866564531059,0.0,-3.4538160445407584e-05,-0.000558406956693144,0.0,,,,,,
2024-08-03 22:11:13.382043,0.0015957298205577786,0.0024057029438062103,0.0,-1.5605777604978444,-0.006660643331325183,0.0,0.07495103957324645,0.014014589675098558,0.0,-1.542161772597895,-0.008861780019136876,0.0,0.057655489391286174,-0.0023231787897514734,0.0,-3.521147460538998e-05,-0.0005691196705403835,0.0,,,,,,
2024-08-03 22:11:13.391696,0.001659535219320496,0.0024553459495414605,0.0,-1.5601829842001906,-0.006804032756869312,0.0,0.07809315101555558,0.014533378527181652,0.0,-1.5409958939988426,-0.009227073750536033,0.0,0.060073020571728364,-0.002368750703117984,0.0,-3.588482596939002e-05,-0.000579965880993964,0.0,,,,,,
2024-08-03 22:11:13.402184,0.001723341061762973,0.002504298115502767,0.0,-1.5597882075359084,-0.006947055561372025,0.0,0.08123526120225044,0.015050911753415325,0.0,-1.5398300144145125,-0.009591382207171786,0.0,0.062490552533449595,-0.0024135415618043296,0.0,-3.655821349202171e-05,-0.0005909428517371137,0.0,,,,,,
2024-08-03 22:11:13.411789,0.0017871472117594323,0.0025525431703151687,0.0,-1.5593934304886072,-0.00708969534335636,0.0,0.08437737008248192,0.015567138506743676,0.0,-1.5386641338082585,-0.009954668740843312,0.0,0.06490808529550307,-0.002457532288151169,0.0,-3.7231640366286456e-05,-0.000602053173748316,0.0,,,,,,
2024-08-03 22:11:13.421976,0.0018509535604689376,0.0026000759366895877,0.0,-1.558998653088526,-0.007231982353273755,0.0,0.08751947763035606,0.016082032893267,0.0,-1.5374982521482705,-0.010316901539753436,0.0,0.06732561886050448,-0.002500720246374006,0.0,-3.790511432555377e-05,-0.000613302246433198,0.0,,,,,,
2024-08-03 22:11:13.431967,0.0019147599915827485,0.0026468702506298064,0.0,-1.5586038752783258,-0.007373859246472781,0.0,0.09066158377574407,0.0165955247861279,0.0,-1.5363323693975648,-0.010678043621316493,0.0,0.06974315326111213,-0.002543072759188951,0.0,-3.8578635829900065e-05,-0.0006246880484160638,0.0,,,,,,
2024-08-03 22:11:13.442358,0.001978566406029003,0.0026929050787835493,0.0,-1.55820909700998,-0.007515277997231415,0.0,0.09380368845253972,0.01710754807897938,0.0,-1.5351664855185003,-0.01103805734684311,0.0,0.07216068852361346,-0.002584563526280126,0.0,-3.925220580569544e-05,-0.0006362103191253628,0.0,,,,,,
2024-08-03 22:11:13.452010,0.0020423727375238343,0.0027381826625439945,0.0,-1.5578143183325215,-0.007656287639551288,0.0,0.09694579164269523,0.017618084725569822,0.0,-1.5340006004817566,-0.011396913390787335,0.0,0.07457822464172281,-0.0026251988111386454,0.0,-3.992583067624622e-05,-0.0006478743364023245,0.0,,,,,,
2024-08-03 22:11:13.462280,0.002106178894337063,0.002782671935709794,0.0,-1.5574195391543213,-0.007796796542761059,0.0,0.1000878932626561,0.01812705117204396,0.0,-1.532834714250229,-0.011754574651679806,0.0,0.07699576165379884,-0.0026649402493782357,0.0,-4.05995089396427e-05,-0.0006596753924084653,0.0,,,,,,
2024-08-03 22:11:13.472433,0.002169984818156223,0.002826367305756154,0.0,-1.5570247594777242,-0.007936807049843194,0.0,0.10322999327027915,0.01863440527670507,0.0,-1.5316688267904421,-0.012111007655183179,0.0,0.07941329956570264,-0.0027037819691917197,0.0,-4.127324380931441e-05,-0.000671616250556355,0.0,,,,,,
2024-08-03 22:11:13.482155,0.002233790457201401,0.0028692644041867187,0.0,-1.5566299793154765,-0.008076331912990595,0.0,0.10637209163104444,0.01914011251988764,0.0,-1.5305029380732016,-0.01246618320177641,0.0,0.08183083838095584,-0.0027417204343323474,0.0,-4.194703784410336e-05,-0.0006836979275629553,0.0,,,,,,
2024-08-03 22:11:13.492355,0.0022975957422870508,0.002911335896256749,0.0,-1.5562351985713059,-0.00821527485174575,0.0,0.1095141882594266,0.019644087374606697,0.0,-1.529337048060679,-0.012820063468183486,0.0,0.08424837813301522,-0.0027787221836977627,0.0,-4.2620889545652574e-05,-0.0006959163925209485,0.0,,,,,,
2024-08-03 22:11:13.502198,0.0023614006475938254,0.0029525931785636295,0.0,-1.5558404173139697,-0.008353704630286419,0.0,0.11265628314458187,0.020146318998431542,0.0,-1.528171156726727,-0.013172622306092325,0.0,0.08666591880661567,-0.0028148024746889816,0.0,-4.329480315679035e-05,-0.0007082761132154551,0.0,,,,,,
2024-08-03 22:11:13.512366,0.0024252051094011406,0.0029930064411765062,0.0,-1.5554456354322166,-0.008491509994270318,0.0,0.11579837619740108,0.02064671828379546,0.0,-1.527005264035913,-0.013523824283778341,0.0,0.08908346043786519,-0.0028499251939415383,0.0,-4.396877510171038e-05,-0.0007207701111600765,0.0,,,,,,
2024-08-03 22:11:13.522015,0.002489009107250695,0.003032584727788709,0.0,-1.5550508529722726,-0.008628737171202844,0.0,0.11894046739526498,0.021145262607921846,0.0,-1.5258393699596677,-0.013873640828402147,0.0,0.09150100301516506,-0.0028841019347291743,0.0,-4.464280902993778e-05,-0.0007334025035197131,0.0,,,,,,
2024-08-03 22:11:13.532422,0.002552812599451393,0.003071313863207776,0.0,-1.5546560698850047,-0.008765337025817423,0.0,0.12208255667788048,0.02164189168102354,0.0,-1.5246734744682993,-0.014222042251743788,0.0,0.09391854655540399,-0.0029173157978617716,0.0,-4.531690262599142e-05,-0.0007461686328228457,0.0,,,,,,
2024-08-03 22:11:13.542089,0.002616615556414459,0.003109188299339481,0.0,-1.554261286144042,-0.008901283189899075,0.0,0.12522464399121347,0.022136551469693427,0.0,-1.5235075775298412,-0.014568996583849183,0.0,0.09633609106530372,-0.0029495600613626276,0.0,-4.599105622116184e-05,-0.0007590680129809204,0.0,,,,,,
2024-08-03 22:11:13.552463,0.0026804179577180065,0.003146209987359685,0.0,-1.5538665017634095,-0.009036589683397787,0.0,0.12836672930303372,0.02262920974295306,0.0,-1.5223416791194042,-0.014914478938349874,0.0,0.09875363654182667,-0.0029808377603783532,0.0,-4.666526950725114e-05,-0.0007720993197625484,0.0,,,,,,
2024-08-03 22:11:13.562057,0.002744219768611167,0.003182364058771724,0.0,-1.5534717166685394,-0.009171181942801932,0.0,0.13150881253942348,0.023119792584102843,0.0,-1.521175779203662,-0.015258455987237888,0.0,0.10117118300360506,-0.0030111302523200597,0.0,-4.733954002400509e-05,-0.0007852583640545079,0.0,,,,,,
2024-08-03 22:11:13.572361,0.002808020986001303,0.0032176657274410364,0.0,-1.553076930912823,-0.00930511336016511,0.0,0.13465089368558836,0.023608285197954167,0.0,-1.5200098777606907,-0.015600905809172168,0.0,0.10358873043392869,-0.00304045424764227,0.0,-4.8013869017538013e-05,-0.0007985462641294725,0.0,,,,,,
2024-08-03 22:11:13.582472,0.0028718215754466314,0.0032520970979946903,0.0,-1.5526821443992371,-0.009438286911163666,0.0,0.13779297265542478,0.024094601479952953,0.0,-1.5188439747570737,-0.015941794984421668,0.0,0.10600627885896685,-0.003068783574846261,0.0,-4.868825168902191e-05,-0.0008119559569509348,0.0,,,,,,
2024-08-03 22:11:13.592400,0.0029356215451743495,0.003285681279114444,0.0,-1.5522873572292146,-0.009570804026374386,0.0,0.14093504944481428,0.024578737312882768,0.0,-1.5176780701725114,-0.016281103215601417,0.0,0.1084238282520289,-0.0030961449219298605,0.0,-4.936269057953524e-05,-0.0008254904666977537,0.0,,,,,,
2024-08-03 22:11:13.602285,0.002999420864782998,0.0033184021116985443,0.0,-1.5518925692701868,-0.009702532139261536,0.0,0.14407712396252847,0.02506060146694506,0.0,-1.5165121639750776,-0.016618798573799203,0.0,0.11084137864160137,-0.0031225097987045815,0.0,-5.0037179212480964e-05,-0.0008391407511171615,0.0,,,,,,
2024-08-03 22:11:13.612423,0.003063219499358283,0.0033502372855110855,0.0,-1.5514977805904102,-0.00983353950360721,0.0,0.1472191962026761,0.025540188055195097,0.0,-1.5153462561479412,-0.01695486423308083,0.0,0.11325893000055309,-0.0031479053339883156,0.0,-5.071171936776864e-05,-0.000852909058842767,0.0,,,,,,
2024-08-03 22:11:13.622138,0.003127017437603463,0.0033811876653828056,0.0,-1.5511029910900171,-0.009963726257518683,0.0,0.1503612660925686,0.02601742438757124,0.0,-1.514180346666059,-0.01728927514525641,0.0,0.11567648235075723,-0.0031723096486949657,0.0,-5.1386304100731195e-05,-0.0008667859714910376,0.0,,,,,,
2024-08-03 22:11:13.632377,0.003190814691869548,0.0034112759237136516,0.0,-1.5507082008096302,-0.010093133017429689,0.0,0.15350333360739565,0.026492285652881715,0.0,-1.513014435501673,-0.017622003551111053,0.0,0.11809403567268184,-0.00319574227759243,0.0,-5.206093580856219e-05,-0.0008807742791537483,0.0,,,,,,
2024-08-03 22:11:13.642042,0.0032546112497646718,0.0034405000219771453,0.0,-1.5503134097020188,-0.010221712555443603,0.0,0.15664539869311156,0.026964717805295052,0.0,-1.5118485226310483,-0.017953025720913035,0.0,0.12051158997291811,-0.003218196624191173,0.0,-5.273560941709832e-05,-0.0008948665520279119,0.0,,,,,,
2024-08-03 22:11:13.652304,0.003318407107352428,0.003468864938426865,0.0,-1.5499186177436,-0.01034944128776883,0.0,0.15978746130113475,0.027434672263669573,0.0,-1.5106826080279152,-0.018282315384815454,0.0,0.12292914524737153,-0.0032396767869084455,0.0,-5.341032338623819e-05,-0.0009090603626875844,0.0,,,,,,
2024-08-03 22:11:13.662508,0.0033822022671614604,0.0034963818959030534,0.0,-1.5495238249541996,-0.01047633903707873,0.0,0.16292952140672678,0.02790212428746927,0.0,-1.5095166916748823,-0.018609855145376376,0.0,0.12534670148211013,-0.003260196686469247,0.0,-5.408507343496183e-05,-0.0009233507145472347,0.0,,,,,,
2024-08-03 22:11:13.672184,0.0034459967134070624,0.003523042932879136,0.0,-1.5491290312497366,-0.010602321729285333,0.0,0.16607157893774982,0.028367001741629594,0.0,-1.5083507735458639,-0.018935618923626343,0.0,0.12776425868833652,-0.0032797451293625126,0.0,-5.4759853131081115e-05,-0.0009377304681885633,0.0,,,,,,
2024-08-03 22:11:13.682449,0.003509790464284457,0.0035488735202631647,0.0,-1.5487342367062193,-0.010727465371475267,0.0,0.1692136338936594,0.02882930408180845,0.0,-1.5071848536258763,-0.019259591735744166,0.0,0.13018181683401675,-0.0032983541433874016,0.0,-5.543466381841e-05,-0.0009522013635168761,0.0,,,,,,
2024-08-03 22:11:13.692637,0.0035735834949077727,0.0035738557810996567,0.0,-1.5483394411982727,-0.01085164457992075,0.0,0.17235568618693975,0.029288943790791652,0.0,-1.506018931889158,-0.019581747811811382,0.0,0.13259937594310411,-0.0033159997708245865,0.0,-5.610949469847526e-05,-0.0009667508574257391,0.0,,,,,,
2024-08-03 22:11:13.702344,0.003637375828648537,0.0035980191508309008,0.0,-1.5479446448088232,-0.010974942292544412,0.0,0.1754977358191594,0.02974592244096311,0.0,-1.5048530083194507,-0.019902070903089677,0.0,0.13501693597886444,-0.003332718751169821,0.0,-5.6784349454552796e-05,-0.0009813831171310596,0.0,,,,,,
2024-08-03 22:11:13.712534,0.0037011674529576766,0.0036213573088487946,0.0,-1.5475498474655704,-0.011097286203368672,0.0,0.17863978272924896,0.030200178959321197,0.0,-1.5036870828973736,-0.020220541621807017,0.0,0.13743449694970522,-0.003348502669669681,0.0,-5.745921906630258e-05,-0.000996087501904371,0.0,,,,,,
2024-08-03 22:11:13.722284,0.003764958373038141,0.0036438807216810356,0.0,-1.547155049159146,-0.011218666939603217,0.0,0.181781826878324,0.030651674460887044,0.0,-1.5025211556015918,-0.020537138634771687,0.0,0.13985205884388385,-0.003363363273344818,0.0,-5.813410170851796e-05,-0.0010108619438051333,0.0,,,,,,
2024-08-03 22:11:13.732595,0.0038287486020758266,0.00366560785892486,0.0,-1.5467602499260928,-0.011339121052926289,0.0,0.1849238682531933,0.031100395757356288,0.0,-1.5013552264186592,-0.020851848501143938,0.0,0.142269621637932,-0.0033773240285618774,0.0,-5.8808996088011156e-05,-0.001025704419617355,0.0,,,,,,
2024-08-03 22:11:13.742287,0.003892538124032896,0.003686527555824536,0.0,-1.5463654496561137,-0.011458538235623256,0.0,0.18806590677473967,0.03154626372848479,0.0,-1.5001892953255709,-0.02116464820981139,0.0,0.14468718534746827,-0.003390369309257543,0.0,-5.94838922394203e-05,-0.0010406035173969289,0.0,,,,,,
2024-08-03 22:11:13.752531,0.003956326965134593,0.0037066704114956978,0.0,-1.5459706484351796,-0.01157700447048135,0.0,0.19120794244938732,0.03198928480296681,0.0,-1.4990233623095115,-0.02147552494850408,0.0,0.1471047499344058,-0.0034025372086758706,0.0,-6.0158793549369705e-05,-0.0010555627795920386,0.0,,,,,,
2024-08-03 22:11:13.762214,0.004020115116901479,0.0037260324459792646,0.0,-1.5455758461898126,-0.011694446274184644,0.0,0.1943499752187572,0.03242940059948997,0.0,-1.4978574273541811,-0.02178446241716467,0.0,0.14952231540418026,-0.003413822292113202,0.0,-6.083369031095742e-05,-0.0010705708596226418,0.0,,,,,,
2024-08-03 22:11:13.772347,0.004083902586001997,0.0037446241164467544,0.0,-1.5451810429031718,-0.011810846801979963,0.0,0.19749200504390974,0.03286657217545411,0.0,-1.4966914904405417,-0.02209144157451478,0.0,0.15193988174537854,-0.003424235962418946,0.0,-6.1508579983105e-05,-0.0010856248879383987,0.0,,,,,,
2024-08-03 22:11:13.782596,0.0041476893939069726,0.003762470660288937,0.0,-1.5447862386347884,-0.011926265589199429,0.0,0.20063403192391238,0.03330079860376831,0.0,-1.4955255515577974,-0.022396451628312934,0.0,0.15435744892625092,-0.0034338099794676783,0.0,-6.218346369735173e-05,-0.0011007253653666231,0.0,,,,,,
2024-08-03 22:11:13.792317,0.0042114755221849265,0.003779557413087224,0.0,-1.5443914332563995,-0.012040574370326443,0.0,0.20377605577764157,0.03373199875345521,0.0,-1.494359610688499,-0.022699475125197956,0.0,0.15677501696664553,-0.003442524485728111,0.0,-6.285832674990388e-05,-0.0011158561156033157,0.0,,,,,,
2024-08-03 22:11:13.802707,0.00427526099778941,0.003795914394534698,0.0,-1.5439966268379715,-0.01215384311768072,0.0,0.2069180766061285,0.03416017366332731,0.0,-1.4931936678188702,-0.023000498300944396,0.0,0.1591925858297074,-0.003450416342169187,0.0,-6.353317409057979e-05,-0.001131021918548767,0.0,,,,,,
2024-08-03 22:11:13.812455,0.0043390458304308765,0.003811554574071439,0.0,-1.5436018193838972,-0.012266076216898746,0.0,0.2100600943873241,0.034585301279325395,0.0,-1.4920277229384835,-0.02329951070915357,0.0,0.1616101554996625,-0.0034575013159731547,0.0,-6.42080011576951e-05,-0.0011462174727554742,0.0,,,,,,
2024-08-03 22:11:13.822306,0.0044028300077698646,0.003826468674503942,0.0,-1.5432070107804863,-0.012377159981481187,0.0,0.21320210904686565,0.03500730724540007,0.0,-1.4908617760301706,-0.023596495200257143,0.0,0.16402772598981308,-0.0034637661096574295,0.0,-6.48827958382725e-05,-0.0011614292929046932,0.0,,,,,,
2024-08-03 22:11:13.832440,0.004466613559220178,0.0038406887438713205,0.0,-1.5428122011103163,-0.012487176986653777,0.0,0.2163441205948784,0.03542620167861263,0.0,-1.4896958270840424,-0.023891441868416522,0.0,0.1664452972604682,-0.00346925040863055,0.0,-6.555756285031578e-05,-0.0011766619310774008,0.0,,,,,,
2024-08-03 22:11:13.842637,0.004530396491814415,0.0038542245941095062,0.0,-1.5424173903622111,-0.012596116060071586,0.0,0.21948612900442832,0.03584195765357527,0.0,-1.4885298760900838,-0.024184340713942546,0.0,0.16886286930009753,-0.0034739657507181733,0.0,-6.623229668978325e-05,-0.0011919090910940742,0.0,,,,,,
2024-08-03 22:11:13.852326,0.004594178796973658,0.0038670702043878628,0.0,-1.5420225784302788,-0.012703871301464045,0.0,0.22262813420676864,0.03625450641212287,0.0,-1.487363923033688,-0.024475177113347842,0.0,0.17128044211776672,-0.003477903056957479,0.0,-6.690698533340367e-05,-0.0012071574579035813,0.0,,,,,,
2024-08-03 22:11:13.862535,0.004657960502724379,0.0038792558627419927,0.0,-1.54162776539375,-0.01281052195216527,0.0,0.22577013621256103,0.03666385862860465,0.0,-1.4861979679055972,-0.024763941829356324,0.0,0.17369801567636323,-0.003481099455935634,0.0,-6.75816337576407e-05,-0.0012224118644149418,0.0,,,,,,
2024-08-03 22:11:13.872766,0.00472174162110317,0.0038907959172536388,0.0,-1.5412329512562104,-0.012916071591912527,0.0,0.22891213500334295,0.03706999582692754,0.0,-1.485032010697866,-0.025050626891061075,0.0,0.1761155899584157,-0.0034835724052283377,0.0,-6.825623811756998e-05,-0.001237667650953526,0.0,,,,,,
2024-08-03 22:11:13.882358,0.004785522139328258,0.0039016798876873025,0.0,-1.5408381358963632,-0.013020398924084882,0.0,0.23205413050698542,0.037472845890279785,0.0,-1.4838660513985902,-0.025335220423321873,0.0,0.1785331649787043,-0.0034853071337325853,0.0,-6.893078315695078e-05,-0.0012529083655415372,0.0,,,,,,
2024-08-03 22:11:13.892608,0.004849302086422647,0.003911938639021406,0.0,-1.5404433193884388,-0.013123578178032464,0.0,0.23519612273344048,0.037872418761034615,0.0,-1.4827000899986817,-0.02561771331197879,0.0,0.1809507406994788,-0.003486341379770316,0.0,-6.960527488697466e-05,-0.001268139759115153,0.0,,,,,,
2024-08-03 22:11:13.902291,0.00491308147709546,0.003921588868958136,0.0,-1.5400485017504664,-0.013225627389489465,0.0,0.23833811167217522,0.038268703917437724,0.0,-1.4815341264911535,-0.02589809859507334,0.0,0.1833683171005518,-0.0034866953456490642,0.0,-7.027971149575762e-05,-0.001283359298195565,0.0,,,,,,
2024-08-03 22:11:13.912533,0.004976860304930497,0.003930626164715952,0.0,-1.5396536828939735,-0.013326458073171633,0.0,0.24148009726879494,0.038661646952663775,0.0,-1.4803681608689878,-0.026176369222944647,0.0,0.18578589418853309,-0.0034863624038501944,0.0,-7.095407878665583e-05,-0.0012985518433826617,0.0,,,,,,
2024-08-03 22:11:13.922847,0.005040638585384727,0.00393906761643385,0.0,-1.5392588628201798,-0.013426071464186506,0.0,0.24462207950398795,0.03905122856864267,0.0,-1.4792021931220942,-0.026452515138154793,0.0,0.18820347194335252,-0.003485362641347897,0.0,-7.162837657581633e-05,-0.0013137165002329418,0.0,,,,,,
2024-08-03 22:11:13.932440,0.005104416338784112,0.003946935203710207,0.0,-1.5388640415772918,-0.013524515755793748,0.0,0.2477640583813132,0.03943745231036827,0.0,-1.4780362232442075,-0.02672653004749315,0.0,0.19062105033862498,-0.003483722421757601,0.0,-7.230260687940415e-05,-0.0013288549308776807,0.0,,,,,,
2024-08-03 22:11:13.942719,0.005168193575544322,0.003954241008251359,0.0,-1.5384692191550282,-0.01362178067140315,0.0,0.25090603388237565,0.03982029978938742,0.0,-1.4768702512317722,-0.02699841040629253,0.0,0.19303862935942107,-0.0034814566905923255,0.0,-7.297676398643205e-05,-0.0013439605200305164,0.0,,,,,,
2024-08-03 22:11:13.952519,0.005231970285488607,0.003960976478798116,0.0,-1.5380743954392366,-0.013717752067058308,0.0,0.25404800594231425,0.04019970615190756,0.0,-1.4757042770761624,-0.027268147609795915,0.0,0.1954562090186025,-0.0034785525915194074,0.0,-7.365083295063357e-05,-0.0013590174822845995,0.0,,,,,,
2024-08-03 22:11:13.962620,0.005295746498141796,0.0039671724464495454,0.0,-1.5376795705080315,-0.013812508042641985,0.0,0.25718997457890946,0.04057568916141993,0.0,-1.4745383007720925,-0.02753573633349699,0.0,0.19787378927818366,-0.0034750480899427374,0.0,-7.432482092095682e-05,-0.0013740325279497862,0.0,,,,,,
2024-08-03 22:11:13.972420,0.00535952222773961,0.003972844578940556,0.0,-1.5372847443766788,-0.013906063875916022,0.0,0.2603319397856314,0.040948242306869484,0.0,-1.4733723223156616,-0.027801172717197446,0.0,0.2002913701193636,-0.0034709620107655267,0.0,-7.499872628979887e-05,-0.0013890033582345514,0.0,,,,,,
2024-08-03 22:11:13.982757,0.005423297478958311,0.003977998944913046,0.0,-1.5368899170142265,-0.013998388605215064,0.0,0.26347390153679573,0.041317339883265275,0.0,-1.472206341702857,-0.028064452708922164,0.0,0.20270895153575985,-0.0034663007096488287,0.0,-7.567254195883777e-05,-0.001403922263315891,0.0,,,,,,
2024-08-03 22:11:13.992348,0.005487072249662717,0.003982634623253839,0.0,-1.5364950883321737,-0.014089393781770886,0.0,0.26661585978273994,0.0416829321199956,0.0,-1.4710403589300958,-0.02832557241501363,0.0,0.20512653352948096,-0.003461061907406507,0.0,-7.634625444463694e-05,-0.0014187751247254586,0.0,,,,,,
2024-08-03 22:11:14.002842,0.0055508465659039885,0.003986778986007694,0.0,-1.5361002584069625,-0.014179155762609415,0.0,0.26975781454247727,0.042045038253088585,0.0,-1.4698743739910052,-0.02858452607272838,0.0,0.20754411606793255,-0.0034552785495140692,0.0,-7.701987290253953e-05,-0.0014335701771749072,0.0,,,,,,
2024-08-03 22:11:14.012542,0.005614620440964835,0.003990446414293872,0.0,-1.535705427247591,-0.014267683573022348,0.0,0.27289976580967945,0.04240365186823298,0.0,-1.4687083868836295,-0.028841311497073932,0.0,0.2099616991338875,-0.0034489677128086696,0.0,-7.769339502505801e-05,-0.0014483046802536551,0.0,,,,,,
2024-08-03 22:11:14.022786,0.005678393884727129,0.003993647944560753,0.0,-1.535310594843749,-0.014354966910934653,0.0,0.27604171357166507,0.04275876026781325,0.0,-1.4675423976080806,-0.02909592874939758,0.0,0.21237928271383666,-0.003442142885778947,0.0,-7.836681521933286e-05,-0.0014629723851060132,0.0,,,,,,
2024-08-03 22:11:14.032547,0.0057421668881225685,0.0039963756879145655,0.0,-1.5349157610853232,-0.014440895675016555,0.0,0.2791836577718909,0.0431103069213641,0.0,-1.4663764061616646,-0.02934837515567362,0.0,0.21479686681958832,-0.003434792278039875,0.0,-7.90401170718269e-05,-0.0014775561886936788,0.0,,,,,,
2024-08-03 22:11:14.042729,0.0058059394787512986,0.003998658127420238,0.0,-1.534520926046987,-0.014525544515978187,0.0,0.28232559843200367,0.04345831344864682,0.0,-1.4652104125406478,-0.029598646937116963,0.0,0.21721445141639695,-0.0034269506042126892,0.0,-7.971330983203018e-05,-0.0014920648555973837,0.0,,,,,,
2024-08-03 22:11:14.052517,0.005869711671039113,0.0040005107108963866,0.0,-1.5341260897479783,-0.01460893269088139,0.0,0.2854675355535754,0.04380278143469877,0.0,-1.464044416745513,-0.029846744602262016,0.0,0.21963203648548202,-0.0034186366587740306,0.0,-8.038639230001365e-05,-0.0015064965432369094,0.0,,,,,,
2024-08-03 22:11:14.062651,0.00593348347345124,0.004001942878258146,0.0,-1.5337312521821553,-0.014691054054881227,0.0,0.28860946912594443,0.04414370023236295,0.0,-1.462878418773517,-0.03009266543245727,0.0,0.22204962201661615,-0.0034098606904192715,0.0,-8.105936270563774e-05,-0.0015208488879157986,0.0,,,,,,
2024-08-03 22:11:14.072934,0.005997254887463832,0.004002957086421294,0.0,-1.533336413294833,-0.014771853910387388,0.0,0.29175139912184367,0.04448104254354232,0.0,-1.461712418628732,-0.030336413446480463,0.0,0.22446720800708242,-0.0034006253760711586,0.0,-8.17322081765326e-05,-0.0015351084325313181,0.0,,,,,,
2024-08-03 22:11:14.082544,0.006061025920885754,0.004003561989358809,0.0,-1.5329415730532332,-0.014851299492141298,0.0,0.29489332552030323,0.04481478741347708,0.0,-1.4605464163097182,-0.030577987234546737,0.0,0.22688479444741372,-0.0033909402022127937,0.0,-8.240492386502041e-05,-0.0015492696986991543,0.0,,,,,,
2024-08-03 22:11:14.092815,0.0061247965946309435,0.004003779319092193,0.0,-1.532546731520229,-0.014929453676414756,0.0,0.2980352483420736,0.04514495561340267,0.0,-1.4593804118144869,-0.030817384836860747,0.0,0.22930238131168856,-0.0033808311142896653,0.0,-8.307751761726934e-05,-0.001563339982785013,0.0,,,,,,
2024-08-03 22:11:14.102512,0.006188566919308691,0.004003620485586764,0.0,-1.5321518886989842,-0.015006319611174886,0.0,0.30117716758427093,0.045471544222104116,0.0,-1.4582144051438526,-0.031054607003184596,0.0,0.23171996858664734,-0.0033703113223719702,0.0,-8.37499877244241e-05,-0.0015773170496322605,0.0,,,,,,
2024-08-03 22:11:14.112781,0.00625233690553717,0.004003096913719788,0.0,-1.5317570445885094,-0.015081896318482804,0.0,0.3043190832439331,0.04579455029517994,0.0,-1.4570483963008032,-0.031289656754026,0.0,0.23413755625848776,-0.003359394655438518,0.0,-8.442233089134277e-05,-0.0015911969969670127,0.0,,,,,,
2024-08-03 22:11:14.123019,0.006316106553083678,0.004002209223188722,0.0,-1.5313621991320667,-0.01515612706113564,0.0,0.307460995296017,0.04611394881261704,0.0,-1.455882385291149,-0.031522539934528804,0.0,0.23655514432697267,-0.0033480813708921197,0.0,-8.509453412042234e-05,-0.0016049662617399845,0.0,,,,,,
2024-08-03 22:11:14.132668,0.0063798758685003065,0.004000964610128198,0.0,-1.5309673523015312,-0.015228983703643902,0.0,0.31060290372279287,0.04642972200169781,0.0,-1.4547163721116583,-0.03175325324410144,0.0,0.23897273278546383,-0.003336378058121996,0.0,-8.576659598880099e-05,-0.0016186229454822738,0.0,,,,,,
2024-08-03 22:11:14.142897,0.006443644873665555,0.003999385637525428,0.0,-1.5305725041614895,-0.015300530843388458,0.0,0.31374480855108544,0.04674189670751665,0.0,-1.4535503567655095,-0.031981799895901004,0.0,0.24139032160599783,-0.003324312707079956,0.0,-8.643852289758058e-05,-0.0016321728604646844,0.0,,,,,,
2024-08-03 22:11:14.152600,0.00650741357854745,0.003997482961742145,0.0,-1.530177654717226,-0.015370773758960782,0.0,0.31688670978275724,0.04705047479406567,0.0,-1.4523843392561666,-0.032208183351748486,0.0,0.24380791077598118,-0.0033118979144246014,0.0,-8.711031319919016e-05,-0.0016456138151345282,0.0,,,,,,
2024-08-03 22:11:14.162896,0.006571181991251507,0.003995265361574296,0.0,-1.5297828039659735,-0.015439709692532293,0.0,0.320028607415936,0.047355454408580744,0.0,-1.4512183195858936,-0.03243240592072593,0.0,0.24622550028561552,-0.0032991435030698827,0.0,-8.778196538461458e-05,-0.0016589437412740785,0.0,,,,,,
2024-08-03 22:11:14.172636,0.006634950118261429,0.003992739940756272,0.0,-1.529387951895569,-0.0155073264617786,0.0,0.3231705014457029,0.047656830585026,0.0,-1.4500522977582273,-0.032654471055845485,0.0,0.24864309012709374,-0.0032860572198384163,0.0,-8.845347592156827e-05,-0.001672158658150609,0.0,,,,,,
2024-08-03 22:11:14.182796,0.006698717956115985,0.003989903921865914,0.0,-1.5289930984163298,-0.015573534406052789,0.0,0.32631239183716065,0.04795456845454601,0.0,-1.4488862737836739,-0.032874389300807653,0.0,0.25106068030421547,-0.003272635300261852,0.0,-8.912482566270086e-05,-0.0016852389651772868,0.0,,,,,,
2024-08-03 22:11:14.192562,0.006762485527078255,0.003986780066417111,0.0,-1.5285982436021424,-0.015638407396562935,0.0,0.3294542786210153,0.04824869871952018,0.0,-1.4477202476607793,-0.033092159208560415,0.0,0.2534782707897971,-0.0032589049240372863,0.0,-8.979602815006871e-05,-0.0016981976228670065,0.0,,,,,,
2024-08-03 22:11:14.203055,0.00682625284145999,0.003983379278478603,0.0,-1.5282033874708556,-0.015701963293263604,0.0,0.3325961618069728,0.04853923111513918,0.0,-1.4465542193933647,-0.03330778464489465,0.0,0.25589586157126565,-0.0032448786992336255,0.0,-9.04670845658373e-05,-0.0017110352676004356,0.0,,,,,,
2024-08-03 22:11:14.212795,0.0068900199067032375,0.003979709515440258,0.0,-1.5278085300216036,-0.015764201219021716,0.0,0.3357380413965174,0.04882616707117689,0.0,-1.445388188984622,-0.03352126870403198,0.0,0.25831345264001015,-0.0032305651663743183,0.0,-9.113799444548931e-05,-0.0017237510083337871,0.0,,,,,,
2024-08-03 22:11:14.223130,0.006953786732259992,0.00397578078242334,0.0,-1.5274136712564121,-0.01582512320073728,0.0,0.3388799173951913,0.04910951215642465,0.0,-1.4442221564421533,-0.033732619034032726,0.0,0.2607310439837649,-0.003215976625450261,0.0,-9.180875494152474e-05,-0.0017363414849572074,0.0,,,,,,
2024-08-03 22:11:14.232767,0.0070175533252712086,0.003971600744418355,0.0,-1.5270188111709284,-0.015884724891234256,0.0,0.34202178980576026,0.04938926913788334,0.0,-1.4430561217727949,-0.03394184247474026,0.0,0.2631486355935406,-0.003201122067752047,0.0,-9.247936300305071e-05,-0.0017488031820385133,0.0,,,,,,
2024-08-03 22:11:14.242996,0.007081319680431797,0.003967164663129362,0.0,-1.5266239496752296,-0.015942916370993925,0.0,0.34516365859654474,0.04966540633580579,0.0,-1.4418900849893843,-0.03414895186573246,0.0,0.2655662274756656,-0.003185995162957537,0.0,-9.31497988299057e-05,-0.0017611159708706206,0.0,,,,,,
2024-08-03 22:11:14.252692,0.007145085816090635,0.003962491287694433,0.0,-1.5262290868347168,-0.015999763043471883,0.0,0.34830552379550106,0.049937951737574454,0.0,-1.440724046087218,-0.03435394255513336,0.0,0.2679838196092552,-0.003170616837474126,0.0,-9.382007930014424e-05,-0.0017732960897533416,0.0,,,,,,
2024-08-03 22:11:14.262842,0.007208851743945033,0.003957592750375215,0.0,-1.525834222674163,-0.016055289662479377,0.0,0.3514473854202249,0.050206922872591014,0.0,-1.4395580050747832,-0.034556822921238496,0.0,0.2704014119792859,-0.0031550020351323077,0.0,-9.449020493068616e-05,-0.0017853436809918861,0.0,,,,,,
2024-08-03 22:11:14.273133,0.007272617471678622,0.003952477205440488,0.0,-1.5254393571978484,-0.016109500522795764,0.0,0.3545892434792419,0.050472328301322596,0.0,-1.4383919619597183,-0.034757600657662376,0.0,0.27281900457613073,-0.0031391604208518323,0.0,-9.516017439281654e-05,-0.0017972569282460825,0.0,,,,,,
2024-08-03 22:11:14.282738,0.00733638300633821,0.003947152139624591,0.0,-1.5250444904072065,-0.016162397052651243,0.0,0.3577310979799062,0.0507341753752612,0.0,-1.437225916749231,-0.034956282971221816,0.0,0.27523659739119566,-0.0031231005929622468,0.0,-9.582998654522612e-05,-0.001809034247418852,0.0,,,,,,
2024-08-03 22:11:14.292984,0.007400148354794744,0.003941624870466364,0.0,-1.5246496223033466,-0.016213980378154698,0.0,0.36087294892971666,0.05099247163452632,0.0,-1.436059869450439,-0.03515287704625896,0.0,0.2776541904162171,-0.003106830856107898,0.0,-9.649964052815818e-05,-0.0018206742991172709,0.0,,,,,,
2024-08-03 22:11:14.302749,0.007463913519642595,0.003935898373210923,0.0,-1.5242547528664774,-0.01626423067830319,0.0,0.3640147963273721,0.051247215699117346,0.0,-1.43489382007089,-0.03534739030118395,0.0,0.280071783648677,-0.0030903536326396495,0.0,-9.716913200108479e-05,-0.0018321724396378023,0.0,,,,,,
2024-08-03 22:11:14.312946,0.007527678501131341,0.003929973339684568,0.0,-1.5238598820321776,-0.016313083552155376,0.0,0.3671566401555877,0.05149839032739806,0.0,-1.4337277686253156,-0.035539837523739376,0.0,0.28248937708772726,-0.0030736698260162903,0.0,-9.783844554966947e-05,-0.0018435129208390815,0.0,,,,,,
2024-08-03 22:11:14.323252,0.007591443317064517,0.003923867898313852,0.0,-1.523465009874245,-0.0163606127934021,0.0,0.37029848045232683,0.05174603347716497,0.0,-1.4325617151152255,-0.03573022023322664,0.0,0.28490697071198046,-0.0030568008162292935,0.0,-9.850759634399964e-05,-0.0018547103693957127,0.0,,,,,,
2024-08-03 22:11:14.333075,0.007655207975133749,0.003917590115800237,0.0,-1.5230701364086643,-0.016406834380399766,0.0,0.37344031723368776,0.0519901612508923,0.0,-1.431395659548861,-0.03591854666847466,0.0,0.2873245645120539,-0.0030397559885555975,0.0,-9.917658557156983e-05,-0.0018657655497869127,0.0,,,,,,
2024-08-03 22:11:14.343104,0.007718972481517206,0.003911146534828877,0.0,-1.5226752616395556,-0.01645175244165197,0.0,0.37658215051100985,0.05223078498578919,0.0,-1.4302296019348892,-0.036104825497215616,0.0,0.2897421584804869,-0.0030225428037151487,0.0,-9.984541275631642e-05,-0.0018766775849827187,0.0,,,,,,
2024-08-03 22:11:14.352932,0.007782736841181581,0.003904542492253723,0.0,-1.5222803855677787,-0.016495367847180375,0.0,0.37972398029318644,0.052467913620283954,0.0,-1.4290635422796507,-0.03628906313410559,0.0,0.2921597526120969,-0.0030051664961648072,0.0,-0.00010051407887878838,-0.0018874469876770813,0.0,,,,,,
2024-08-03 22:11:14.363023,0.00784650106097562,0.003897785125467245,0.0,-1.5218855081968081,-0.01653768404358437,0.0,0.3828658065924655,0.05270155931079677,0.0,-1.427897480593069,-0.03647126935535148,0.0,0.2945773468984374,-0.002987635409323017,0.0,-0.00010118258297353577,-0.0018980725289707203,0.0,,,,,,
