will-d-chen/ur3e-codebase/joint_states_20240803_224625.csv
time,shoulder_pan_joint_position,shoulder_pan_joint_velocity,shoulder_pan_joint_effort,shoulder_lift_joint_position,shoulder_lift_joint_velocity,shoulder_lift_joint_effort,elbow_joint_position,elbow_joint_velocity,elbow_joint_effort,wrist_1_joint_position,wrist_1_joint_velocity,wrist_1_joint_effort,wrist_2_joint_position,wrist_2_joint_velocity,wrist_2_joint_effort,wrist_3_joint_position,wrist_3_joint_velocity,wrist_3_joint_effort,force_x,force_y,force_z,torque_x,torque_y,torque_z
2024-08-03 22:46:26.226001,-0.9226235064532666,0.0020985074606883264,0.0,-1.4890705418918608,-0.0009909173907774397,0.0,1.7706672871460682,0.045028035983895424,0.0,-0.2816077100301069,-0.05473720354146188,0.0,0.6481736266263738,0.0029048583244381644,0.0,-4.660234781184158e-06,0.003585580386382235,0.0,,,,,,
2024-08-03 22:46:26.226337,-0.9226235064532666,0.0020985074607430486,0.0,-1.4890705418918626,-0.00099091739077257,0.0,1.7706672871460682,0.04502803598382773,0.0,-0.28160771003010776,-0.05473720354125373,0.0,0.6481736266263738,0.0029048583246272905,0.0,-4.660234782072337e-06,0.0035855803862239986,0.0,,,,,,
2024-08-03 22:46:26.226595,-0.9226235064532666,0.0020985074608086867,0.0,-1.4890705418918617,-0.0009909173907652505,0.0,1.77066728714607,0.045028035983849836,0.0,-0.281607710030106,-0.05473720354132937,0.0,0.6481736266263747,0.002904858324558661,0.0,-4.660234781184158e-06,0.003585580386523363,0.0,,,,,,
2024-08-03 22:46:26.226967,-0.9226235064532666,0.002098507460883573,0.0,-1.4890705418918608,-0.0009909173906714529,0.0,1.7706672871460682,0.045028035983700476,0.0,-0.2816077100301069,-0.05473720354144885,0.0,0.6481736266263738,0.00290485832465441,0.0,-4.660234781184158e-06,0.0035855803864991015,0.0,,,,,,
2024-08-03 22:46:26.227228,-0.9226235064532666,0.0020985074607358756,0.0,-1.4890705418918608,-0.0009909173907662753,0.0,1.7706672871460682,0.04502803598378518,0.0,-0.2816077100301069,-0.05473720354138873,0.0,0.6481736266263738,0.0029048583244319064,0.0,-4.660234781184158e-06,0.0035855803863231884,0.0,,,,,,
2024-08-03 22:46:26.227394,-0.9226235064532666,0.0020985074607521837,0.0,-1.4890705418918608,-0.0009909173908684659,0.0,1.7706672871460682,0.045028035983960685,0.0,-0.2816077100301069,-0.054737203541628705,0.0,0.6481736266263738,0.002904858324524301,0.0,-4.660234781184158e-06,0.003585580386558736,0.0,,,,,,
2024-08-03 22:46:26.227543,-0.9226235064532666,0.0020985074607800503,0.0,-1.4890705418918608,-0.0009909173907839703,0.0,1.77066728714607,0.045028035983790175,0.0,-0.281607710030106,-0.05473720354112897,0.0,0.6481736266263747,0.002904858324689105,0.0,-4.660234782072337e-06,0.003585580386284621,0.0,,,,,,
2024-08-03 22:46:26.227688,-0.9226235064532666,0.002098507460831762,0.0,-1.4890705418918617,-0.0009909173907024884,0.0,1.7706672871460682,0.045028035983914846,0.0,-0.2816077100301069,-0.054737203541484494,0.0,0.6481736266263738,0.0029048583247367823,0.0,-4.660234782072337e-06,0.003585580386471706,0.0,,,,,,
2024-08-03 22:46:26.227855,-0.9226235064532666,0.002098507460816536,0.0,-1.4890705418918608,-0.000990917390691359,0.0,1.7706672871460682,0.045028035983807294,0.0,-0.2816077100301069,-0.054737203541421024,0.0,0.6481736266263738,0.002904858324463914,0.0,-4.660234782072337e-06,0.0035855803862706735,0.0,,,,,,
2024-08-03 22:46:26.228001,-0.9226235064532666,0.002098507460811338,0.0,-1.4890705418918608,-0.000990917390822621,0.0,1.7706672871460682,0.04502803598401141,0.0,-0.2816077100301069,-0.054737203541632334,0.0,0.6481736266263738,0.0029048583243600733,0.0,-4.660234782072337e-06,0.003585580386381906,0.0,,,,,,
2024-08-03 22:46:26.230999,-0.9226235064532666,0.002098507460762934,0.0,-1.4890705418918608,-0.0009909173906578305,0.0,1.7706672871460682,0.045028035983848545,0.0,-0.28160771003010776,-0.05473720354151619,0.0,0.6481736266263738,0.0029048583244799205,0.0,-4.660234782960515e-06,0.003585580386289187,0.0,,,,,,
2024-08-03 22:46:26.241097,-0.9226235064532666,0.0020985074608346984,0.0,-1.4890705418918626,-0.0009909173906404944,0.0,1.7706672871460682,0.045028035983771864,0.0,-0.2816077100301069,-0.05473720354164005,0.0,0.6481736266263738,0.0029048583245544824,0.0,-4.660234781184158e-06,0.0035855803864297212,0.0,,,,,,
2024-08-03 22:46:26.250727,-0.9226235064532666,0.002098507460698671,0.0,-1.4890705418918608,-0.00099091739078796,0.0,1.7706672871460682,0.045028035983893516,0.0,-0.281607710030106,-0.05473720354122608,0.0,0.6481736266263738,0.002904858324524656,0.0,-4.660234782072337e-06,0.0035855803861562733,0.0,,,,,,
2024-08-03 22:46:26.260960,-0.9226235064532666,0.002098507460716751,0.0,-1.4890705418918608,-0.000990917390764237,0.0,1.7706672871460682,0.04502803598395533,0.0,-0.2816077100301069,-0.05473720354153665,0.0,0.6481736266263738,0.0029048583244341212,0.0,-4.660234781184158e-06,0.0035855803862572568,0.0,,,,,,
2024-08-03 22:46:26.271238,-0.9226235064532666,0.0020985074607542116,0.0,-1.4890705418918608,-0.0009909173906807775,0.0,1.7706672871460682,0.0450280359839127,0.0,-0.281607710030106,-0.054737203541534725,0.0,0.6481736266263738,0.002904858324699511,0.0,-4.660234782072337e-06,0.0035855803862698704,0.0,,,,,,
2024-08-03 22:46:26.280872,-0.9226235064532666,0.002098507460764181,0.0,-1.4890705418918608,-0.0009909173907552394,0.0,1.7706672871460682,0.04502803598389774,0.0,-0.28160771003010776,-0.05473720354134539,0.0,0.6481736266263747,0.0029048583248486724,0.0,-4.660234782072337e-06,0.003585580386182394,0.0,,,,,,
2024-08-03 22:46:26.291144,-0.9226235064532657,0.002098507460814858,0.0,-1.4890705418918617,-0.000990917390758667,0.0,1.7706672871460682,0.0450280359839619,0.0,-0.281607710030106,-0.05473720354115489,0.0,0.6481736266263738,0.002904858324513639,0.0,-4.660234782072337e-06,0.003585580386162813,0.0,,,,,,
2024-08-03 22:46:26.300855,-0.9226235064532666,0.0020985074606424247,0.0,-1.4890705418918626,-0.0009909173907679196,0.0,1.7706672871460682,0.04502803598392447,0.0,-0.2816077100301069,-0.054737203541376,0.0,0.6481736266263738,0.0029048583244148407,0.0,-4.660234782072337e-06,0.003585580386170751,0.0,,,,,,
2024-08-03 22:46:26.311081,-0.9226235064532666,0.002098507460723377,0.0,-1.4890705418918608,-0.0009909173907559053,0.0,1.7706672871460682,0.04502803598379977,0.0,-0.2816077100301069,-0.054737203541455545,0.0,0.6481736266263738,0.0029048583247130028,0.0,-4.660234782072337e-06,0.0035855803863259553,0.0,,,,,,
2024-08-03 22:46:26.321402,-0.9226235064532657,0.0020985074607507478,0.0,-1.4890705418918626,-0.000990917390769246,0.0,1.7706672871460682,0.045028035983985706,0.0,-0.2816077100301069,-0.0547372035414684,0.0,0.6481736266263747,0.0029048583248860098,0.0,-4.660234782072337e-06,0.003585580386173257,0.0,,,,,,
2024-08-03 22:46:26.331163,-0.9226235064532666,0.0020985074607669262,0.0,-1.48907054189186,-0.000990917390721829,0.0,1.7706672871460682,0.04502803598378412,0.0,-0.2816077100301069,-0.05473720354135672,0.0,0.6481736266263738,0.00290485832443799,0.0,-4.660234781184158e-06,0.0035855803863799945,0.0,,,,,,
2024-08-03 22:46:26.340805,-0.9226235064532657,0.0020985074607870707,0.0,-1.4890705418918608,-0.000990917390647042,0.0,1.7706672871460682,0.04502803598384738,0.0,-0.28160771003010776,-0.054737203541415834,0.0,0.6481736266263738,0.0029048583245664204,0.0,-4.660234782072337e-06,0.0035855803862978384,0.0,,,,,,
2024-08-03 22:46:26.351125,-0.9226235064532666,0.0020985074608119436,0.0,-1.4890705418918608,-0.000990917390715579,0.0,1.7706672871460682,0.0450280359836761,0.0,-0.281607710030106,-0.05473720354106237,0.0,0.6481736266263738,0.0029048583244510955,0.0,-4.660234782072337e-06,0.0035855803862157266,0.0,,,,,,
2024-08-03 22:46:26.361363,-0.9226235064532666,0.002098507460811421,0.0,-1.4890705418918626,-0.0009909173907547155,0.0,1.7706672871460682,0.04502803598377715,0.0,-0.281607710030106,-0.05473720354134247,0.0,0.6481736266263747,0.002904858324554539,0.0,-4.660234781184158e-06,0.0035855803863275968,0.0,,,,,,
2024-08-03 22:46:26.371213,-0.9226235064532666,0.0020985074606548397,0.0,-1.4890705418918617,-0.0009909173907856862,0.0,1.7706672871460682,0.04502803598404671,0.0,-0.2816077100301069,-0.05473720354121029,0.0,0.6481736266263738,0.002904858324326818,0.0,-4.660234782072337e-06,0.0035855803861733824,0.0,,,,,,
2024-08-03 22:46:26.380957,-0.9226235064532666,0.002098507460678535,0.0,-1.4890705418918617,-0.000990917390718215,0.0,1.7706672871460682,0.04502803598386548,0.0,-0.281607710030106,-0.054737203541580536,0.0,0.6481736266263738,0.0029048583246945427,0.0,-4.660234781184158e-06,0.0035855803862748442,0.0,,,,,,
2024-08-03 22:46:26.391187,-0.9226235064532666,0.0020985074607240053,0.0,-1.4890705418918608,-0.000990917390625989,0.0,1.7706672871460682,0.04502803598378918,0.0,-0.28160771003010776,-0.054737203541598514,0.0,0.6481736266263738,0.0029048583247239723,0.0,-4.660234781184158e-06,0.0035855803862500334,0.0,,,,,,
2024-08-03 22:46:26.400857,-0.9226235064532666,0.002098507460706203,0.0,-1.4890705418918608,-0.00099091739071113,0.0,1.7706672871460682,0.04502803598386398,0.0,-0.2816077100301069,-0.054737203541233403,0.0,0.6481736266263738,0.002904858324491445,0.0,-4.660234781184158e-06,0.003585580386271424,0.0,,,,,,
2024-08-03 22:46:26.411153,-0.9226235064532666,0.0020985074607280116,0.0,-1.4890705418918608,-0.0009909173907898564,0.0,1.7706672871460682,0.04502803598384045,0.0,-0.2816077100301069,-0.05473720354123897,0.0,0.6481736266263738,0.002904858324485015,0.0,-4.660234781184158e-06,0.003585580386173512,0.0,,,,,,
2024-08-03 22:46:26.420930,-0.9226235064532657,0.0020985074608305065,0.0,-1.4890705418918608,-0.0009909173906838386,0.0,1.7706672871460682,0.04502803598393975,0.0,-0.28160771003010776,-0.05473720354154293,0.0,0.6481736266263738,0.0029048583244559896,0.0,-4.660234782072337e-06,0.0035855803863173888,0.0,,,,,,
2024-08-03 22:46:26.431195,-0.9226235064532666,0.002098507460777979,0.0,-1.4890705418918608,-0.0009909173906579845,0.0,1.7706672871460682,0.04502803598379066,0.0,-0.281607710030106,-0.05473720354138119,0.0,0.6481736266263738,0.002904858324513119,0.0,-4.660234781184158e-06,0.0035855803862754726,0.0,,,,,,
2024-08-03 22:46:26.440763,-0.9226235064532666,0.002098507460757143,0.0,-1.4890705418918608,-0.0009909173908274973,0.0,1.7706672871460682,0.04502803598413735,0.0,-0.2816077100301069,-0.054737203541502036,0.0,0.6481736266263747,0.0029048583244385053,0.0,-4.660234781184158e-06,0.003585580386266545,0.0,,,,,,
2024-08-03 22:46:26.451013,-0.9226235064532666,0.0020985074606959487,0.0,-1.4890705418918608,-0.0009909173908219991,0.0,1.7706672871460682,0.04502803598383822,0.0,-0.2816077100301069,-0.05473720354104892,0.0,0.6481736266263738,0.0029048583245437323,0.0,-4.660234781184158e-06,0.0035855803860018226,0.0,,,,,,
2024-08-03 22:46:26.461331,-0.9226235064532666,0.00209850746076829,0.0,-1.4890705418918608,-0.0009909173906630171,0.0,1.7706672871460682,0.045028035983836985,0.0,-0.2816077100301069,-0.05473720354143811,0.0,0.6481736266263738,0.0029048583243920937,0.0,-4.660234782072337e-06,0.0035855803863543596,0.0,,,,,,
2024-08-03 22:46:26.470958,-0.9226235064532657,0.002098507460818109,0.0,-1.48907054189186,-0.0009909173906880147,0.0,1.77066728714607,0.04502803598372125,0.0,-0.2816077100301069,-0.054737203541560905,0.0,0.6481736266263747,0.002904858324605932,0.0,-4.660234781184158e-06,0.0035855803864410286,0.0,,,,,,
2024-08-03 22:46:26.481340,-0.9226235064532657,0.0020985074608071926,0.0,-1.4890705418918608,-0.000990917390669778,0.0,1.7706672871460682,0.04502803598373857,0.0,-0.2816077100301069,-0.05473720354136519,0.0,0.6481736266263747,0.002904858324616331,0.0,-4.660234782072337e-06,0.0035855803863020243,0.0,,,,,,
2024-08-03 22:46:26.491565,-0.9226235064532657,0.002098507460781701,0.0,-1.4890705418918608,-0.00099091739069731,0.0,1.7706672871460682,0.04502803598373225,0.0,-0.281607710030106,-0.05473720354136751,0.0,0.6481736266263738,0.002904858324689725,0.0,-4.660234781184158e-06,0.0035855803863044217,0.0,,,,,,
2024-08-03 22:46:26.501137,-0.9226235064532666,0.0020985074607592037,0.0,-1.4890705418918608,-0.0009909173908220434,0.0,1.7706672871460682,0.04502803598386218,0.0,-0.2816077100301069,-0.05473720354147311,0.0,0.6481736266263738,0.0029048583245917443,0.0,-4.66023478029598e-06,0.003585580386379798,0.0,,,,,,
2024-08-03 22:46:26.511517,-0.9226235064532666,0.0020985074608247055,0.0,-1.4890705418918608,-0.000990917390653103,0.0,1.7706672871460682,0.04502803598380285,0.0,-0.281607710030106,-0.05473720354143236,0.0,0.6481736266263729,0.0029048583244936765,0.0,-4.660234782072337e-06,0.0035855803864215854,0.0,,,,,,
2024-08-03 22:46:26.521053,-0.9226235064532666,0.002098507460791063,0.0,-1.4890705418918626,-0.0009909173907935206,0.0,1.7706672871460682,0.04502803598394092,0.0,-0.281607710030106,-0.05473720354146248,0.0,0.6481736266263747,0.0029048583245615623,0.0,-4.660234781184158e-06,0.0035855803863072645,0.0,,,,,,
2024-08-03 22:46:26.531300,-0.9226235064532657,0.0020985074608597756,0.0,-1.4890705418918608,-0.0009909173908066995,0.0,1.7706672871460682,0.04502803598393794,0.0,-0.2816077100301069,-0.054737203541392734,0.0,0.6481736266263747,0.0029048583245829883,0.0,-4.660234782072337e-06,0.0035855803863588326,0.0,,,,,,
2024-08-03 22:46:26.541052,-0.9226235064532666,0.002098507460726205,0.0,-1.4890705418918635,-0.0009909173908560379,0.0,1.77066728714607,0.04502803598392154,0.0,-0.2816077100301069,-0.054737203541221496,0.0,0.6481736266263738,0.0029048583245836392,0.0,-4.660234782072337e-06,0.0035855803862765464,0.0,,,,,,
2024-08-03 22:46:26.551212,-0.9226235064532666,0.002098507460735026,0.0,-1.4890705418918626,-0.000990917390775096,0.0,1.7706672871460682,0.04502803598378138,0.0,-0.281607710030106,-0.054737203541179044,0.0,0.6481736266263738,0.002904858324407819,0.0,-4.660234781184158e-06,0.0035855803862118677,0.0,,,,,,
2024-08-03 22:46:26.561427,-0.9226235064532666,0.0020985074607047416,0.0,-1.4890705418918617,-0.0009909173908152573,0.0,1.7706672871460682,0.04502803598391309,0.0,-0.2816077100301069,-0.05473720354132802,0.0,0.6481736266263738,0.0029048583246236064,0.0,-4.660234782072337e-06,0.0035855803863154684,0.0,,,,,,
2024-08-03 22:46:26.571306,-0.9226235064532657,0.0020985074606899926,0.0,-1.4890705418918626,-0.00099091739076639,0.0,1.7706672871460682,0.045028035983915596,0.0,-0.281607710030106,-0.054737203541314255,0.0,0.6481736266263738,0.0029048583244527643,0.0,-4.660234781184158e-06,0.003585580386174208,0.0,,,,,,
2024-08-03 22:46:26.581340,-0.9226235064532666,0.0020985074608191865,0.0,-1.4890705418918608,-0.0009909173906929103,0.0,1.7706672871460682,0.04502803598369816,0.0,-0.2816077100301069,-0.05473720354130549,0.0,0.6481736266263738,0.002904858324609006,0.0,-4.66023478029598e-06,0.0035855803864183774,0.0,,,,,,
2024-08-03 22:46:26.591119,-0.9226235064532657,0.002098507460807634,0.0,-1.4890705418918608,-0.000990917390770183,0.0,1.77066728714607,0.04502803598386143,0.0,-0.281607710030106,-0.05473720354138556,0.0,0.6481736266263747,0.0029048583248227158,0.0,-4.660234781184158e-06,0.003585580386291786,0.0,,,,,,
2024-08-03 22:46:26.601266,-0.9226235064532666,0.00209850746087271,0.0,-1.4890705418918608,-0.0009909173906447561,0.0,1.7706672871460682,0.045028035983595664,0.0,-0.2816077100301069,-0.05473720354129763,0.0,0.6481736266263747,0.002904858324737214,0.0,-4.66023478029598e-06,0.0035855803864324617,0.0,,,,,,
2024-08-03 22:46:26.611036,-0.9226235064532666,0.002098507460874077,0.0,-1.4890705418918608,-0.0009909173905963188,0.0,1.7706672871460682,0.04502803598367382,0.0,-0.281607710030106,-0.05473720354151847,0.0,0.6481736266263738,0.002904858324586145,0.0,-4.660234781184158e-06,0.003585580386537137,0.0,,,,,,
2024-08-03 22:46:26.621279,-0.9226235064532666,0.002098507460853503,0.0,-1.4890705418918626,-0.0009909173907291424,0.0,1.77066728714607,0.04502803598398914,0.0,-0.281607710030106,-0.054737203541415216,0.0,0.6481736266263738,0.0029048583245730886,0.0,-4.660234782072337e-06,0.0035855803862893582,0.0,,,,,,
2024-08-03 22:46:26.631051,-0.9226235064532666,0.002098507460896752,0.0,-1.4890705418918608,-0.00099091739067221,0.0,1.7706672871460682,0.04502803598383838,0.0,-0.2816077100301069,-0.05473720354153115,0.0,0.6481736266263747,0.0029048583247207457,0.0,-4.660234781184158e-06,0.0035855803863836413,0.0,,,,,,
2024-08-03 22:46:26.641375,-0.9226235064532666,0.0020985074608429635,0.0,-1.4890705418918608,-0.0009909173906640825,0.0,1.7706672871460682,0.04502803598366909,0.0,-0.2816077100301069,-0.054737203541151955,0.0,0.6481736266263747,0.0029048583245970573,0.0,-4.660234782960515e-06,0.003585580386148927,0.0,,,,,,
2024-08-03 22:46:26.651124,-0.9226235064532666,0.002098507460790794,0.0,-1.4890705418918608,-0.000990917390776979,0.0,1.7706672871460682,0.04502803598388183,0.0,-0.2816077100301069,-0.054737203541334656,0.0,0.6481736266263738,0.0029048583246241624,0.0,-4.660234781184158e-06,0.0035855803862812037,0.0,,,,,,
2024-08-03 22:46:26.661387,-0.9226235064532666,0.002098507460796152,0.0,-1.4890705418918608,-0.000990917390781559,0.0,1.7706672871460682,0.045028035984020776,0.0,-0.281607710030106,-0.05473720354145521,0.0,0.6481736266263738,0.002904858324579639,0.0,-4.660234782072337e-06,0.003585580386248113,0.0,,,,,,
2024-08-03 22:46:26.671320,-0.9226235064532666,0.002098507460816683,0.0,-1.4890705418918608,-0.0009909173906552937,0.0,1.7706672871460682,0.045028035983908594,0.0,-0.2816077100301069,-0.05473720354168643,0.0,0.6481736266263738,0.002904858324554855,0.0,-4.660234781184158e-06,0.003585580386381965,0.0,,,,,,
2024-08-03 22:46:26.681418,-0.9226235064532666,0.002098507460679808,0.0,-1.4890705418918626,-0.0009909173907094299,0.0,1.7706672871460682,0.0450280359839688,0.0,-0.28160771003010776,-0.05473720354130999,0.0,0.6481736266263738,0.0029048583245590296,0.0,-4.660234782072337e-06,0.0035855803861289275,0.0,,,,,,
2024-08-03 22:46:26.691210,-0.9226235064532666,0.0020985074606921783,0.0,-1.4890705418918608,-0.0009909173907333409,0.0,1.7706672871460682,0.0450280359836996,0.0,-0.2816077100301069,-0.05473720354120451,0.0,0.6481736266263738,0.0029048583246229073,0.0,-4.660234781184158e-06,0.003585580386257304,0.0,,,,,,
2024-08-03 22:46:26.701558,-0.9226235064532666,0.0020985074608120113,0.0,-1.4890705418918608,-0.0009909173907117846,0.0,1.7706672871460682,0.045028035983881415,0.0,-0.281607710030106,-0.05473720354149962,0.0,0.6481736266263747,0.0029048583246209076,0.0,-4.660234781184158e-06,0.0035855803862239735,0.0,,,,,,
2024-08-03 22:46:26.711245,-0.9226235064532666,0.002098507460845142,0.0,-1.4890705418918608,-0.0009909173906743282,0.0,1.7706672871460682,0.045028035983985214,0.0,-0.2816077100301069,-0.05473720354159805,0.0,0.6481736266263738,0.0029048583246999177,0.0,-4.660234781184158e-06,0.003585580386289806,0.0,,,,,,
2024-08-03 22:46:26.721414,-0.9226235064532666,0.002098507460772562,0.0,-1.4890705418918617,-0.0009909173907015885,0.0,1.7706672871460682,0.045028035983852986,0.0,-0.281607710030106,-0.05473720354157675,0.0,0.6481736266263747,0.002904858324443391,0.0,-4.660234781184158e-06,0.00358558038641391,0.0,,,,,,
2024-08-03 22:46:26.731250,-0.9226235064532666,0.0020985074607560803,0.0,-1.4890705418918608,-0.000990917390699632,0.0,1.7706672871460682,0.04502803598379344,0.0,-0.2816077100301069,-0.05473720354150316,0.0,0.6481736266263738,0.002904858324458604,0.0,-4.66023478029598e-06,0.0035855803863542915,0.0,,,,,,
2024-08-03 22:46:26.741366,-0.9226235064532666,0.0020985074607578506,0.0,-1.4890705418918608,-0.0009909173906938692,0.0,1.7706672871460682,0.04502803598388425,0.0,-0.2816077100301069,-0.05473720354151627,0.0,0.6481736266263738,0.0029048583245581605,0.0,-4.660234782072337e-06,0.0035855803864007878,0.0,,,,,,
2024-08-03 22:46:26.751214,-0.9226235064532666,0.0020985074607707986,0.0,-1.4890705418918608,-0.000990917390741474,0.0,1.77066728714607,0.04502803598390261,0.0,-0.28160771003010776,-0.054737203541363764,0.0,0.6481736266263738,0.0029048583246782974,0.0,-4.660234782072337e-06,0.003585580386260635,0.0,,,,,,
2024-08-03 22:46:26.761413,-0.9226235064532666,0.0020985074607681236,0.0,-1.4890705418918608,-0.000990917390700104,0.0,1.7706672871460682,0.04502803598373804,0.0,-0.281607710030106,-0.05473720354131857,0.0,0.6481736266263738,0.002904858324652604,0.0,-4.660234782072337e-06,0.0035855803863201067,0.0,,,,,,
2024-08-03 22:46:26.771271,-0.9226235064532666,0.0020985074606999516,0.0,-1.4890705418918608,-0.0009909173906972556,0.0,1.7706672871460682,0.04502803598378321,0.0,-0.2816077100301069,-0.054737203541304964,0.0,0.6481736266263738,0.0029048583244070192,0.0,-4.660234782072337e-06,0.003585580386206916,0.0,,,,,,
2024-08-03 22:46:26.781476,-0.9226235064532666,0.002098507460863266,0.0,-1.4890705418918617,-0.0009909173906120909,0.0,1.7706672871460682,0.04502803598386163,0.0,-0.281607710030106,-0.054737203541646635,0.0,0.6481736266263747,0.0029048583246416996,0.0,-4.660234781184158e-06,0.0035855803863577428,0.0,,,,,,
2024-08-03 22:46:26.791220,-0.9226235064532657,0.002098507460662289,0.0,-1.4890705418918626,-0.0009909173909220712,0.0,1.7706672871460682,0.04502803598414113,0.0,-0.2816077100301069,-0.054737203541615716,0.0,0.6481736266263738,0.002904858324460845,0.0,-4.660234781184158e-06,0.003585580386523787,0.0,,,,,,
2024-08-03 22:46:26.801501,-0.9226235064532666,0.0020985074606674607,0.0,-1.4890705418918617,-0.000990917390830777,0.0,1.7706672871460682,0.0450280359840892,0.0,-0.2816077100301069,-0.05473720354143687,0.0,0.6481736266263738,0.0029048583244595497,0.0,-4.660234782072337e-06,0.0035855803861968593,0.0,,,,,,
2024-08-03 22:46:26.811757,-0.9226235064532666,0.002098507460632821,0.0,-1.4890705418918617,-0.000990917390840705,0.0,1.7706672871460682,0.04502803598377698,0.0,-0.281607710030106,-0.054737203541171,0.0,0.6481736266263738,0.0029048583243850533,0.0,-4.660234782072337e-06,0.003585580386143422,0.0,,,,,,
2024-08-03 22:46:26.821352,-0.9226235064532666,0.0020985074607011273,0.0,-1.4890705418918617,-0.000990917390710629,0.0,1.7706672871460682,0.04502803598391205,0.0,-0.2816077100301069,-0.05473720354146426,0.0,0.6481736266263747,0.0029048583248078783,0.0,-4.660234782072337e-06,0.0035855803863122132,0.0,,,,,,
2024-08-03 22:46:26.831288,-0.9226235064532657,0.002098507460851658,0.0,-1.4890705418918617,-0.000990917390621695,0.0,1.7706672871460682,0.045028035983632725,0.0,-0.2816077100301069,-0.05473720354133498,0.0,0.6481736266263747,0.0029048583249701855,0.0,-4.660234781184158e-06,0.0035855803863877934,0.0,,,,,,
2024-08-03 22:46:26.841467,-0.9226235064532666,0.0020985074607559836,0.0,-1.4890705418918608,-0.0009909173907615967,0.0,1.7706672871460682,0.04502803598389353,0.0,-0.2816077100301069,-0.05473720354136047,0.0,0.6481736266263738,0.0029048583246730777,0.0,-4.660234781184158e-06,0.0035855803862939076,0.0,,,,,,
2024-08-03 22:46:26.851754,-0.9226235064532666,0.002098507460789532,0.0,-1.4890705418918608,-0.0009909173907330226,0.0,1.7706672871460682,0.04502803598394588,0.0,-0.28160771003010776,-0.05473720354115898,0.0,0.6481736266263738,0.0029048583244676,0.0,-4.660234782072337e-06,0.0035855803860955168,0.0,,,,,,
2024-08-03 22:46:26.861496,-0.9226235064532666,0.002098507460696741,0.0,-1.4890705418918608,-0.0009909173907392587,0.0,1.7706672871460682,0.04502803598375666,0.0,-0.2816077100301069,-0.05473720354137028,0.0,0.6481736266263738,0.0029048583246924792,0.0,-4.660234781184158e-06,0.003585580386376415,0.0,,,,,,
2024-08-03 22:46:26.871732,-0.9226235064532666,0.0020985074607672467,0.0,-1.4890705418918617,-0.000990917390689287,0.0,1.7706672871460682,0.04502803598388953,0.0,-0.281607710030106,-0.0547372035415392,0.0,0.6481736266263738,0.0029048583248090544,0.0,-4.660234781184158e-06,0.0035855803861090598,0.0,,,,,,
2024-08-03 22:46:26.881437,-0.9226235064532666,0.002098507460803622,0.0,-1.4890705418918608,-0.0009909173907028002,0.0,1.7706672871460682,0.045028035983885994,0.0,-0.2816077100301069,-0.05473720354152562,0.0,0.6481736266263747,0.002904858324591411,0.0,-4.660234782072337e-06,0.0035855803862617705,0.0,,,,,,
2024-08-03 22:46:26.891780,-0.9226235064532666,0.002098507460706983,0.0,-1.4890705418918608,-0.000990917390695994,0.0,1.7706672871460682,0.04502803598377492,0.0,-0.2816077100301069,-0.05473720354137744,0.0,0.6481736266263738,0.0029048583246276097,0.0,-4.660234781184158e-06,0.003585580386134158,0.0,,,,,,
2024-08-03 22:46:26.901378,-0.9226235064532666,0.002098507460789274,0.0,-1.4890705418918608,-0.000990917390668449,0.0,1.7706672871460682,0.045028035983714104,0.0,-0.2816077100301069,-0.05473720354154134,0.0,0.6481736266263738,0.002904858324484678,0.0,-4.660234781184158e-06,0.0035855803865376943,0.0,,,,,,
2024-08-03 22:46:26.911741,-0.9226235064532657,0.002098507460807066,0.0,-1.4890705418918608,-0.0009909173907283653,0.0,1.7706672871460682,0.045028035983887535,0.0,-0.2816077100301069,-0.05473720354171904,0.0,0.6481736266263747,0.0029048583247758483,0.0,-4.660234781184158e-06,0.0035855803865561626,0.0,,,,,,
2024-08-03 22:46:26.921359,-0.9226235064532666,0.002098507460685952,0.0,-1.4890705418918608,-0.0009909173907918783,0.0,1.7706672871460682,0.04502803598385744,0.0,-0.2816077100301069,-0.05473720354131012,0.0,0.6481736266263738,0.0029048583247440643,0.0,-4.66023478029598e-06,0.0035855803861486466,0.0,,,,,,
2024-08-03 22:46:26.931780,-0.9226235064532666,0.0020985074608467443,0.0,-1.4890705418918608,-0.0009909173907253121,0.0,1.7706672871460682,0.04502803598375257,0.0,-0.2816077100301069,-0.05473720354155488,0.0,0.6481736266263747,0.0029048583248922175,0.0,-4.66023478029598e-06,0.0035855803862982383,0.0,,,,,,
2024-08-03 22:46:26.941511,-0.9226235064532666,0.0020985074607836394,0.0,-1.4890705418918608,-0.0009909173907282761,0.0,1.7706672871460682,0.04502803598393462,0.0,-0.281607710030106,-0.05473720354157724,0.0,0.6481736266263738,0.002904858324417712,0.0,-4.66023478029598e-06,0.0035855803864977202,0.0,,,,,,
2024-08-03 22:46:26.951812,-0.9226235064532666,0.002098507460732201,0.0,-1.4890705418918608,-0.0009909173908332317,0.0,1.7706672871460682,0.0450280359839249,0.0,-0.281607710030106,-0.054737203541165284,0.0,0.6481736266263747,0.0029048583247058726,0.0,-4.660234781184158e-06,0.0035855803860320853,0.0,,,,,,
2024-08-03 22:46:26.961484,-0.9226235064532666,0.0020985074606777554,0.0,-1.4890705418918626,-0.0009909173908447554,0.0,1.7706672871460682,0.045028035984112945,0.0,-0.2816077100301069,-0.054737203541292974,0.0,0.6481736266263738,0.0029048583244963544,0.0,-4.660234782960515e-06,0.0035855803861325817,0.0,,,,,,
2024-08-03 22:46:26.971758,-0.9226235064532666,0.0020985074607924943,0.0,-1.4890705418918608,-0.0009909173907513165,0.0,1.7706672871460682,0.04502803598409417,0.0,-0.2816077100301069,-0.054737203541695624,0.0,0.6481736266263747,0.0029048583248847968,0.0,-4.660234782072337e-06,0.003585580386566539,0.0,,,,,,
2024-08-03 22:46:26.981286,-0.9226235064532666,0.0020985074607686865,0.0,-1.4890705418918617,-0.0009909173907325334,0.0,1.7706672871460682,0.04502803598388782,0.0,-0.281607710030106,-0.05473720354148581,0.0,0.6481736266263747,0.0029048583245661398,0.0,-4.660234782072337e-06,0.003585580386328908,0.0,,,,,,
2024-08-03 22:46:26.991764,-0.9226235064532666,0.002098507460725498,0.0,-1.4890705418918608,-0.0009909173907132673,0.0,1.7706672871460682,0.04502803598384627,0.0,-0.28160771003010776,-0.054737203541253374,0.0,0.6481736266263747,0.002904858324529869,0.0,-4.660234782960515e-06,0.0035855803861742927,0.0,,,,,,
2024-08-03 22:46:27.001441,-0.9226235064532666,0.0020985074607467228,0.0,-1.4890705418918608,-0.0009909173908299001,0.0,1.7706672871460718,0.045028035984045305,0.0,-0.281607710030106,-0.05473720354137989,0.0,0.6481736266263738,0.002904858324687671,0.0,-4.660234782072337e-06,0.0035855803862270817,0.0,,,,,,
2024-08-03 22:46:27.011690,-0.9226235064532657,0.0020985074607999497,0.0,-1.4890705418918608,-0.000990917390637493,0.0,1.7706672871460682,0.04502803598379813,0.0,-0.281607710030106,-0.05473720354148549,0.0,0.6481736266263738,0.002904858324648432,0.0,-4.660234781184158e-06,0.0035855803861919123,0.0,,,,,,
2024-08-03 22:46:27.021447,-0.9226235064532666,0.002098507460780697,0.0,-1.4890705418918608,-0.0009909173906973551,0.0,1.7706672871460682,0.04502803598356459,0.0,-0.2816077100301069,-0.05473720354127721,0.0,0.6481736266263738,0.0029048583245447385,0.0,-4.660234781184158e-06,0.003585580386431689,0.0,,,,,,
2024-08-03 22:46:27.031739,-0.9226235064532666,0.002098507460694531,0.0,-1.4890705418918626,-0.0009909173907978184,0.0,1.7706672871460682,0.04502803598389319,0.0,-0.281607710030106,-0.05473720354130528,0.0,0.6481736266263738,0.0029048583245177536,0.0,-4.660234782072337e-06,0.0035855803861006403,0.0,,,,,,
2024-08-03 22:46:27.041545,-0.9226235064532666,0.002098507460807388,0.0,-1.4890705418918608,-0.000990917390652724,0.0,1.7706672871460682,0.04502803598367923,0.0,-0.2816077100301069,-0.05473720354132636,0.0,0.6481736266263747,0.0029048583247704538,0.0,-4.660234782072337e-06,0.0035855803862835456,0.0,,,,,,
2024-08-03 22:46:27.051770,-0.9226235064532666,0.0020985074606132124,0.0,-1.4890705418918626,-0.0009909173909049217,0.0,1.7706672871460682,0.0450280359838711,0.0,-0.2816077100301069,-0.05473720354113567,0.0,0.6481736266263747,0.002904858324382919,0.0,-4.660234781184158e-06,0.003585580386319475,0.0,,,,,,
2024-08-03 22:46:27.061409,-0.9226235064532666,0.0020985074607961837,0.0,-1.4890705418918608,-0.0009909173907648098,0.0,1.77066728714607,0.045028035983896805,0.0,-0.28160771003010954,-0.054737203541514436,0.0,0.6481736266263738,0.0029048583244439996,0.0,-4.660234779407801e-06,0.0035855803863084714,0.0,,,,,,
2024-08-03 22:46:27.071635,-0.9226235064532666,0.0020985074608245594,0.0,-1.4890705418918608,-0.0009909173907493838,0.0,1.7706672871460682,0.04502803598404369,0.0,-0.2816077100301069,-0.05473720354176456,0.0,0.6481736266263738,0.0029048583245634553,0.0,-4.660234781184158e-06,0.003585580386383137,0.0,,,,,,
2024-08-03 22:46:27.081365,-0.9226235064532666,0.00209850746078874,0.0,-1.4890705418918608,-0.0009909173906950252,0.0,1.7706672871460682,0.04502803598382537,0.0,-0.281607710030106,-0.05473720354155755,0.0,0.6481736266263738,0.0029048583245831093,0.0,-4.660234781184158e-06,0.003585580386413334,0.0,,,,,,
2024-08-03 22:46:27.091591,-0.9226235064532666,0.002098507460779782,0.0,-1.4890705418918608,-0.0009909173906951392,0.0,1.7706672871460682,0.045028035983898276,0.0,-0.2816077100301069,-0.05473720354146103,0.0,0.6481736266263738,0.0029048583246454205,0.0,-4.660234781184158e-06,0.003585580386288283,0.0,,,,,,
2024-08-03 22:46:27.101851,-0.9226235064532657,0.0020985074608183387,0.0,-1.4890705418918608,-0.0009909173905912044,0.0,1.7706672871460682,0.04502803598380109,0.0,-0.281607710030106,-0.054737203541486215,0.0,0.6481736266263738,0.002904858324624479,0.0,-4.660234781184158e-06,0.003585580386322593,0.0,,,,,,
2024-08-03 22:46:27.111570,-0.9226235064532666,0.0020985074608455274,0.0,-1.4890705418918608,-0.0009909173906546105,0.0,1.7706672871460682,0.045028035983661646,0.0,-0.2816077100301069,-0.054737203541326815,0.0,0.6481736266263738,0.002904858324629851,0.0,-4.660234782072337e-06,0.003585580386478495,0.0,,,,,,
2024-08-03 22:46:27.121755,-0.9226235064532666,0.0020985074608258917,0.0,-1.4890705418918608,-0.0009909173907186551,0.0,1.77066728714607,0.045028035983905944,0.0,-0.2816077100301069,-0.05473720354141837,0.0,0.6481736266263738,0.0029048583247379615,0.0,-4.660234782960515e-06,0.0035855803863047006,0.0,,,,,,
2024-08-03 22:46:27.131408,-0.9226235064532666,0.00209850746072585,0.0,-1.4890705418918608,-0.0009909173906178573,0.0,1.7706672871460682,0.04502803598377605,0.0,-0.2816077100301069,-0.0547372035413399,0.0,0.6481736266263738,0.0029048583244931357,0.0,-4.660234782072337e-06,0.0035855803861732137,0.0,,,,,,
2024-08-03 22:46:27.141702,-0.9226235064532666,0.0020985074609148747,0.0,-1.4890705418918608,-0.000990917390674574,0.0,1.7706672871460682,0.04502803598373593,0.0,-0.281607710030106,-0.05473720354133057,0.0,0.6481736266263747,0.0029048583244978454,0.0,-4.660234782072337e-06,0.0035855803864292546,0.0,,,,,,
2024-08-03 22:46:27.151459,-0.9226235064532657,0.002098507460718181,0.0,-1.4890705418918608,-0.0009909173907244498,0.0,1.7706672871460682,0.04502803598399496,0.0,-0.2816077100301069,-0.05473720354140787,0.0,0.6481736266263747,0.0029048583247913602,0.0,-4.660234782960515e-06,0.0035855803862600466,0.0,,,,,,
2024-08-03 22:46:27.161790,-0.9226235064532657,0.0020985074609797417,0.0,-1.4890705418918608,-0.0009909173904952835,0.0,1.7706672871460682,0.045028035983592965,0.0,-0.2816077100301069,-0.05473720354140948,0.0,0.6481736266263738,0.002904858324841409,0.0,-4.660234782960515e-06,0.00358558038635026,0.0,,,,,,
2024-08-03 22:46:27.171901,-0.9226235064532666,0.002098507460785415,0.0,-1.4890705418918608,-0.0009909173906970008,0.0,1.7706672871460682,0.045028035983724075,0.0,-0.2816077100301069,-0.05473720354116998,0.0,0.6481736266263738,0.002904858324639982,0.0,-4.660234782072337e-06,0.0035855803861674705,0.0,,,,,,
2024-08-03 22:46:27.181629,-0.9226235064532666,0.002098507460754486,0.0,-1.4890705418918608,-0.0009909173907689563,0.0,1.7706672871460682,0.04502803598389737,0.0,-0.28160771003010776,-0.05473720354136187,0.0,0.6481736266263747,0.0029048583245033844,0.0,-4.66023478029598e-06,0.003585580386193351,0.0,,,,,,
2024-08-03 22:46:27.191772,-0.9226235064532666,0.0020985074606771365,0.0,-1.4890705418918608,-0.0009909173908295896,0.0,1.7706672871460718,0.04502803598393252,0.0,-0.28160771003010776,-0.054737203541082906,0.0,0.6481736266263738,0.002904858324538548,0.0,-4.660234782960515e-06,0.0035855803860648304,0.0,,,,,,
2024-08-03 22:46:27.201439,-0.9226235064532666,0.0020985074607734466,0.0,-1.4890705418918626,-0.0009909173907811587,0.0,1.7706672871460682,0.04502803598392703,0.0,-0.2816077100301069,-0.054737203541371446,0.0,0.6481736266263738,0.0029048583245851927,0.0,-4.660234782072337e-06,0.0035855803862368373,0.0,,,,,,
2024-08-03 22:46:27.211761,-0.9226235064532666,0.002098507460776421,0.0,-1.4890705418918608,-0.000990917390731646,0.0,1.77066728714607,0.04502803598390981,0.0,-0.281607710030106,-0.05473720354152393,0.0,0.6481736266263747,0.00290485832484841,0.0,-4.660234781184158e-06,0.003585580386544202,0.0,,,,,,
2024-08-03 22:46:27.221822,-0.9226235064532666,0.0020985074607698328,0.0,-1.48907054189186,-0.0009909173906023257,0.0,1.7706672871460682,0.04502803598363869,0.0,-0.2816077100301069,-0.054737203541301085,0.0,0.6481736266263738,0.0029048583246380558,0.0,-4.660234781184158e-06,0.0035855803863166958,0.0,,,,,,
2024-08-03 22:46:27.231581,-0.9226235064532666,0.0020985074607980632,0.0,-1.4890705418918626,-0.0009909173907145857,0.0,1.7706672871460682,0.04502803598389737,0.0,-0.2816077100301069,-0.054737203541626596,0.0,0.6481736266263738,0.0029048583246498536,0.0,-4.660234781184158e-06,0.00358558038635498,0.0,,,,,,
2024-08-03 22:46:27.241742,-0.9226235064532666,0.0020985074607761697,0.0,-1.4890705418918626,-0.0009909173907288503,0.0,1.7706672871460682,0.04502803598384694,0.0,-0.281607710030106,-0.05473720354148204,0.0,0.6481736266263738,0.0029048583246187357,0.0,-4.660234781184158e-06,0.0035855803864552646,0.0,,,,,,
2024-08-03 22:46:27.252006,-0.9226235064532666,0.0020985074607447153,0.0,-1.4890705418918608,-0.000990917390713515,0.0,1.7706672871460682,0.045028035983887306,0.0,-0.2816077100301069,-0.05473720354150656,0.0,0.6481736266263738,0.002904858324403338,0.0,-4.660234782072337e-06,0.0035855803863950745,0.0,,,,,,
2024-08-03 22:46:27.261878,-0.9226235064532666,0.0020985074608371864,0.0,-1.48907054189186,-0.0009909173906786492,0.0,1.7706672871460682,0.04502803598392992,0.0,-0.28160771003010776,-0.05473720354149261,0.0,0.6481736266263738,0.0029048583246331,0.0,-4.660234781184158e-06,0.0035855803862989925,0.0,,,,,,
2024-08-03 22:46:27.271977,-0.9226235064532666,0.002098507460734472,0.0,-1.4890705418918608,-0.0009909173907555592,0.0,1.7706672871460682,0.04502803598399906,0.0,-0.2816077100301069,-0.05473720354139041,0.0,0.6481736266263747,0.002904858324235663,0.0,-4.660234781184158e-06,0.0035855803861989436,0.0,,,,,,
2024-08-03 22:46:27.281827,-0.9226235064532666,0.0020985074607566467,0.0,-1.4890705418918608,-0.0009909173908073151,0.0,1.7706672871460682,0.045028035983922195,0.0,-0.2816077100301069,-0.05473720354131652,0.0,0.6481736266263747,0.0029048583245606056,0.0,-4.660234782072337e-06,0.0035855803862365836,0.0,,,,,,
2024-08-03 22:46:27.292051,-0.9226235064532666,0.0020985074607340307,0.0,-1.4890705418918608,-0.0009909173907959774,0.0,1.77066728714607,0.04502803598389887,0.0,-0.281607710030106,-0.05473720354129743,0.0,0.6481736266263738,0.0029048583246056225,0.0,-4.660234782072337e-06,0.003585580386277166,0.0,,,,,,
2024-08-03 22:46:27.301712,-0.9226235064532666,0.0020985074607471114,0.0,-1.4890705418918608,-0.000990917390633427,0.0,1.7706672871460682,0.045028035983832024,0.0,-0.281607710030106,-0.0547372035412457,0.0,0.6481736266263747,0.0029048583248405023,0.0,-4.660234782960515e-06,0.0035855803861276885,0.0,,,,,,
2024-08-03 22:46:27.312147,-0.9226235064532666,0.0020985074607023425,0.0,-1.4890705418918608,-0.0009909173907388194,0.0,1.7706672871460682,0.04502803598376789,0.0,-0.281607710030106,-0.054737203541349595,0.0,0.6481736266263738,0.002904858324651159,0.0,-4.660234781184158e-06,0.0035855803862176257,0.0,,,,,,
2024-08-03 22:46:27.321777,-0.9226235064532666,0.0020985074606261066,0.0,-1.4890705418918608,-0.0009909173908066666,0.0,1.7706672871460682,0.04502803598411019,0.0,-0.2816077100301069,-0.05473720354137059,0.0,0.6481736266263738,0.0029048583246448914,0.0,-4.660234782072337e-06,0.0035855803861715597,0.0,,,,,,
2024-08-03 22:46:27.332035,-0.9226235064532666,0.0020985074607240387,0.0,-1.4890705418918608,-0.0009909173908323476,0.0,1.7706672871460682,0.04502803598404489,0.0,-0.281607710030106,-0.05473720354147805,0.0,0.6481736266263738,0.0029048583244151603,0.0,-4.66023478029598e-06,0.003585580386203853,0.0,,,,,,
2024-08-03 22:46:27.341799,-0.9226235064532666,0.002098507460762898,0.0,-1.4890705418918608,-0.0009909173907039816,0.0,1.7706672871460682,0.04502803598377055,0.0,-0.281607710030106,-0.05473720354144021,0.0,0.6481736266263747,0.002904858324596489,0.0,-4.660234782072337e-06,0.0035855803863430106,0.0,,,,,,
2024-08-03 22:46:27.351965,-0.9226235064532666,0.002098507460757623,0.0,-1.4890705418918608,-0.0009909173907116189,0.0,1.7706672871460682,0.04502803598374605,0.0,-0.2816077100301069,-0.05473720354122496,0.0,0.6481736266263747,0.0029048583247198757,0.0,-4.660234781184158e-06,0.0035855803861247885,0.0,,,,,,
2024-08-03 22:46:27.361865,-0.9226235064532666,0.002098507460751992,0.0,-1.4890705418918608,-0.000990917390702821,0.0,1.7706672871460682,0.0450280359838476,0.0,-0.2816077100301069,-0.05473720354136691,0.0,0.6481736266263738,0.002904858324590865,0.0,-4.660234781184158e-06,0.0035855803861536946,0.0,,,,,,
2024-08-03 22:46:27.372027,-0.9226235064532666,0.0020985074607246385,0.0,-1.4890705418918608,-0.000990917390775029,0.0,1.7706672871460682,0.04502803598387321,0.0,-0.2816077100301069,-0.054737203541408944,0.0,0.6481736266263738,0.0029048583247310348,0.0,-4.660234782072337e-06,0.0035855803862819835,0.0,,,,,,
2024-08-03 22:46:27.382384,-0.9226235064532666,0.002098507460721131,0.0,-1.4890705418918608,-0.0009909173908601483,0.0,1.7706672871460682,0.04502803598406999,0.0,-0.2816077100301069,-0.054737203541494694,0.0,0.6481736266263747,0.002904858324710228,0.0,-4.660234781184158e-06,0.00358558038641648,0.0,,,,,,
2024-08-03 22:46:27.392100,-0.9226235064532666,0.00209850746070964,0.0,-1.4890705418918608,-0.000990917390815899,0.0,1.7706672871460682,0.04502803598400395,0.0,-0.28160771003010776,-0.054737203541230434,0.0,0.6481736266263747,0.00290485832479567,0.0,-4.660234782072337e-06,0.0035855803863105505,0.0,,,,,,
2024-08-03 22:46:27.402350,-0.9226235064532666,0.00209850746063216,0.0,-1.4890705418918617,-0.0009909173907397424,0.0,1.7706672871460682,0.04502803598403033,0.0,-0.2816077100301069,-0.054737203541511494,0.0,0.6481736266263747,0.002904858324715683,0.0,-4.660234781184158e-06,0.0035855803863170787,0.0,,,,,,
2024-08-03 22:46:27.412138,-0.9226235064532666,0.0020985074606127427,0.0,-1.4890705418918608,-0.0009909173908982448,0.0,1.7706672871460682,0.04502803598405777,0.0,-0.2816077100301069,-0.054737203541428706,0.0,0.6481736266263747,0.0029048583246638797,0.0,-4.660234781184158e-06,0.0035855803862705734,0.0,,,,,,
2024-08-03 22:46:27.422416,-0.9226235064532666,0.002098507460738919,0.0,-1.4890705418918608,-0.000990917390864288,0.0,1.7706672871460682,0.04502803598396135,0.0,-0.2816077100301069,-0.05473720354152196,0.0,0.6481736266263738,0.0029048583244728633,0.0,-4.660234781184158e-06,0.003585580386291125,0.0,,,,,,
2024-08-03 22:46:27.432100,-0.9226235064532666,0.0020985074606259865,0.0,-1.4890705418918608,-0.0009909173909106602,0.0,1.7706672871460682,0.04502803598411575,0.0,-0.281607710030106,-0.054737203541501966,0.0,0.6481736266263747,0.00290485832479441,0.0,-4.660234781184158e-06,0.0035855803862916043,0.0,,,,,,
2024-08-03 22:46:27.442369,-0.9226235064532666,0.0020985074607313835,0.0,-1.4890705418918608,-0.0009909173908000635,0.0,1.7706672871460682,0.04502803598374023,0.0,-0.2816077100301069,-0.05473720354124799,0.0,0.6481736266263738,0.0029048583247408997,0.0,-4.660234781184158e-06,0.00358558038626693,0.0,,,,,,
2024-08-03 22:46:27.452126,-0.9226235064532666,0.0020985074607590792,0.0,-1.4890705418918608,-0.000990917390643681,0.0,1.7706672871460682,0.04502803598379643,0.0,-0.2816077100301069,-0.05473720354166389,0.0,0.6481736266263738,0.00290485832468322,0.0,-4.66023478029598e-06,0.0035855803863715304,0.0,,,,,,
2024-08-03 22:46:27.462250,-0.9226235064532666,0.002098507460841627,0.0,-1.4890705418918608,-0.0009909173906926826,0.0,1.7706672871460682,0.045028035983764966,0.0,-0.2816077100301069,-0.05473720354154555,0.0,0.6481736266263747,0.0029048583248106894,0.0,-4.66023478029598e-06,0.003585580386507571,0.0,,,,,,
2024-08-03 22:46:27.471971,-0.9226235064532666,0.0020985074608047597,0.0,-1.4890705418918626,-0.0009909173906420504,0.0,1.7706672871460682,0.045028035983643105,0.0,-0.2816077100301069,-0.05473720354133433,0.0,0.6481736266263747,0.0029048583246206313,0.0,-4.660234782072337e-06,0.0035855803862738502,0.0,,,,,,
2024-08-03 22:46:27.482295,-0.9226235064532666,0.0020985074608232124,0.0,-1.4890705418918608,-0.0009909173907348405,0.0,1.7706672871460682,0.045028035983935503,0.0,-0.2816077100301069,-0.054737203541506796,0.0,0.6481736266263738,0.002904858324788067,0.0,-4.660234781184158e-06,0.0035855803862503794,0.0,,,,,,
2024-08-03 22:46:27.491869,-0.9226235064532666,0.0020985074608162596,0.0,-1.4890705418918608,-0.0009909173907528682,0.0,1.7706672871460682,0.045028035983999175,0.0,-0.281607710030106,-0.054737203541329854,0.0,0.6481736266263747,0.0029048583245393205,0.0,-4.660234782072337e-06,0.0035855803862098845,0.0,,,,,,
2024-08-03 22:46:27.502289,-0.9226235064532666,0.002098507460723785,0.0,-1.4890705418918626,-0.0009909173907140768,0.0,1.7706672871460682,0.04502803598368063,0.0,-0.2816077100301069,-0.05473720354142849,0.0,0.6481736266263747,0.0029048583245106325,0.0,-4.66023478029598e-06,0.0035855803863841136,0.0,,,,,,
2024-08-03 22:46:27.511889,-0.9226235064532666,0.002098507460791639,0.0,-1.4890705418918617,-0.0009909173907499571,0.0,1.7706672871460682,0.04502803598394223,0.0,-0.2816077100301069,-0.054737203541545765,0.0,0.6481736266263738,0.0029048583247702864,0.0,-4.66023478029598e-06,0.003585580386381315,0.0,,,,,,
2024-08-03 22:46:27.522105,-0.9226235064532666,0.002098507460729928,0.0,-1.4890705418918617,-0.0009909173908600457,0.0,1.7706672871460682,0.0450280359840314,0.0,-0.28160771003010776,-0.05473720354144062,0.0,0.6481736266263738,0.0029048583247626193,0.0,-4.660234781184158e-06,0.0035855803863280096,0.0,,,,,,
2024-08-03 22:46:27.532399,-0.9226235064532666,0.0020985074607530046,0.0,-1.4890705418918617,-0.0009909173907958065,0.0,1.7706672871460682,0.04502803598385547,0.0,-0.2816077100301069,-0.05473720354145954,0.0,0.6481736266263738,0.0029048583247259278,0.0,-4.660234782072337e-06,0.0035855803864843303,0.0,,,,,,
2024-08-03 22:46:27.542142,-0.9226235064532666,0.0020985074607783472,0.0,-1.4890705418918617,-0.0009909173908399774,0.0,1.7706672871460682,0.04502803598385827,0.0,-0.28160771003010865,-0.054737203541415334,0.0,0.6481736266263738,0.002904858324565313,0.0,-4.660234781184158e-06,0.0035855803864119225,0.0,,,,,,
2024-08-03 22:46:27.552534,-0.9226235064532666,0.002098507460608249,0.0,-1.4890705418918617,-0.0009909173908891021,0.0,1.7706672871460682,0.04502803598401839,0.0,-0.281607710030106,-0.054737203541331186,0.0,0.6481736266263738,0.002904858324372345,0.0,-4.660234781184158e-06,0.0035855803862691387,0.0,,,,,,
2024-08-03 22:46:27.562140,-0.9226235064532666,0.0020985074606814542,0.0,-1.4890705418918617,-0.0009909173907046668,0.0,1.7706672871460682,0.04502803598378486,0.0,-0.2816077100301069,-0.05473720354159507,0.0,0.6481736266263738,0.0029048583244025063,0.0,-4.66023478029598e-06,0.0035855803863530694,0.0,,,,,,
2024-08-03 22:46:27.572592,-0.9226235064532666,0.002098507460695696,0.0,-1.4890705418918617,-0.0009909173908654312,0.0,1.77066728714607,0.04502803598391579,0.0,-0.281607710030106,-0.054737203541298685,0.0,0.6481736266263738,0.002904858324521982,0.0,-4.660234781184158e-06,0.003585580386089658,0.0,,,,,,
2024-08-03 22:46:27.582414,-0.9226235064532666,0.0020985074606970893,0.0,-1.4890705418918626,-0.000990917390796804,0.0,1.7706672871460682,0.045028035983777116,0.0,-0.28160771003010865,-0.054737203541145425,0.0,0.6481736266263738,0.002904858324546001,0.0,-4.660234781184158e-06,0.003585580385986459,0.0,,,,,,
2024-08-03 22:46:27.592070,-0.9226235064532666,0.0020985074608482297,0.0,-1.4890705418918608,-0.000990917390716457,0.0,1.7706672871460682,0.045028035983814524,0.0,-0.2816077100301069,-0.054737203541475085,0.0,0.6481736266263738,0.002904858324689577,0.0,-4.660234781184158e-06,0.003585580386467616,0.0,,,,,,
2024-08-03 22:46:27.602442,-0.9226235064532666,0.0020985074606308437,0.0,-1.4890705418918617,-0.0009909173907919047,0.0,1.7706672871460682,0.04502803598376172,0.0,-0.28160771003010776,-0.054737203541218304,0.0,0.6481736266263738,0.0029048583244616812,0.0,-4.660234781184158e-06,0.003585580386095296,0.0,,,,,,
2024-08-03 22:46:27.612117,-0.9226235064532666,0.0020985074607643727,0.0,-1.4890705418918617,-0.0009909173907871036,0.0,1.7706672871460682,0.045028035983872665,0.0,-0.2816077100301069,-0.05473720354130297,0.0,0.6481736266263738,0.0029048583247724647,0.0,-4.660234782072337e-06,0.0035855803861746206,0.0,,,,,,
2024-08-03 22:46:27.622385,-0.9226235064532666,0.0020985074607175777,0.0,-1.4890705418918608,-0.000990917390724365,0.0,1.7706672871460682,0.045028035983745926,0.0,-0.2816077100301069,-0.05473720354147157,0.0,0.6481736266263738,0.002904858324485009,0.0,-4.660234781184158e-06,0.0035855803864347675,0.0,,,,,,
2024-08-03 22:46:27.632727,-0.9226235064532666,0.002098507460605875,0.0,-1.4890705418918626,-0.0009909173908527018,0.0,1.7706672871460682,0.04502803598392049,0.0,-0.2816077100301069,-0.05473720354139447,0.0,0.6481736266263738,0.002904858324474152,0.0,-4.660234781184158e-06,0.0035855803862648956,0.0,,,,,,
2024-08-03 22:46:27.642433,-0.9226235064532666,0.0020985074607252647,0.0,-1.4890705418918608,-0.0009909173908602992,0.0,1.7706672871460682,0.0450280359841614,0.0,-0.281607710030106,-0.05473720354154685,0.0,0.6481736266263738,0.0029048583246578043,0.0,-4.660234781184158e-06,0.00358558038622905,0.0,,,,,,
2024-08-03 22:46:27.652706,-0.9226235064532666,0.002098507460751237,0.0,-1.4890705418918608,-0.0009909173907499931,0.0,1.7706672871460682,0.04502803598384159,0.0,-0.2816077100301069,-0.054737203541349276,0.0,0.6481736266263747,0.0029048583248135916,0.0,-4.660234781184158e-06,0.003585580386269544,0.0,,,,,,
2024-08-03 22:46:27.662385,-0.9226235064532666,0.002098507460782837,0.0,-1.4890705418918608,-0.000990917390661144,0.0,1.7706672871460682,0.045028035983737745,0.0,-0.2816077100301069,-0.05473720354130699,0.0,0.6481736266263738,0.0029048583247416903,0.0,-4.660234782072337e-06,0.003585580386141646,0.0,,,,,,
2024-08-03 22:46:27.672557,-0.9226235064532666,0.002098507460764518,0.0,-1.4890705418918608,-0.0009909173906783159,0.0,1.7706672871460682,0.045028035983801416,0.0,-0.281607710030106,-0.05473720354142646,0.0,0.6481736266263747,0.0029048583245991216,0.0,-4.660234782072337e-06,0.0035855803863209363,0.0,,,,,,
2024-08-03 22:46:27.682355,-0.9226235064532666,0.002098507460702766,0.0,-1.4890705418918608,-0.0009909173907717021,0.0,1.7706672871460682,0.04502803598378102,0.0,-0.2816077100301069,-0.05473720354137068,0.0,0.6481736266263738,0.0029048583244856733,0.0,-4.660234781184158e-06,0.0035855803863304105,0.0,,,,,,
2024-08-03 22:46:27.692590,-0.9226235064532666,0.002098507460650003,0.0,-1.4890705418918617,-0.0009909173907323727,0.0,1.7706672871460682,0.045028035983989544,0.0,-0.2816077100301069,-0.054737203541687984,0.0,0.6481736266263738,0.002904858324623048,0.0,-4.660234782072337e-06,0.0035855803863314886,0.0,,,,,,
2024-08-03 22:46:27.702188,-0.9226235064532666,0.002098507460713508,0.0,-1.4890705418918608,-0.0009909173907350882,0.0,1.7706672871460682,0.045028035983817556,0.0,-0.2816077100301069,-0.054737203541480595,0.0,0.6481736266263747,0.002904858324787702,0.0,-4.660234781184158e-06,0.00358558038645458,0.0,,,,,,
2024-08-03 22:46:27.712461,-0.9226235064532666,0.0020985074607237867,0.0,-1.4890705418918608,-0.000990917390806513,0.0,1.7706672871460682,0.04502803598392498,0.0,-0.2816077100301069,-0.05473720354146,0.0,0.6481736266263738,0.0029048583247292177,0.0,-4.660234781184158e-06,0.0035855803863376595,0.0,,,,,,
2024-08-03 22:46:27.722631,-0.9226235064532657,0.002098507460750013,0.0,-1.4890705418918608,-0.0009909173908274626,0.0,1.7706672871460682,0.045028035984054526,0.0,-0.2816077100301069,-0.05473720354144532,0.0,0.6481736266263747,0.0029048583247956224,0.0,-4.660234781184158e-06,0.0035855803864472827,0.0,,,,,,
2024-08-03 22:46:27.732393,-0.9226235064532666,0.0020985074607348096,0.0,-1.4890705418918608,-0.0009909173907043764,0.0,1.7706672871460682,0.04502803598381099,0.0,-0.28160771003010776,-0.05473720354135599,0.0,0.6481736266263738,0.002904858324463289,0.0,-4.660234782072337e-06,0.0035855803861224605,0.0,,,,,,
2024-08-03 22:46:27.742570,-0.9226235064532666,0.002098507460696865,0.0,-1.4890705418918626,-0.0009909173907266316,0.0,1.7706672871460682,0.04502803598372277,0.0,-0.2816077100301069,-0.05473720354125089,0.0,0.6481736266263738,0.0029048583244147066,0.0,-4.660234782960515e-06,0.0035855803863309573,0.0,,,,,,
2024-08-03 22:46:27.752202,-0.9226235064532666,0.0020985074607695405,0.0,-1.4890705418918608,-0.0009909173907241115,0.0,1.7706672871460682,0.04502803598391562,0.0,-0.28160771003010776,-0.05473720354135542,0.0,0.6481736266263738,0.0029048583245207473,0.0,-4.660234782072337e-06,0.003585580386219498,0.0,,,,,,
2024-08-03 22:46:27.762453,-0.9226235064532666,0.0020985074607587054,0.0,-1.4890705418918608,-0.00099091739076027,0.0,1.7706672871460682,0.0450280359838466,0.0,-0.2816077100301069,-0.05473720354122887,0.0,0.6481736266263747,0.002904858324609767,0.0,-4.660234782960515e-06,0.0035855803863290917,0.0,,,,,,
2024-08-03 22:46:27.772325,-0.9226235064532657,0.002098507460689321,0.0,-1.4890705418918626,-0.000990917390851893,0.0,1.7706672871460682,0.045028035983973286,0.0,-0.28160771003010776,-0.05473720354122413,0.0,0.6481736266263747,0.0029048583247633366,0.0,-4.660234782072337e-06,0.0035855803861225316,0.0,,,,,,
2024-08-03 22:46:27.782492,-0.9226235064532666,0.002098507460725383,0.0,-1.4890705418918608,-0.0009909173907441083,0.0,1.7706672871460682,0.0450280359839497,0.0,-0.2816077100301069,-0.054737203541466696,0.0,0.6481736266263747,0.0029048583246856215,0.0,-4.660234781184158e-06,0.0035855803862362306,0.0,,,,,,
2024-08-03 22:46:27.792235,-0.9226235064532657,0.002098507460743179,0.0,-1.4890705418918608,-0.0009909173907842867,0.0,1.7706672871460682,0.04502803598386689,0.0,-0.281607710030106,-0.054737203541371654,0.0,0.6481736266263738,0.0029048583247466473,0.0,-4.660234781184158e-06,0.0035855803864408625,0.0,,,,,,
2024-08-03 22:46:27.802461,-0.9226235064532666,0.002098507460812347,0.0,-1.4890705418918608,-0.0009909173907356266,0.0,1.7706672871460682,0.045028035983915325,0.0,-0.28160771003010776,-0.05473720354154217,0.0,0.6481736266263738,0.002904858324393059,0.0,-4.660234781184158e-06,0.003585580386326077,0.0,,,,,,
2024-08-03 22:46:27.812260,-0.9226235064532666,0.002098507460748813,0.0,-1.4890705418918608,-0.0009909173907537725,0.0,1.7706672871460682,0.04502803598378562,0.0,-0.2816077100301069,-0.054737203541472365,0.0,0.6481736266263738,0.002904858324537779,0.0,-4.660234781184158e-06,0.003585580386391888,0.0,,,,,,
2024-08-03 22:46:27.822513,-0.9226235064532657,0.002098507460704888,0.0,-1.4890705418918608,-0.0009909173907140874,0.0,1.7706672871460682,0.04502803598374986,0.0,-0.2816077100301069,-0.054737203541220476,0.0,0.6481736266263747,0.0029048583246268867,0.0,-4.660234782072337e-06,0.0035855803861967635,0.0,,,,,,
2024-08-03 22:46:27.832682,-0.9226235064532657,0.002098507460825442,0.0,-1.4890705418918608,-0.000990917390743098,0.0,1.7706672871460682,0.04502803598364116,0.0,-0.281607710030106,-0.05473720354125043,0.0,0.6481736266263738,0.002904858324609574,0.0,-4.660234781184158e-06,0.0035855803864018048,0.0,,,,,,
2024-08-03 22:46:27.842343,-0.9226235064532666,0.0020985074608342955,0.0,-1.4890705418918608,-0.0009909173907239977,0.0,1.7706672871460682,0.045028035983754766,0.0,-0.2816077100301069,-0.054737203541127474,0.0,0.6481736266263747,0.0029048583248669027,0.0,-4.660234782072337e-06,0.0035855803859971653,0.0,,,,,,
2024-08-03 22:46:27.852624,-0.9226235064532666,0.0020985074607227663,0.0,-1.4890705418918608,-0.0009909173907496954,0.0,1.7706672871460682,0.04502803598388898,0.0,-0.2816077100301069,-0.05473720354154081,0.0,0.6481736266263738,0.0029048583246696113,0.0,-4.66023478029598e-06,0.003585580386377662,0.0,,,,,,
2024-08-03 22:46:27.862217,-0.9226235064532657,0.002098507460869189,0.0,-1.4890705418918608,-0.0009909173906600412,0.0,1.7706672871460682,0.045028035983835306,0.0,-0.2816077100301069,-0.05473720354166794,0.0,0.6481736266263747,0.0029048583245265464,0.0,-4.660234781184158e-06,0.0035855803865697867,0.0,,,,,,
2024-08-03 22:46:27.872460,-0.9226235064532657,0.002098507460815746,0.0,-1.4890705418918608,-0.0009909173906865606,0.0,1.7706672871460682,0.045028035983856504,0.0,-0.2816077100301069,-0.05473720354144888,0.0,0.6481736266263738,0.0029048583245231277,0.0,-4.660234781184158e-06,0.0035855803864722224,0.0,,,,,,
2024-08-03 22:46:27.882129,-0.9226235064532666,0.0020985074608335253,0.0,-1.4890705418918608,-0.0009909173906950172,0.0,1.7706672871460682,0.04502803598374985,0.0,-0.2816077100301069,-0.05473720354151059,0.0,0.6481736266263747,0.002904858324602959,0.0,-4.660234781184158e-06,0.0035855803864181046,0.0,,,,,,
2024-08-03 22:46:27.892506,-0.9226235064532666,0.002098507460716456,0.0,-1.4890705418918617,-0.0009909173908182263,0.0,1.7706672871460682,0.04502803598384706,0.0,-0.281607710030106,-0.05473720354131777,0.0,0.6481736266263738,0.0029048583244201784,0.0,-4.660234781184158e-06,0.0035855803864596847,0.0,,,,,,
2024-08-03 22:46:27.902775,-0.9226235064532657,0.002098507460854689,0.0,-1.4890705418918617,-0.0009909173906356157,0.0,1.7706672871460682,0.04502803598372049,0.0,-0.28160771003010776,-0.054737203541362175,0.0,0.6481736266263747,0.0029048583246134465,0.0,-4.660234782072337e-06,0.003585580386242291,0.0,,,,,,
2024-08-03 22:46:27.912410,-0.9226235064532666,0.0020985074607308748,0.0,-1.4890705418918617,-0.0009909173907132944,0.0,1.7706672871460682,0.04502803598383263,0.0,-0.2816077100301069,-0.05473720354161064,0.0,0.6481736266263738,0.0029048583244468146,0.0,-4.660234781184158e-06,0.0035855803864067418,0.0,,,,,,
2024-08-03 22:46:27.922545,-0.9226235064532666,0.0020985074607924314,0.0,-1.4890705418918617,-0.0009909173907688732,0.0,1.77066728714607,0.0450280359838912,0.0,-0.2816077100301069,-0.05473720354145864,0.0,0.6481736266263738,0.002904858324436622,0.0,-4.660234782960515e-06,0.0035855803863536193,0.0,,,,,,
2024-08-03 22:46:27.932282,-0.9226235064532666,0.0020985074606718543,0.0,-1.4890705418918608,-0.0009909173908317517,0.0,1.7706672871460682,0.04502803598387267,0.0,-0.2816077100301069,-0.05473720354119195,0.0,0.6481736266263738,0.0029048583244467704,0.0,-4.660234782072337e-06,0.003585580386391126,0.0,,,,,,
2024-08-03 22:46:27.942423,-0.9226235064532666,0.0020985074607184967,0.0,-1.4890705418918626,-0.000990917390741632,0.0,1.7706672871460682,0.045028035983952844,0.0,-0.2816077100301069,-0.05473720354154528,0.0,0.6481736266263738,0.00290485832455141,0.0,-4.660234782072337e-06,0.0035855803863799164,0.0,,,,,,
2024-08-03 22:46:27.952710,-0.9226235064532666,0.002098507460776192,0.0,-1.4890705418918608,-0.000990917390681761,0.0,1.7706672871460682,0.04502803598392486,0.0,-0.2816077100301069,-0.054737203541579356,0.0,0.6481736266263738,0.002904858324477077,0.0,-4.660234781184158e-06,0.003585580386279125,0.0,,,,,,
2024-08-03 22:46:27.962645,-0.9226235064532666,0.002098507460733271,0.0,-1.4890705418918608,-0.0009909173907852184,0.0,1.7706672871460682,0.04502803598396864,0.0,-0.2816077100301069,-0.054737203541434395,0.0,0.6481736266263738,0.002904858324616417,0.0,-4.66023478029598e-06,0.0035855803864234146,0.0,,,,,,
2024-08-03 22:46:27.972421,-0.9226235064532666,0.002098507460835301,0.0,-1.4890705418918617,-0.000990917390648732,0.0,1.7706672871460682,0.04502803598389498,0.0,-0.2816077100301069,-0.05473720354170549,0.0,0.6481736266263747,0.0029048583247331264,0.0,-4.66023478029598e-06,0.0035855803864093864,0.0,,,,,,
2024-08-03 22:46:27.982601,-0.9226235064532666,0.0020985074607781616,0.0,-1.4890705418918608,-0.0009909173907034661,0.0,1.7706672871460682,0.045028035983904875,0.0,-0.2816077100301069,-0.054737203541683356,0.0,0.6481736266263747,0.0029048583247379424,0.0,-4.66023478029598e-06,0.003585580386377813,0.0,,,,,,
2024-08-03 22:46:27.992251,-0.9226235064532657,0.002098507460660175,0.0,-1.4890705418918626,-0.0009909173907358586,0.0,1.7706672871460682,0.045028035983751595,0.0,-0.281607710030106,-0.054737203541358824,0.0,0.6481736266263738,0.0029048583247390145,0.0,-4.660234781184158e-06,0.0035855803862148957,0.0,,,,,,
2024-08-03 22:46:28.002610,-0.9226235064532666,0.002098507460747273,0.0,-1.4890705418918608,-0.0009909173907528517,0.0,1.7706672871460682,0.04502803598383182,0.0,-0.28160771003010776,-0.05473720354138582,0.0,0.6481736266263738,0.0029048583246006005,0.0,-4.660234781184158e-06,0.003585580386321087,0.0,,,,,,
2024-08-03 22:46:28.012264,-0.9226235064532666,0.0020985074607507005,0.0,-1.4890705418918608,-0.0009909173906854413,0.0,1.7706672871460682,0.0450280359838263,0.0,-0.281607710030106,-0.054737203541293925,0.0,0.6481736266263738,0.002904858324777872,0.0,-4.660234782072337e-06,0.0035855803861073866,0.0,,,,,,
2024-08-03 22:46:28.022601,-0.9226235064532666,0.0020985074607432403,0.0,-1.4890705418918626,-0.0009909173908227206,0.0,1.7706672871460682,0.045028035984049974,0.0,-0.2816077100301069,-0.05473720354147024,0.0,0.6481736266263747,0.002904858324673729,0.0,-4.660234782072337e-06,0.003585580386211865,0.0,,,,,,
2024-08-03 22:46:28.032717,-0.9226235064532666,0.0020985074606903187,0.0,-1.4890705418918608,-0.0009909173908354643,0.0,1.7706672871460682,0.04502803598392154,0.0,-0.2816077100301069,-0.05473720354139522,0.0,0.6481736266263747,0.0029048583247326333,0.0,-4.660234781184158e-06,0.003585580386253518,0.0,,,,,,
2024-08-03 22:46:28.042379,-0.9226235064532666,0.00209850746075958,0.0,-1.4890705418918626,-0.0009909173908014244,0.0,1.7706672871460682,0.04502803598396129,0.0,-0.2816077100301069,-0.0547372035413305,0.0,0.6481736266263738,0.002904858324575615,0.0,-4.660234782072337e-06,0.0035855803862423962,0.0,,,,,,
2024-08-03 22:46:28.052711,-0.9226235064532666,0.0020985074608279395,0.0,-1.4890705418918608,-0.0009909173906764448,0.0,1.77066728714607,0.045028035983876065,0.0,-0.281607710030106,-0.054737203541371904,0.0,0.6481736266263738,0.0029048583246824994,0.0,-4.660234782072337e-06,0.0035855803863215617,0.0,,,,,,
2024-08-03 22:46:28.062388,-0.9226214078284594,0.0020985743215924963,0.0,-1.4890715317174494,-0.000989829539340213,0.0,1.7707123142793808,0.0450271347476643,0.0,-0.2816624482376966,-0.05473820726260528,0.0,0.6481765316692929,0.0029050411768828275,0.0,-6.957519181227667e-06,0.0035862505134519346,0.0,,,,,,
2024-08-03 22:46:28.072589,-0.9223119528539021,0.002100084065402543,0.0,-1.4890130244395638,-0.0009842986976027711,0.0,1.7708173050278582,0.04502164307537391,0.0,-0.28182576207847987,-0.05473846228810643,0.0,0.6484859463880266,0.002906987476773145,0.0,-6.651444648397842e-06,0.0035853412739150726,0.0,,,,,,
2024-08-03 22:46:28.082799,-0.9214631502515953,0.0021041505849894787,0.0,-1.4888525453888677,-0.0009694304336337817,0.0,1.7711052837414378,0.04500663535046831,0.0,-0.2822737149697687,-0.054739243718230884,0.0,0.6493346385822001,0.0029122608061795587,0.0,-5.903196949041956e-06,0.0035830201713221823,0.0,,,,,,
2024-08-03 22:46:28.092474,-0.9200788331279988,0.002110680247880478,0.0,-1.488590819551783,-0.0009455854262125783,0.0,1.7715749500271656,0.044982243512886794,0.0,-0.2830042840966076,-0.05474060316583013,0.0,0.6507187756593575,0.002920777502058792,0.0,-5.0489272034326405e-06,0.0035794103325772794,0.0,,,,,,
2024-08-03 22:46:28.102701,-0.9182006347626963,0.0021194559805884183,0.0,-1.4882357183823396,-0.000913545152230919,0.0,1.772212178708692,0.044949211671118434,0.0,-0.2839954976308041,-0.05474249655951391,0.0,0.6525967297516786,0.0029322576048812997,0.0,-4.60765611443037e-06,0.003574642304931826,0.0,,,,,,
2024-08-03 22:46:28.112422,-0.9158977549487117,0.0021301510060480707,0.0,-1.4878003251417675,-0.0008745080109885052,0.0,1.7729934919198858,0.04490875731066295,0.0,-0.28521083557486904,-0.054744837318090045,0.0,0.6548993100602214,0.002946268860065809,0.0,7.737924906159321e-06,0.003568883479095863,0.0,,,,,,
2024-08-03 22:46:28.122669,-0.9132567263088669,0.002142366540937606,0.0,-1.4873010000947529,-0.0008299421090696472,0.0,1.7738895311636647,0.04486239772599638,0.0,-0.2866046305732812,-0.05474751685369946,0.0,0.6575399952100245,0.002962281563322783,0.0,4.580922808194998e-06,0.003562331170114897,0.0,,,,,,
2024-08-03 22:46:28.132248,-0.9103711806067079,0.0021556748257596367,0.0,-1.4867554456849257,-0.0007814169371434486,0.0,1.774868529366202,0.04481177173569321,0.0,-0.28812746871856554,-0.05475041981095437,0.0,0.6604251656090474,0.00297972714059252,0.0,5.740673150178566e-06,0.0035551955834422053,0.0,,,,,,
2024-08-03 22:46:28.142560,-0.9073316150564539,0.0021696636655913876,0.0,-1.4861807717039637,-0.0007304306106545567,0.0,1.775899782929681,0.04475846044622602,0.0,-0.2897315903542852,-0.05475343660878003,0.0,0.6634643358072916,0.00299805759297085,0.0,7.461543508391344e-06,0.003547678061447435,0.0,,,,,,
2024-08-03 22:46:28.152817,-0.9042151585739333,0.0021840386847337893,0.0,-1.48559156049573,-0.0006782677388595458,0.0,1.776957123791636,0.04470381350837482,0.0,-0.29137629089268025,-0.054756489717642354,0.0,0.6665803869249878,0.003016872329409476,0.0,9.211190552527171e-06,0.0035399252992538723,0.0,,,,,,
2024-08-03 22:46:28.162350,-0.9010753382144774,0.002198540315635496,0.0,-1.4849979320875615,-0.0006257894066983051,0.0,1.7780223914687951,0.04464876102405478,0.0,-0.29303332158363915,-0.05475951241271078,0.0,0.6697197988630448,0.003035829384877663,0.0,1.096883536622073e-05,0.0035320669985647105,0.0,,,,,,
2024-08-03 22:46:28.172654,-0.8979337310522668,0.002213048291767861,0.0,-1.4844039658895596,-0.0005733140908399104,0.0,1.779088265362473,0.04459367385683094,0.0,-0.2946912951847356,-0.05476246625313386,0.0,0.6728609973482165,0.003054772373682268,0.0,1.2725251004930271e-05,0.003524149121276635,0.0,,,,,,
2024-08-03 22:46:28.182937,-0.8947921239207419,0.002227526547837037,0.0,-1.4838099997531555,-0.0005208985256783907,0.0,1.7801541392725628,0.0445386020557187,0.0,-0.2963492686953417,-0.054765330076111424,0.0,0.6760021957900237,0.0030736726451969115,0.0,1.4480545766915043e-05,0.0035161383216065984,0.0,,,,,,
2024-08-03 22:46:28.192538,-0.8916505168072657,0.002241986743211649,0.0,-1.483216033656502,-0.00046852284219685205,0.0,1.7812200131892801,0.04448353694881204,0.0,-0.2980072421209803,-0.05476810891584224,0.0,0.6791433941979914,0.0030925390869781426,0.0,1.623524549199118e-05,0.003508043112333621,0.0,,,,,,
2024-08-03 22:46:28.202988,-0.8885089096733596,0.0022564673786720675,0.0,-1.4826220675461774,-0.0004161334456212018,0.0,1.7822858870890812,0.04442845489912253,0.0,-0.29966521547683733,-0.05477081798020941,0.0,0.6822845926006185,0.003111400186002631,0.0,1.798962549681704e-05,0.0034998863298719004,0.0,,,,,,
2024-08-03 22:46:28.212627,-0.8853673025174249,0.0022709699829288393,0.0,-1.4820281014267749,-0.0003637346845777379,0.0,1.7833517609752825,0.04437335916599942,0.0,-0.30132318876089936,-0.05477345520831847,0.0,0.6854257910029489,0.003130260898913894,0.0,1.9743799635207893e-05,0.0034916543182689436,0.0,,,,,,
2024-08-03 22:46:28.222844,-0.8822256953390282,0.0022854950945852266,0.0,-1.4814341352969984,-0.00031132575071314604,0.0,1.7844176348477099,0.04431824971975321,0.0,-0.3029811619740297,-0.05477602153454435,0.0,0.6885669894056647,0.0031491220608342732,0.0,2.1497835563266676e-05,0.0034833468728588416,0.0,,,,,,
2024-08-03 22:46:28.232402,-0.8790840881392707,0.002300041567577582,0.0,-1.480840169152511,-0.00025890210541882697,0.0,1.7854835087055232,0.044263125656440874,0.0,-0.3046391351168083,-0.054778517505374436,0.0,0.6917081878071878,0.0031679820301078673,0.0,2.3251771244403585e-05,0.0034749647846097167,0.0,,,,,,
2024-08-03 22:46:28.242727,-0.8759424809208873,0.0023146065973124108,0.0,-1.4802462029848005,-0.00020645498311039692,0.0,1.7865493825470296,0.044207985222824646,0.0,-0.30629710818847045,-0.05478094231440696,0.0,0.6948493862037015,0.003186836896597498,0.0,2.5005626839380568e-05,0.0034665075919265865,0.0,,,,,,
2024-08-03 22:46:28.252960,-0.8728008736829427,0.002329191492899291,0.0,-1.4796522368001142,-0.00015399056908595513,0.0,1.7876152563740106,0.04415282995688914,0.0,-0.3079550811907188,-0.05478329794600761,0.0,0.6979905845971883,0.003205688924421445,0.0,2.6759414415877814e-05,0.0034579766493439378,0.0,,,,,,
2024-08-03 22:46:28.262539,-0.8696592663488341,0.002343872081727951,0.0,-1.4790582706152902,-0.00010152589781562077,0.0,1.7886811301889516,0.044097662870295755,0.0,-0.30961305414069784,-0.05478560095364696,0.0,0.7011317830756063,0.003224625496172473,0.0,2.851310293383591e-05,0.0034493305260968102,0.0,,,,,,
2024-08-03 22:46:28.273035,-0.8665176590040442,0.0023585626981073634,0.0,-1.478464304423216,-4.905645195161807e-05,0.0,1.7897470039909198,0.04404248397895838,0.0,-0.3112710270241372,-0.05478783719505462,0.0,0.7042729815412567,0.003243548994801039,0.0,3.02667462905859e-05,0.003440622984663983,0.0,,,,,,
2024-08-03 22:46:28.282543,-0.863376051646342,0.0023732671252860026,0.0,-1.477870338227765,3.4182551554989837e-06,0.0,1.7908128777834769,0.04398729461769425,0.0,-0.31292899984030953,-0.05479000656152268,0.0,0.7074141799981648,0.00326246433203989,0.0,3.202033548888039e-05,0.0034318459857602085,0.0,,,,,,
2024-08-03 22:46:28.292820,-0.8602344442666787,0.0023879935150791236,0.0,-1.4772763720159678,5.590930945453647e-05,0.0,1.791878751560267,0.04393208949002255,0.0,-0.314586972593065,-0.05479211250977281,0.0,0.7105553784534884,0.0032813780855389567,0.0,3.3773876705112116e-05,0.003423003877110023,0.0,,,,,,
2024-08-03 22:46:28.303327,-0.8570928368649238,0.002402741997596979,0.0,-1.4766824057882235,0.00010841631380561914,0.0,1.792944625321656,0.04387686896076047,0.0,-0.31624494528328295,-0.054794155917625306,0.0,0.7136965769074175,0.0033002904431654006,0.0,3.552736984424598e-05,0.0034140969231458026,0.0,,,,,,
2024-08-03 22:46:28.312715,-0.8539512294409466,0.0024175127038969413,0.0,-1.4760884395446021,0.00016093919725706325,0.0,1.7940104990676726,0.04382163305716012,0.0,-0.3179029179119821,-0.0547961378075735,0.0,0.7168377753599673,0.0033192014212378145,0.0,3.728081539478012e-05,0.0034051262825265365,0.0,,,,,,
2024-08-03 22:46:28.322963,-0.8508096219946104,0.0024323057717866533,0.0,-1.4754944732851418,0.00021347792194414267,0.0,1.7950763727982988,0.04376638176385754,0.0,-0.31956089048019365,-0.054798059206523864,0.0,0.7199789738111217,0.003338111002650486,0.0,3.90342137777111e-05,0.003396093224135303,0.0,,,,,,
2024-08-03 22:46:28.332690,-0.8476680145257678,0.0024471213476766926,0.0,-1.4749005070098755,0.00026603245408797103,0.0,1.7961422465135186,0.043711115060306,0.0,-0.3212188629889283,-0.05479992112687168,0.0,0.723120172260856,0.003357019163821226,0.0,4.078756533854033e-05,0.0033869990171004017,0.0,,,,,,
2024-08-03 22:46:28.343007,-0.8445264070382157,0.0024619555669848896,0.0,-1.47430654070786,0.0003186139660178453,0.0,1.7972081202115167,0.04365583108212544,0.0,-0.3228768354364826,-0.05480172182280467,0.0,0.7262613707038108,0.003375920458518657,0.0,4.2540867152496276e-05,0.0033778417593083093,0.0,,,,,,
2024-08-03 22:46:28.352757,-0.8413847995218218,0.0024768187573670935,0.0,-1.4737125743903359,0.0003712105170021085,0.0,1.7982739938939591,0.04360053166511132,0.0,-0.3245348078277077,-0.05480346627272878,0.0,0.7294025691520751,0.0033948272295181263,0.0,4.4294119548204947e-05,0.003368622584733278,0.0,,,,,,
2024-08-03 22:46:28.362955,-0.8382431919108857,0.0024917763316752587,0.0,-1.4731186080596002,0.00042382030461454853,0.0,1.7993398675580856,0.04354521398741368,0.0,-0.3261927801773217,-0.054805169030114835,0.0,0.7325437676786954,0.003413812212365121,0.0,4.6047292388884387e-05,0.003359310764115802,0.0,,,,,,
2024-08-03 22:46:28.372929,-0.8351015842911957,0.002506741933006553,0.0,-1.4725246417227378,0.00047643456145491985,0.0,1.8004057412102874,0.043489885321082306,0.0,-0.32785075246935946,-0.05480681394242086,0.0,0.7356849661890221,0.0034327804465538484,0.0,4.780042637619886e-05,0.003349948653940639,0.0,,,,,,
2024-08-03 22:46:28.383068,-0.8319599766542245,0.0025217256473444934,0.0,-1.4719306753784316,0.0005290581329856678,0.0,1.8014716148508079,0.04343454391905896,0.0,-0.3295087247052342,-0.054808403000797465,0.0,0.7388261646925693,0.0034517424183315164,0.0,4.955351342239567e-05,0.003340530993063445,0.0,,,,,,
2024-08-03 22:46:28.392722,-0.8288183689935584,0.0025367330563682935,0.0,-1.4713367090172687,0.0005816985640718698,0.0,1.8025374884750747,0.04337918626094378,0.0,-0.33116669688747713,-0.0548099384325042,0.0,0.7419673631943811,0.003470702653516413,0.0,5.130655653218241e-05,0.003331060204770049,0.0,,,,,,
2024-08-03 22:46:28.402995,-0.8256767613090181,0.0025517643431267763,0.0,-1.4707427426395225,0.000634355579120875,0.0,1.8036033620833507,0.0433238126137144,0.0,-0.33282466901688057,-0.05481142101829171,0.0,0.7451085616946367,0.0034896613326148695,0.0,5.305955532541873e-05,0.0033215365747271686,0.0,,,,,,
2024-08-03 22:46:28.413230,-0.8225351536004402,0.0025668196683161022,0.0,-1.4701487762452066,0.0006870291670161466,0.0,1.8046692356756324,0.04326842296869869,0.0,-0.33448264109431136,-0.054812851631735264,0.0,0.7482497601933611,0.003508618479541157,0.0,5.481251020267308e-05,0.0033119611071597372,0.0,,,,,,
2024-08-03 22:46:28.422891,-0.8193935458676691,0.002581899188017458,0.0,-1.4695548098343056,0.0007397193408719437,0.0,1.80573510925187,0.043213017283083896,0.0,-0.33614061312064525,-0.05481423114503787,0.0,0.7513909586905454,0.003527574085983558,0.0,5.6565421702181595e-05,0.0033023348974715464,0.0,,,,,,
2024-08-03 22:46:28.433124,-0.8162519381127389,0.0025970007564192804,0.0,-1.4689608434010617,0.0007924322332096751,0.0,1.8068009828111968,0.04315759459300727,0.0,-0.33779858509529603,-0.05481555890496764,0.0,0.7545321571832897,0.003546525110398031,0.0,5.831828848723575e-05,0.0032926570838120194,0.0,,,,,,
2024-08-03 22:46:28.442757,-0.8131103303350606,0.0026121252617244163,0.0,-1.468366876946148,0.0008451661806887357,0.0,1.807866856353705,0.04310215523154177,0.0,-0.339456557019286,-0.05481683611800339,0.0,0.7576733556721411,0.0035654724751676926,0.0,6.00711111315988e-05,0.0032829289243036623,0.0,,,,,,
2024-08-03 22:46:28.453061,-0.8099687224960714,0.0026273109998983194,0.0,-1.4677729104747426,0.0008979166296095653,0.0,1.8089327298775864,0.04304669727125743,0.0,-0.3411145289023825,-0.05481807240243343,0.0,0.7608145542000573,0.0035844588326435726,0.0,6.182387573083759e-05,0.003273136204196685,0.0,,,,,,
2024-08-03 22:46:28.463274,-0.8068271145971071,0.002642556624816427,0.0,-1.46717894398789,0.0009506825355720273,0.0,1.8099986033824322,0.04299122031906667,0.0,-0.3427725007458111,-0.054819268976077265,0.0,0.7639557527650851,0.003603482222920776,0.0,6.35765864833715e-05,0.0032632835274853597,0.0,,,,,,
2024-08-03 22:46:28.473035,-0.803685506685559,0.002657814177978139,0.0,-1.4665849774969313,0.0010034509346185973,0.0,1.8110644768767745,0.04293573376878458,0.0,-0.3444304725400329,-0.05482041613556856,0.0,0.7670969513168773,0.003622491981508171,0.0,6.532925790114774e-05,0.00325338561463726,0.0,,,,,,
2024-08-03 22:46:28.483135,-0.800543898751676,0.0026730948223878475,0.0,-1.4659910109927237,0.001056234417070409,0.0,1.8121303503563038,0.04288023136857969,0.0,-0.34608844428751606,-0.05482151679560924,0.0,0.7702381498643769,0.0036414978996980396,0.0,6.708188953119532e-05,0.00324344419831119,0.0,,,,,,
2024-08-03 22:46:28.492907,-0.7974022907922445,0.002688401015294075,0.0,-1.4653970444706486,0.0011090357686463093,0.0,1.813196223818828,0.04282471196242245,0.0,-0.3477464159896506,-0.05482257210717031,0.0,0.7733793484101446,0.003660502084894332,0.0,6.883448271910453e-05,0.003233459813975011,0.0,,,,,,
2024-08-03 22:46:28.503107,-0.7942606828071037,0.0027037329205140143,0.0,-1.4648030779308472,0.0011618548495418465,0.0,1.8142620972644714,0.042769175675205794,0.0,-0.3494043876471391,-0.054823582771341625,0.0,0.7765205469542957,0.003679504653588356,0.0,7.05870376451756e-05,0.0032234329290474002,0.0,,,,,,
2024-08-03 22:46:28.512825,-0.7911190747961001,0.002719090690568826,0.0,-1.4642091113732751,0.0012146917028739114,0.0,1.815327970693179,0.04271362245379409,0.0,-0.35106235926072316,-0.05482454952881677,0.0,0.77966174549685,0.0036985056232505106,0.0,7.233955495333788e-05,0.0032133644438841246,0.0,,,,,,
2024-08-03 22:46:28.523091,-0.7879774667596919,0.002734473710912243,0.0,-1.4636151447963515,0.0012675484060146566,0.0,1.8163938441047023,0.042658051932083704,0.0,-0.35272033083074295,-0.05482547263064097,0.0,0.7828029440370141,0.003717504013384348,0.0,7.409203475905457e-05,0.0032032545992881417,0.0,,,,,,
2024-08-03 22:46:28.533378,-0.7848358587008457,0.0027498794060335134,0.0,-1.4630211781923268,0.0013204314733487005,0.0,1.8174597174980072,0.04260246335913244,0.0,-0.3543783023559772,-0.05482635108210824,0.0,0.7859441425708118,0.003736496320802457,0.0,7.58444748383269e-05,0.0031931017608534495,0.0,,,,,,
2024-08-03 22:46:28.542949,-0.7816942506150379,0.002765312066217102,0.0,-1.4624272115711319,0.0013733317150298858,0.0,1.818525590874346,0.042546857819138834,0.0,-0.3560362738396661,-0.054827187987704654,0.0,0.7890853411038048,0.0037554878265418016,0.0,7.759687922437308e-05,0.0031829099016085307,0.0,,,,,,
2024-08-03 22:46:28.553370,-0.7785526424311584,0.002780842639792686,0.0,-1.4618332449283817,0.0014262535189863462,0.0,1.8195914642259385,0.042491227606708266,0.0,-0.35769424529731353,-0.054827998784230746,0.0,0.7922265397138117,0.003774556203988986,0.0,7.934921903540726e-05,0.0031726495017031196,0.0,,,,,,
2024-08-03 22:46:28.562944,-0.7754110342272424,0.002796392920923663,0.0,-1.4612392782707058,0.0014791893973302292,0.0,1.8206573375602417,0.04243558059183352,0.0,-0.3593522167145995,-0.05482876913254733,0.0,0.7953677383145106,0.0037936150798775145,0.0,8.110153347917759e-05,0.0031623603246681794,0.0,,,,,,
2024-08-03 22:46:28.573411,-0.7722694260060274,0.0028119605512454834,0.0,-1.4606453116099887,0.0015321284557881752,0.0,1.8217232108848407,0.042379923787177344,0.0,-0.361010188090118,-0.05482949772999809,0.0,0.7985089369060203,0.0038126647918623946,0.0,8.285380975703305e-05,0.003152030457817215,0.0,,,,,,
2024-08-03 22:46:28.583182,-0.769127817757802,0.002827555556864833,0.0,-1.4600513449299493,0.0015850877796362572,0.0,1.8227890841912746,0.04232424828798985,0.0,-0.3626681594266108,-0.054830187392172075,0.0,0.8016501354955805,0.003831712763306694,0.0,8.460605423188383e-05,0.0031416666886173476,0.0,,,,,,
2024-08-03 22:46:28.593321,-0.7659862094821923,0.002843177950288953,0.0,-1.459457378230513,0.0016380665015558898,0.0,1.8238549574796288,0.04226855470773418,0.0,-0.364326130724697,-0.054830838644923954,0.0,0.8047913340835535,0.0038507591465423915,0.0,8.63582668726437e-05,0.0031312686085770104,0.0,,,,,,
2024-08-03 22:46:28.602970,-0.762844601179097,0.0028588278315268795,0.0,-1.4588634115117152,0.0016910645868993728,0.0,1.8249208307498925,0.04221284303582135,0.0,-0.36598410198498854,-0.05483145210413617,0.0,0.8079325326699429,0.0038698039468630357,0.0,8.811044824952319e-05,0.0031208369192596624,0.0,,,,,,
2024-08-03 22:46:28.613208,-0.7597029928483856,0.0028745053329257433,0.0,-1.4582694447734743,0.0017440821190797132,0.0,1.8259867040019717,0.04215711317731026,0.0,-0.36764207320810627,-0.05483202838868664,0.0,0.8110737312547469,0.00388884716328137,0.0,8.986259906862415e-05,0.0031103724476389746,0.0,,,,,,
2024-08-03 22:46:28.622914,-0.7565613844932821,0.0028902071059636655,0.0,-1.4576754780079175,0.0017971273498258666,0.0,1.8270525772349941,0.04210136418264404,0.0,-0.3693000443926744,-0.054832566053686575,0.0,0.8142149298337609,0.003907884441241615,0.0,9.161471669383303e-05,0.0030998726122960134,0.0,,,,,,
2024-08-03 22:46:28.633090,-0.7534197761109187,0.0029059363450130017,0.0,-1.457081511220698,0.0018501936241284381,0.0,1.828118450449498,0.042045596802809226,0.0,-0.370958015540765,-0.05483306735340089,0.0,0.8173561284103954,0.003926919584219721,0.0,9.336680389804286e-05,0.003089340535505994,0.0,,,,,,
2024-08-03 22:46:28.642817,-0.7502781676701824,0.0029217238934500845,0.0,-1.4564875444113283,0.0019032820512706215,0.0,1.829184323641405,0.04198980685683279,0.0,-0.37261598665987083,-0.05483353964161425,0.0,0.8204973270185301,0.003945986167334134,0.0,9.511885114132923e-05,0.0030787662929197875,0.0,,,,,,
2024-08-03 22:46:28.653109,-0.7471365591612074,0.002937579582985567,0.0,-1.4558935775795836,0.0019563928504543835,0.0,1.830250196808766,0.04193399241743131,0.0,-0.37427395775307915,-0.054833985995220366,0.0,0.8236385256684198,0.003965094421304392,0.0,9.687085809506613e-05,0.0030681495387495554,0.0,,,,,,
2024-08-03 22:46:28.663250,-0.7439949506326462,0.002953454235087319,0.0,-1.4552996107328091,0.002009516928483119,0.0,1.8313160699590867,0.041878161924292154,0.0,-0.3759319288111076,-0.05483439705284184,0.0,0.8267797243072366,0.003984191254300091,0.0,9.86228443355941e-05,0.003057509471457546,0.0,,,,,,
2024-08-03 22:46:28.673001,-0.7408533420824721,0.0029693512144493865,0.0,-1.454705643878565,0.0020626504661270333,0.0,1.832381943097264,0.04182231816424304,0.0,-0.377589899834069,-0.05483477317805018,0.0,0.8299209229393796,0.004003281806978641,0.0,0.00010037479895608215,0.003046837314968592,0.0,,,,,,
2024-08-03 22:46:28.683394,-0.7377117335048773,0.0029852756151085872,0.0,-1.4541116770059863,0.002115802337963137,0.0,1.8334478162167827,0.04176645574119534,0.0,-0.37924787082387645,-0.054835116148551494,0.0,0.8330621215684184,0.004022369252481202,0.0,0.00010212672990839167,0.0030361399339949896,0.0,,,,,,
2024-08-03 22:46:28.692980,-0.7345701249403191,0.0030011870034439263,0.0,-1.4535177101852665,0.0021689023651054597,0.0,1.8345136893492437,0.04171060624694072,0.0,-0.3809058417740676,-0.05483541950835716,0.0,0.8362033201652288,0.004041424482251008,0.0,0.0001038786222755661,0.0030254029093980004,0.0,,,,,,
2024-08-03 22:46:28.703255,-0.7314285163762664,0.003017097879614387,0.0,-1.452923743394775,0.0022219720292205106,0.0,1.8355795624825255,0.04165475763493414,0.0,-0.382563812689269,-0.054835687877685176,0.0,0.8393445187363948,0.004060454079080206,0.0,0.00010563049466050245,0.0030146446054837885,0.0,,,,,,
2024-08-03 22:46:28.712834,-0.7282869077873393,0.0030330334685462175,0.0,-1.4523297765867296,0.0022750598181454284,0.0,1.836645435597882,0.04159889096601386,0.0,-0.3842217835725892,-0.054835924276216974,0.0,0.842485717301031,0.00407947694213754,0.0,0.00010738234694240845,0.0030038647002645883,0.0,,,,,,
2024-08-03 22:46:28.723400,-0.7251452991700589,0.003048997605656069,0.0,-1.451735809758169,0.0023281676269516546,0.0,1.8377113086946189,0.041543005762357824,0.0,-0.38587975442421474,-0.054836129074961534,0.0,0.8456269158630212,0.004098497372442325,0.0,0.00010913417440150397,0.002993058860436582,0.0,,,,,,
2024-08-03 22:46:28.732950,-0.7220036905212623,0.0030649933090260823,0.0,-1.4511418429111884,0.002381293675416395,0.0,1.8387771817723113,0.041487101559181394,0.0,-0.3875377252459682,-0.05483630402841656,0.0,0.8487681144258081,0.004117518663597167,0.0,0.00011088597910546838,0.0029822290117808045,0.0,,,,,,
2024-08-03 22:46:28.743150,-0.7188620817828326,0.0030810785138220163,0.0,-1.450547876035137,0.0024344487847517545,0.0,1.8398430548199762,0.041431167404352404,0.0,-0.3891956960502352,-0.054836461450530484,0.0,0.8519093130517321,0.004136602976546526,0.0,0.0001126377414752966,0.002971355120661421,0.0,,,,,,
2024-08-03 22:46:28.753659,-0.7157204730090481,0.003097199047437517,0.0,-1.4499539091385534,0.0024876244245905198,0.0,1.8409089278460549,0.04137521168338255,0.0,-0.39085366682706635,-0.05483659142705002,0.0,0.8550505116815703,0.004155691177725087,0.0,0.00011438948578845753,0.002960461931029624,0.0,,,,,,
2024-08-03 22:46:28.763124,-0.7125788642108555,0.003113343419756239,0.0,-1.4493599422265289,0.002540813792399579,0.0,1.8419748008549135,0.04131923971019187,0.0,-0.39251163757423413,-0.05483669167578842,0.0,0.8581917103044603,0.00417477213090733,0.0,0.00011614121112035747,0.0029495478229178453,0.0,,,,,,
2024-08-03 22:46:28.773413,-0.7094372553867654,0.003129514345757673,0.0,-1.4487659753020192,0.002594017603937599,0.0,1.843040673848865,0.04126325171809158,0.0,-0.3941696082921178,-0.05483676271780491,0.0,0.8613329089231483,0.0041938492231731435,0.0,0.00011789291136032887,0.0029386086304596087,0.0,,,,,,
2024-08-03 22:46:28.783142,-0.7062956465313537,0.0031457165951188663,0.0,-1.448172008353424,0.0026472455007227527,0.0,1.8441065468215498,0.041207242460589745,0.0,-0.39582757898194476,-0.05483680569789329,0.0,0.8644741075411186,0.0042129255955885465,0.0,0.0001196445921767264,0.002927648999420854,0.0,,,,,,
2024-08-03 22:46:28.793379,-0.7031540376421752,0.003161952723901654,0.0,-1.4475780413835382,0.0027004945745753095,0.0,1.8451724197735757,0.04115121256787912,0.0,-0.39748554964485017,-0.05483682178836604,0.0,0.8676153061613654,0.004232004369886751,0.0,0.00012139625294249612,0.002916668300953794,0.0,,,,,,
2024-08-03 22:46:28.803048,-0.7000124287151737,0.0031782264941674467,0.0,-1.4469840743815305,0.0027537760319418956,0.0,1.8462382926992902,0.041095156292203464,0.0,-0.3991435202820206,-0.05483681208627642,0.0,0.8707565047857697,0.004251087081995718,0.0,0.00012314790002143639,0.002905672986917277,0.0,,,,,,
2024-08-03 22:46:28.813450,-0.6968708198227311,0.0031944656031556128,0.0,-1.446390107452524,0.0028069847400478205,0.0,1.8473041656437488,0.04103911874464749,0.0,-0.4008014908844233,-0.05483676756119056,0.0,0.8738977033518598,0.004270111371080965,0.0,0.00012489954221628352,0.0028946720858346008,0.0,,,,,,
2024-08-03 22:46:28.823024,-0.6937292109122986,0.0032107229730610723,0.0,-1.4457961405222173,0.0028601941236590387,0.0,1.8483700385774888,0.04098307058277244,0.0,-0.4024594614582524,-0.0548366945804684,0.0,0.8770389019070475,0.004289125056137286,0.0,0.00012665116192422943,0.002883648172169865,0.0,,,,,,
2024-08-03 22:46:28.833292,-0.6905876019540154,0.0032270281684212455,0.0,-1.4452021735609717,0.0029134344439204945,0.0,1.8494359114863368,0.04092699754779759,0.0,-0.40411743200876504,-0.05483659827812906,0.0,0.8801801004789445,0.004308155428118092,0.0,0.00012840275518932742,0.0028725968762332065,0.0,,,,,,
2024-08-03 22:46:28.843070,-0.6874459929049292,0.003243424036486248,0.0,-1.4446082065655996,0.0029667088728823937,0.0,1.8505017843613665,0.04087089077575209,0.0,-0.4057754025457969,-0.054836488456151654,0.0,0.8833212991131756,0.004327248022007515,0.0,0.0001301543142950834,0.0028615101698936268,0.0,,,,,,
2024-08-03 22:46:28.853402,-0.6843043838328651,0.0032598428869842068,0.0,-1.4440142395492568,0.0030200042718969695,0.0,1.8515676572157957,0.040814763406512924,0.0,-0.40743337305665683,-0.05483635246124133,0.0,0.8864624977365985,0.004346329808233121,0.0,0.00013190586529443493,0.0028504146015697245,0.0,,,,,,
2024-08-03 22:46:28.863007,-0.6811627747332984,0.0032762887211857704,0.0,-1.4434202725164764,0.0030733144314119797,0.0,1.8526335300523726,0.04075861912774696,0.0,-0.40909134354225873,-0.05483619118919442,0.0,0.8896036963555183,0.004365406832013349,0.0,0.00013365739967685641,0.0028393008798722674,0.0,,,,,,
2024-08-03 22:46:28.873284,-0.6780211656046395,0.0032927642503868086,0.0,-1.442826305466668,0.003126643548660581,0.0,1.8536994028712996,0.040702456107685914,0.0,-0.41074931400307424,-0.0548360051533933,0.0,0.8927448949719041,0.0043844816177505495,0.0,0.00013540891480090522,0.0028281681656000604,0.0,,,,,,
2024-08-03 22:46:28.882893,-0.6748795564429653,0.003309272796584462,0.0,-1.4422323383906377,0.0031799988892152967,0.0,1.8547652756674324,0.040646270292314386,0.0,-0.4124072844398121,-0.05483579503993455,0.0,0.8958860935880812,0.004403556192144909,0.0,0.0001371604154343231,0.0028170202636843564,0.0,,,,,,
2024-08-03 22:46:28.893124,-0.6717379472484675,0.003325814171022315,0.0,-1.4416383712889755,0.003233379863612058,0.0,1.8558311484410233,0.040590061936768874,0.0,-0.4140652548528072,-0.054835561180751446,0.0,0.8990272922038756,0.004422630384689691,0.0,0.00013891190181869462,0.0028058574410964794,0.0,,,,,,
2024-08-03 22:46:28.903414,-0.6685963380220796,0.003342387230576294,0.0,-1.4410444041597124,0.0032867890140218818,0.0,1.8568970211919638,0.0405338308292406,0.0,-0.4157232252419183,-0.05483530334398625,0.0,0.902168490818104,0.004441702773617716,0.0,0.00014066337325857603,0.0027946788202808976,0.0,,,,,,
2024-08-03 22:46:28.912930,-0.6654547287664245,0.003358989854279223,0.0,-1.4404504369974267,0.003340230384394405,0.0,1.8579628939200141,0.04047757697108456,0.0,-0.41738119560623765,-0.054835020843408265,0.0,0.905309689427642,0.004460770804792627,0.0,0.00014241482702903596,0.002783482238335626,0.0,,,,,,
2024-08-03 22:46:28.923171,-0.6623131194770622,0.003375626191590002,0.0,-1.439856469809772,0.003393697127944702,0.0,1.8590287666251744,0.0404213002209291,0.0,-0.4190391659479662,-0.054834715756802696,0.0,0.908450888037521,0.004479839178675596,0.0,0.00014416626798574583,0.002772272236632378,0.0,,,,,,
2024-08-03 22:46:28.933338,-0.6591715101198892,0.0033923302622835107,0.0,-1.4392625025884171,0.0034471975574373592,0.0,1.8600946392984952,0.040364991684346783,0.0,-0.42069713627414274,-0.05483439509363219,0.0,0.911592086683652,0.004498943737292626,0.0,0.00014591768814042894,0.002761040613720551,0.0,,,,,,
2024-08-03 22:46:28.943088,-0.6560299006985115,0.003409098461387172,0.0,-1.438668535334808,0.003500730223816648,0.0,1.861160511940076,0.04030865146285678,0.0,-0.42235510658460385,-0.05483405870253557,0.0,0.9147332853616588,0.0045180801079960555,0.0,0.00014766909222707625,0.0027497921316498603,0.0,,,,,,
2024-08-03 22:46:28.953400,-0.6528882912500391,0.0034258937613762717,0.0,-1.4380745680567297,0.0035542873593694202,0.0,1.8622263845586566,0.040252288243066085,0.0,-0.42401307687235423,-0.054833699596456814,0.0,0.9178744840319446,0.004537208756666496,0.0,0.00014942049124666568,0.002738538055913238,0.0,,,,,,
2024-08-03 22:46:28.963032,-0.6497466817727426,0.0034427174175274233,0.0,-1.4374806007610663,0.0036078604539585652,0.0,1.8632922571584967,0.040195907201736915,0.0,-0.42567104713814174,-0.05483331855326217,0.0,0.9210156826983305,0.004556333282638813,0.0,0.00015117187637248009,0.0027272688370646864,0.0,,,,,,
2024-08-03 22:46:28.973144,-0.6466050722636414,0.0034595734276368613,0.0,-1.4368866334426282,0.003661458209377318,0.0,1.8643581297370453,0.040139503796720384,0.0,-0.4273290173824478,-0.05483291600109304,0.0,0.9241568813632384,0.004575456585981741,0.0,0.000152923248159631,0.0027159866869691358,0.0,,,,,,
2024-08-03 22:46:28.983350,-0.6434634627201437,0.0034764638368474394,0.0,-1.4362926660949487,0.0037150852099669435,0.0,1.8654240022906219,0.040083075421084205,0.0,-0.42898698760562315,-0.0548324923143394,0.0,0.9272980800281276,0.004594579868878911,0.0,0.0001546746100027363,0.0027046941024463683,0.0,,,,,,
2024-08-03 22:46:28.993099,-0.6403218531423915,0.0034933885054661004,0.0,-1.4356986987184486,0.0037687410321651654,0.0,1.866489874819381,0.04002662222679123,0.0,-0.4306449578079281,-0.05483204775914087,0.0,0.9304392786928606,0.004613702995105353,0.0,0.00015642596215670324,0.002693391357548685,0.0,,,,,,
2024-08-03 22:46:29.003570,-0.6371802435336793,0.0035103439579817143,0.0,-1.4351047313070289,0.0038224322540230333,0.0,1.867555747323376,0.039970144196576324,0.0,-0.43230292798824355,-0.05483158113885815,0.0,0.9335804773536278,0.00463282195526002,0.0,0.00015817730089828785,0.0026820745678162493,0.0,,,,,,
2024-08-03 22:46:29.013456,-0.634038633891671,0.003527332978206785,0.0,-1.4345107638641827,0.0038761541964424853,0.0,1.8686216198023509,0.03991364125235416,0.0,-0.4339608981476992,-0.05483109376698256,0.0,0.9367216760130122,0.004651939828145869,0.0,0.00015992862890001902,0.0026707468951628318,0.0,,,,,,
2024-08-03 22:46:29.023208,-0.6308970242148204,0.003544356846723813,0.0,-1.433916796392255,0.0039299052265407974,0.0,1.869687492256018,0.039857112999459085,0.0,-0.4356188682871398,-0.054830586379131754,0.0,0.9398628746726532,0.004671057960209694,0.0,0.00016167994839833,0.0026594102872820316,0.0,,,,,,
2024-08-03 22:46:29.033340,-0.6277554144420083,0.0035614765387680645,0.0,-1.4333228288749742,0.003983701570159171,0.0,1.8707533646663261,0.03980054149132416,0.0,-0.4372768384183665,-0.05483007075284912,0.0,0.9430040733963825,0.00469024006466208,0.0,0.00016343124787798757,0.002648052857953827,0.0,,,,,,
2024-08-03 22:46:29.043603,-0.6246138045995133,0.003578665904772514,0.0,-1.4327288612643476,0.004037591256474397,0.0,1.8718192370004907,0.039743893855958196,0.0,-0.43893480851282973,-0.05482951836145836,0.0,0.946145272151556,0.004709453600964045,0.0,0.0001651825404778151,0.0026366880834192414,0.0,,,,,,
2024-08-03 22:46:29.053436,-0.6214721938083052,0.0035968041627956597,0.0,-1.4321348895408075,0.004095593858097347,0.0,1.8728851067805241,0.039684692087685665,0.0,-0.4405927779175105,-0.054828276186333,0.0,0.9492864716167189,0.004729377125680878,0.0,0.000166934048832168,0.0026255380914408846,0.0,,,,,,
2024-08-03 22:46:29.063555,-0.6183305831640213,0.003614795089098977,0.0,-1.4315409178862042,0.004153525961595852,0.0,1.87395097659258,0.039625523222106815,0.0,-0.4422507473283517,-0.05482704023059171,0.0,0.9524276709067108,0.004749125295013054,0.0,0.00016868570613848277,0.002614536006296935,0.0,,,,,,
2024-08-03 22:46:29.073393,-0.6151889724773509,0.0036328289054688954,0.0,-1.4309469465985758,0.004211092909887168,0.0,1.8750168465185801,0.039566467275263,0.0,-0.4439087167705571,-0.05482583557081599,0.0,0.9555688702222112,0.00476889918532086,0.0,0.00017043745387734788,0.002603624724928145,0.0,,,,,,
2024-08-03 22:46:29.083537,-0.6120473617493376,0.003650904069919057,0.0,-1.4303529753145285,0.004268656279541556,0.0,1.8760827164339755,0.03950740071730362,0.0,-0.44556668619101014,-0.054824609157150275,0.0,0.958710069524944,0.004788660305687707,0.0,0.00017218920813188987,0.0025927196210979867,0.0,,,,,,
2024-08-03 22:46:29.093283,-0.6089057509295932,0.0036690707213132053,0.0,-1.4297590041191695,0.004326131596657311,0.0,1.8771485863884863,0.03944837319193256,0.0,-0.44722465560084945,-0.05482337203948887,0.0,0.9618512688316603,0.004808425141778271,0.0,0.00017394096693923444,0.0025818184472770275,0.0,,,,,,
2024-08-03 22:46:29.103593,-0.6057641400707956,0.0036872767635810814,0.0,-1.429165032888937,0.004383640934995698,0.0,1.8782144562995207,0.03938930230546651,0.0,-0.4488826249637974,-0.05482208814739517,0.0,0.9649924681310216,0.0048281829815887125,0.0,0.0001756927110667661,0.002570902697602939,0.0,,,,,,
2024-08-03 22:46:29.113314,-0.6026225291608505,0.0037055339623079733,0.0,-1.4285710616660914,0.004441142891124078,0.0,1.879280326154376,0.03933017523965786,0.0,-0.45054059425812376,-0.05482073563440659,0.0,0.9681336674319185,0.004847942358907424,0.0,0.00017744445170109202,0.002559983148414731,0.0,,,,,,
2024-08-03 22:46:29.124036,-0.5994809182113974,0.003723830671408707,0.0,-1.4279770904217848,0.0044986663117368465,0.0,1.8803461959662222,0.03927100516768298,0.0,-0.45219856351031495,-0.054819340986077034,0.0,0.9712748667435633,0.00486771248163703,0.0,0.00017919618524864234,0.002549056211946323,0.0,,,,,,
2024-08-03 22:46:29.133836,-0.5963393071662209,0.0037422229647191877,0.0,-1.4273831191458528,0.004556221305236908,0.0,1.8814120657113698,0.03921176851326426,0.0,-0.45385653272231874,-0.05481790612962833,0.0,0.9744160661477315,0.004887575012422643,0.0,0.00018094790722411602,0.0025381170357002326,0.0,,,,,,
2024-08-03 22:46:29.143528,-0.5931976959458449,0.003760790464378831,0.0,-1.4267891478165466,0.004613829673666076,0.0,1.8824779354465022,0.03915252184573011,0.0,-0.455514501905407,-0.054816442362680115,0.0,0.9775572655460207,0.004907431662397901,0.0,0.00018269962779005056,0.002527176190330546,0.0,,,,,,
2024-08-03 22:46:29.153800,-0.590056084828988,0.003779254455170424,0.0,-1.4261951764590373,0.004671466245121726,0.0,1.8835438051203504,0.039093213892317714,0.0,-0.45717247104983016,-0.054814939930331236,0.0,0.9806984649803594,0.004927324364826804,0.0,0.00018445137038991533,0.002516257116255645,0.0,,,,,,
2024-08-03 22:46:29.163472,-0.5869144736692649,0.003797760919288472,0.0,-1.4256012050604825,0.00472914227086517,0.0,1.8846096747680505,0.03903388068344729,0.0,-0.45883044016800145,-0.05481341134262327,0.0,0.9838396644200094,0.004947222212514948,0.0,0.00018620309936068224,0.002505323497635426,0.0,,,,,,
2024-08-03 22:46:29.173230,-0.5837728624488374,0.003816328558425365,0.0,-1.4250072336549537,0.004786827122768917,0.0,1.885675544386583,0.038974517266434305,0.0,-0.4604884092502193,-0.05481184668885253,0.0,0.9869808638789221,0.004967139512434545,0.0,0.0001879548276670917,0.00249438977537456,0.0,,,,,,
2024-08-03 22:46:29.183505,-0.5806312511895548,0.003834935057125771,0.0,-1.4244132621878511,0.0048445735551191395,0.0,1.8867414139706646,0.038915119393594474,0.0,-0.4621463783099635,-0.054810259555968105,0.0,0.990122063337779,0.004987056752938781,0.0,0.0001897065459628422,0.002483445798269584,0.0,,,,,,
2024-08-03 22:46:29.193763,-0.5774896398734874,0.0038535980979971895,0.0,-1.4238192907109866,0.004902330368229199,0.0,1.887807283531746,0.038855698454707044,0.0,-0.46380434734610976,-0.05480864875126222,0.0,0.9932632628122811,0.005006989370493878,0.0,0.0001914582652950969,0.0024725022783290097,0.0,,,,,,
2024-08-03 22:46:29.203583,-0.5743480285259093,0.0038722929914846256,0.0,-1.423225319161302,0.004960159173737445,0.0,1.888873153054064,0.038796238842552566,0.0,-0.4654623163564988,-0.05480701229104659,0.0,0.9964044622789103,0.005026914473102815,0.0,0.00019320996752991704,0.0024615418672729716,0.0,,,,,,
2024-08-03 22:46:29.213273,-0.5712064171228555,0.003891043370757411,0.0,-1.4226313475912524,0.005018008341893626,0.0,1.8899390225337598,0.038736736611091206,0.0,-0.46712028533018657,-0.05480533912732304,0.0,0.9995456617535963,0.0050468476347957855,0.0,0.00019496167074528614,0.002450582179740878,0.0,,,,,,
2024-08-03 22:46:29.223490,-0.5680648056823694,0.003909831188907649,0.0,-1.4220373759615679,0.005075917153561043,0.0,1.8910048919715354,0.038677192454057624,0.0,-0.46877825427749453,-0.05480363958527129,0.0,1.0026868612259614,0.005066778474435278,0.0,0.00019671336434345932,0.002439612649988618,0.0,,,,,,
2024-08-03 22:46:29.233821,-0.5649231941296087,0.0039287311416049565,0.0,-1.4214434042712225,0.005133886562555966,0.0,1.8920707613390348,0.03861757815271815,0.0,-0.4704362232013146,-0.05480191654930314,0.0,1.0058280607712122,0.00508678208625094,0.0,0.00019846505027310002,0.002428634852390893,0.0,,,,,,
2024-08-03 22:46:29.243368,-0.5617815825427686,0.003947665183528276,0.0,-1.4208494325358332,0.0051919010179380005,0.0,1.8931366306630224,0.038557920338067424,0.0,-0.47209419209322867,-0.05480016160608314,0.0,1.00896926031011,0.0051067793466668876,0.0,0.00020021673758829905,0.0024176582353308772,0.0,,,,,,
2024-08-03 22:46:29.253657,-0.5586399709195273,0.00396663563365281,0.0,-1.4202554607448918,0.005249971024186319,0.0,1.894202499941553,0.038498217066143904,0.0,-0.4737521609560629,-0.054798377583086956,0.0,1.012110459847384,0.005126774981576607,0.0,0.00020196842321240638,0.002406679729349489,0.0,,,,,,
2024-08-03 22:46:29.263393,-0.5554983592491292,0.003985652869302949,0.0,-1.419661488923311,0.005308070033700069,0.0,1.8952683691741647,0.03843846879269504,0.0,-0.475410129783417,-0.05479655821401672,0.0,1.015251659394572,0.0051467803897316455,0.0,0.00020372010818814346,0.002395699740208464,0.0,,,,,,
2024-08-03 22:46:29.273786,-0.5523567475480844,0.0040047011988413985,0.0,-1.419067517041128,0.0053662315462975705,0.0,1.8963342383665296,0.03837867920770835,0.0,-0.47706809858644483,-0.05479471436138616,0.0,1.0183928589368767,0.005166781078882564,0.0,0.00020547177966268038,0.002384706852737025,0.0,,,,,,
2024-08-03 22:46:29.283430,-0.5492151357965724,0.004023800003191119,0.0,-1.4184735451205783,0.005424431436178016,0.0,1.897400107507206,0.03831883792440371,0.0,-0.4787260673546019,-0.05479283563772159,0.0,1.0215340584916097,0.005186794190170602,0.0,0.00020722345775237017,0.002373720422782938,0.0,,,,,,
2024-08-03 22:46:29.293650,-0.5460735240075287,0.004042936086516082,0.0,-1.417879573135825,0.005482696138935404,0.0,1.8984659766001162,0.03825894882629888,0.0,-0.4803840360953844,-0.05479092947661662,0.0,1.024675258046707,0.005206807396458926,0.0,0.00020897512911677296,0.002362726765131968,0.0,,,,,,
2024-08-03 22:46:29.303701,-0.5429319121849137,0.004062106094339778,0.0,-1.4172856010845807,0.005541026522126798,0.0,1.8995318456463295,0.038199013099696796,0.0,-0.4820420048080134,-0.05478899524270022,0.0,1.0278164575978543,0.005226817012857101,0.0,0.0002107267921784839,0.002351725099826632,0.0,,,,,,
2024-08-03 22:46:29.313842,-0.5397903003134203,0.004081324993045605,0.0,-1.4166916289868714,0.005599403360403736,0.0,1.9005977146401065,0.03813902494459291,0.0,-0.48369997348896376,-0.05478702933319045,0.0,1.030957657159978,0.005246837608436827,0.0,0.00021247846042360408,0.0023407284681608524,0.0,,,,,,
2024-08-03 22:46:29.323653,-0.5366486884101658,0.004100575662630131,0.0,-1.4160976568173245,0.0056578520501162554,0.0,1.901663583587112,0.038078990007998775,0.0,-0.485357942145475,-0.054785038984755036,0.0,1.0340988567170495,0.005266853153030147,0.0,0.00021423012102150807,0.0023297240311775207,0.0,,,,,,
2024-08-03 22:46:29.333942,-0.5335070763994914,0.00411993361356344,0.0,-1.4155036845739468,0.005716374495328285,0.0,1.9027294524561462,0.03801887723949796,0.0,-0.4870159107807872,-0.05478302743724152,0.0,1.0372400563441575,0.005286938624175625,0.0,0.0002159817858737867,0.0023187233689243563,0.0,,,,,,
2024-08-03 22:46:29.343506,-0.5303654643566285,0.004139323372976293,0.0,-1.414909712276058,0.005774949490004148,0.0,1.9037953212781424,0.03795871840698083,0.0,-0.4886738793880747,-0.05478098800242734,0.0,1.0403812559662171,0.005307018905642086,0.0,0.00021773345319697768,0.002307724530176859,0.0,,,,,,
2024-08-03 22:46:29.353765,-0.5272238522859514,0.004158741389793259,0.0,-1.414315739913168,0.0058335916562155775,0.0,1.9048611900566659,0.03789851502428305,0.0,-0.4903318479718486,-0.054778924905639646,0.0,1.0435224555799483,0.005327091017580842,0.0,0.0002194851140657761,0.002296719662337179,0.0,,,,,,
2024-08-03 22:46:29.388452,-0.524082240162369,0.0041782119543171785,0.0,-1.4137217675024585,0.005892279953098028,0.0,1.9059270587783566,0.03783825574791887,0.0,-0.4919898165246428,-0.05477683100059898,0.0,1.0466636552072677,0.005347176592094055,0.0,0.0002212367883593913,0.0022857274356950373,0.0,,,,,,
