will-d-chen/ur3e-codebase/joint_states_20240803_220505.csv
time,shoulder_pan_joint_position,shoulder_pan_joint_velocity,shoulder_pan_joint_effort,shoulder_lift_joint_position,shoulder_lift_joint_velocity,shoulder_lift_joint_effort,elbow_joint_position,elbow_joint_velocity,elbow_joint_effort,wrist_1_joint_position,wrist_1_joint_velocity,wrist_1_joint_effort,wrist_2_joint_position,wrist_2_joint_velocity,wrist_2_joint_effort,wrist_3_joint_position,wrist_3_joint_velocity,wrist_3_joint_effort,force_x,force_y,force_z,torque_x,torque_y,torque_z
2024-08-03 22:05:07.008402,7.074847049803878e-05,0.0010752880910167265,0.0,-1.5699951619724952,-0.0031729075052641456,0.0,-1.3018824007282603e-05,0.0013976149236506826,0.0,-1.5699811649706072,4.7037908841414985e-05,0.0,-1.986264450071218e-05,-0.0010751871468090471,0.0,-1.6992926048509105e-05,-0.0003400303517577106,0.0,,,,,,
2024-08-03 22:05:07.008622,7.074847049892696e-05,0.0010752880910586838,0.0,-1.5699951619724952,-0.003172907505214516,0.0,-1.3018824008170782e-05,0.0013976149234836296,0.0,-1.5699811649706072,4.703790926597023e-05,0.0,-1.9862644501600357e-05,-0.0010751871468092178,0.0,-1.6992926047620927e-05,-0.0003400303520311361,0.0,,,,,,
2024-08-03 22:05:07.008801,7.074847049892696e-05,0.0010752880910847825,0.0,-1.5699951619724952,-0.0031729075052620032,0.0,-1.3018824007282603e-05,0.00139761492356439,0.0,-1.5699811649706064,4.7037909003464504e-05,0.0,-1.986264450071218e-05,-0.001075187146862639,0.0,-1.6992926046732748e-05,-0.0003400303519215037,0.0,,,,,,
2024-08-03 22:05:07.008956,7.074847049892696e-05,0.0010752880910652643,0.0,-1.5699951619724952,-0.0031729075052676532,0.0,-1.3018824008170782e-05,0.0013976149236478762,0.0,-1.5699811649706072,4.703790880065549e-05,0.0,-1.986264450071218e-05,-0.001075187146969295,0.0,-1.6992926047620927e-05,-0.00034003035174900206,0.0,,,,,,
2024-08-03 22:05:07.009122,7.074847049892696e-05,0.0010752880910859294,0.0,-1.5699951619724952,-0.0031729075052679386,0.0,-1.3018824008170782e-05,0.0013976149236333887,0.0,-1.5699811649706064,4.703790896778959e-05,0.0,-1.986264450071218e-05,-0.0010751871469506403,0.0,-1.6992926047620927e-05,-0.0003400303519497642,0.0,,,,,,
2024-08-03 22:05:07.009299,7.074847049892696e-05,0.0010752880910543181,0.0,-1.5699951619724934,-0.0031729075052073464,0.0,-1.3018824007282603e-05,0.001397614923487612,0.0,-1.5699811649706081,4.703790898928867e-05,0.0,-1.986264450071218e-05,-0.0010751871469157966,0.0,-1.6992926047620927e-05,-0.00034003035171096055,0.0,,,,,,
2024-08-03 22:05:07.009447,7.074847049803878e-05,0.0010752880910429774,0.0,-1.5699951619724952,-0.0031729075052492487,0.0,-1.3018824006394425e-05,0.0013976149235264675,0.0,-1.5699811649706072,4.703790884187924e-05,0.0,-1.986264450071218e-05,-0.0010751871468743714,0.0,-1.6992926048509105e-05,-0.00034003035167899545,0.0,,,,,,
2024-08-03 22:05:07.009592,7.074847049892696e-05,0.0010752880910543019,0.0,-1.5699951619724952,-0.003172907505197641,0.0,-1.3018824008170782e-05,0.001397614923493145,0.0,-1.5699811649706064,4.703790889424252e-05,0.0,-1.9862644501600357e-05,-0.0010751871469729087,0.0,-1.6992926047620927e-05,-0.00034003035180685487,0.0,,,,,,
2024-08-03 22:05:07.009734,7.074847049803878e-05,0.00107528809107062,0.0,-1.5699951619724952,-0.0031729075052467307,0.0,-1.3018824006394425e-05,0.0013976149236867592,0.0,-1.5699811649706081,4.7037908693335845e-05,0.0,-1.986264450071218e-05,-0.0010751871468397025,0.0,-1.6992926048509105e-05,-0.0003400303516755055,0.0,,,,,,
2024-08-03 22:05:07.009894,7.074847049892696e-05,0.001075288091079017,0.0,-1.5699951619724934,-0.0031729075051788055,0.0,-1.3018824008170782e-05,0.0013976149235395527,0.0,-1.5699811649706064,4.7037909077246956e-05,0.0,-1.9862644501600357e-05,-0.0010751871468514989,0.0,-1.6992926047620927e-05,-0.00034003035196858715,0.0,,,,,,
2024-08-03 22:05:07.010039,7.074847049892696e-05,0.0010752880910380911,0.0,-1.5699951619724943,-0.0031729075051875064,0.0,-1.3018824007282603e-05,0.0013976149235279192,0.0,-1.5699811649706064,4.703790892721159e-05,0.0,-1.986264450071218e-05,-0.0010751871469051218,0.0,-1.6992926047620927e-05,-0.00034003035180708635,0.0,,,,,,
2024-08-03 22:05:07.019490,7.074847049892696e-05,0.0010752880910765786,0.0,-1.5699951619724943,-0.0031729075052528456,0.0,-1.3018824008170782e-05,0.0013976149236367657,0.0,-1.5699811649706072,4.7037908936030056e-05,0.0,-1.986264450071218e-05,-0.0010751871468487862,0.0,-1.6992926047620927e-05,-0.0003400303519430455,0.0,,,,,,
2024-08-03 22:05:07.029209,7.074847049892696e-05,0.0010752880910674992,0.0,-1.5699951619724952,-0.003172907505263046,0.0,-1.3018824008170782e-05,0.0013976149235789977,0.0,-1.5699811649706072,4.703790899334055e-05,0.0,-1.9862644501600357e-05,-0.0010751871468293495,0.0,-1.6992926047620927e-05,-0.0003400303518361497,0.0,,,,,,
2024-08-03 22:05:07.039604,7.074847049803878e-05,0.0010752880910607555,0.0,-1.5699951619724952,-0.003172907505207971,0.0,-1.3018824006394425e-05,0.0013976149232803729,0.0,-1.5699811649706064,4.703790928801087e-05,0.0,-1.986264450071218e-05,-0.0010751871469221587,0.0,-1.6992926047620927e-05,-0.00034003035184230535,0.0,,,,,,
2024-08-03 22:05:07.049442,7.074847049892696e-05,0.001075288091044951,0.0,-1.5699951619724952,-0.003172907505215156,0.0,-1.3018824008170782e-05,0.0013976149234140559,0.0,-1.5699811649706072,4.7037909062482073e-05,0.0,-1.986264450071218e-05,-0.0010751871469644495,0.0,-1.6992926047620927e-05,-0.00034003035185886004,0.0,,,,,,
2024-08-03 22:05:07.059568,7.074847049803878e-05,0.0010752880910240735,0.0,-1.5699951619724952,-0.0031729075052846665,0.0,-1.3018824006394425e-05,0.0013976149236209242,0.0,-1.5699811649706072,4.703790903086717e-05,0.0,-1.986264450071218e-05,-0.0010751871468732857,0.0,-1.6992926047620927e-05,-0.0003400303518261126,0.0,,,,,,
2024-08-03 22:05:07.069259,7.074847049892696e-05,0.0010752880910770996,0.0,-1.5699951619724952,-0.0031729075052442934,0.0,-1.3018824007282603e-05,0.0013976149236117998,0.0,-1.5699811649706072,4.703790896545259e-05,0.0,-1.9862644501600357e-05,-0.0010751871469412064,0.0,-1.6992926046732748e-05,-0.0003400303518682376,0.0,,,,,,
2024-08-03 22:05:07.079482,7.074847049803878e-05,0.0010752880910818812,0.0,-1.5699951619724952,-0.0031729075052417044,0.0,-1.3018824007282603e-05,0.0013976149236432991,0.0,-1.5699811649706072,4.703790897344739e-05,0.0,-1.986264450071218e-05,-0.001075187146968446,0.0,-1.6992926047620927e-05,-0.00034003035179293664,0.0,,,,,,
2024-08-03 22:05:07.089770,7.074847049892696e-05,0.0010752880910435342,0.0,-1.5699951619724952,-0.003172907505196466,0.0,-1.3018824007282603e-05,0.0013976149235155246,0.0,-1.5699811649706064,4.703790898339874e-05,0.0,-1.986264450071218e-05,-0.0010751871468026638,0.0,-1.6992926046732748e-05,-0.0003400303518652207,0.0,,,,,,
2024-08-03 22:05:07.099482,7.074847049803878e-05,0.001075288091057742,0.0,-1.5699951619724952,-0.0031729075052170743,0.0,-1.3018824006394425e-05,0.0013976149235226888,0.0,-1.5699811649706064,4.703790884802146e-05,0.0,-1.986264450071218e-05,-0.0010751871468871637,0.0,-1.6992926047620927e-05,-0.0003400303517450675,0.0,,,,,,
2024-08-03 22:05:07.109695,7.074847049803878e-05,0.0010752880910819853,0.0,-1.5699951619724952,-0.003172907505228862,0.0,-1.3018824008170782e-05,0.0013976149234822103,0.0,-1.5699811649706072,4.703790904009796e-05,0.0,-1.986264450071218e-05,-0.0010751871468471683,0.0,-1.6992926047620927e-05,-0.00034003035177959456,0.0,,,,,,
2024-08-03 22:05:07.119558,7.074847049892696e-05,0.0010752880910681532,0.0,-1.5699951619724952,-0.003172907505227635,0.0,-1.3018824007282603e-05,0.0013976149234792147,0.0,-1.5699811649706072,4.7037909075704136e-05,0.0,-1.9862644501600357e-05,-0.001075187146783828,0.0,-1.6992926048509105e-05,-0.00034003035192225995,0.0,,,,,,
2024-08-03 22:05:07.129639,7.074847049892696e-05,0.0010752880910536032,0.0,-1.5699951619724952,-0.0031729075052011617,0.0,-1.3018824006394425e-05,0.0013976149235812218,0.0,-1.5699811649706064,4.7037908985724896e-05,0.0,-1.986264450071218e-05,-0.001075187146855211,0.0,-1.6992926047620927e-05,-0.00034003035185681935,0.0,,,,,,
2024-08-03 22:05:07.139268,7.074847049892696e-05,0.0010752880910427892,0.0,-1.5699951619724952,-0.003172907505191852,0.0,-1.3018824008170782e-05,0.0013976149235674935,0.0,-1.5699811649706072,4.7037908853482806e-05,0.0,-1.9862644501600357e-05,-0.001075187146900122,0.0,-1.6992926047620927e-05,-0.0003400303518166487,0.0,,,,,,
2024-08-03 22:05:07.149515,7.074847049803878e-05,0.0010752880910511312,0.0,-1.5699951619724934,-0.003172907505226407,0.0,-1.3018824006394425e-05,0.0013976149235415325,0.0,-1.5699811649706072,4.7037908965454436e-05,0.0,-1.986264450071218e-05,-0.001075187146897438,0.0,-1.6992926047620927e-05,-0.00034003035183954834,0.0,,,,,,
2024-08-03 22:05:07.159826,7.074847049892696e-05,0.0010752880910710864,0.0,-1.5699951619724952,-0.003172907505239467,0.0,-1.3018824008170782e-05,0.0013976149235706012,0.0,-1.5699811649706072,4.7037909076389026e-05,0.0,-1.986264450071218e-05,-0.0010751871469309436,0.0,-1.6992926046732748e-05,-0.00034003035185769994,0.0,,,,,,
2024-08-03 22:05:07.169399,7.074847049892696e-05,0.0010752880910561064,0.0,-1.5699951619724952,-0.003172907505267812,0.0,-1.3018824007282603e-05,0.0013976149235326138,0.0,-1.5699811649706072,4.703790910717495e-05,0.0,-1.986264450071218e-05,-0.001075187146891335,0.0,-1.6992926047620927e-05,-0.00034003035187168257,0.0,,,,,,
2024-08-03 22:05:07.179748,7.074847049892696e-05,0.0010752880910948899,0.0,-1.5699951619724952,-0.003172907505267874,0.0,-1.3018824008170782e-05,0.0013976149235691703,0.0,-1.5699811649706072,4.7037909053051466e-05,0.0,-1.986264450071218e-05,-0.0010751871469461337,0.0,-1.6992926047620927e-05,-0.0003400303518434556,0.0,,,,,,
2024-08-03 22:05:07.189333,7.074847049892696e-05,0.0010752880910782786,0.0,-1.5699951619724943,-0.0031729075052222395,0.0,-1.3018824007282603e-05,0.0013976149236300701,0.0,-1.5699811649706072,4.7037908920788776e-05,0.0,-1.986264450071218e-05,-0.001075187146933257,0.0,-1.6992926047620927e-05,-0.00034003035189400955,0.0,,,,,,
2024-08-03 22:05:07.199556,7.074847049892696e-05,0.0010752880910879503,0.0,-1.5699951619724952,-0.003172907505210266,0.0,-1.3018824008170782e-05,0.001397614923614889,0.0,-1.5699811649706072,4.703790893156824e-05,0.0,-1.9862644501600357e-05,-0.0010751871469884032,0.0,-1.6992926047620927e-05,-0.00034003035196176687,0.0,,,,,,
2024-08-03 22:05:07.209398,7.074847049892696e-05,0.00107528809106898,0.0,-1.5699951619724952,-0.003172907505211359,0.0,-1.3018824008170782e-05,0.0013976149234186854,0.0,-1.5699811649706064,4.703790908878666e-05,0.0,-1.986264450071218e-05,-0.0010751871469441684,0.0,-1.6992926048509105e-05,-0.00034003035193330743,0.0,,,,,,
2024-08-03 22:05:07.219582,7.074847049892696e-05,0.001075288091122329,0.0,-1.5699951619724952,-0.003172907505188933,0.0,-1.3018824007282603e-05,0.0013976149234831508,0.0,-1.5699811649706072,4.703790917363025e-05,0.0,-1.986264450071218e-05,-0.0010751871469595877,0.0,-1.6992926046732748e-05,-0.0003400303519255094,0.0,,,,,,
2024-08-03 22:05:07.229286,7.074847049892696e-05,0.0010752880910686585,0.0,-1.5699951619724952,-0.0031729075052178606,0.0,-1.3018824007282603e-05,0.0013976149234888238,0.0,-1.5699811649706072,4.703790885940439e-05,0.0,-1.986264450071218e-05,-0.001075187146889137,0.0,-1.6992926047620927e-05,-0.00034003035164280814,0.0,,,,,,
2024-08-03 22:05:07.239581,7.074847049892696e-05,0.0010752880910347357,0.0,-1.5699951619724952,-0.00317290750519225,0.0,-1.3018824007282603e-05,0.0013976149235866665,0.0,-1.5699811649706072,4.703790881952191e-05,0.0,-1.9862644501600357e-05,-0.0010751871469404772,0.0,-1.6992926047620927e-05,-0.0003400303518113441,0.0,,,,,,
2024-08-03 22:05:07.249760,7.074847049892696e-05,0.0010752880910244221,0.0,-1.5699951619724952,-0.0031729075052521548,0.0,-1.3018824006394425e-05,0.0013976149236599317,0.0,-1.5699811649706072,4.703790888137304e-05,0.0,-1.986264450071218e-05,-0.0010751871467777109,0.0,-1.6992926047620927e-05,-0.00034003035169122536,0.0,,,,,,
2024-08-03 22:05:07.259458,7.074847049892696e-05,0.0010752880910354227,0.0,-1.5699951619724952,-0.0031729075052171632,0.0,-1.3018824007282603e-05,0.0013976149234796245,0.0,-1.5699811649706064,4.703790900165486e-05,0.0,-1.986264450071218e-05,-0.0010751871468143712,0.0,-1.6992926047620927e-05,-0.0003400303517388509,0.0,,,,,,
2024-08-03 22:05:07.269658,7.074847049892696e-05,0.001075288091100369,0.0,-1.5699951619724952,-0.003172907505216858,0.0,-1.3018824007282603e-05,0.0013976149235756011,0.0,-1.5699811649706072,4.703790902214227e-05,0.0,-1.9862644501600357e-05,-0.001075187146855399,0.0,-1.6992926047620927e-05,-0.00034003035196495963,0.0,,,,,,
2024-08-03 22:05:07.279378,7.074847049892696e-05,0.001075288091018857,0.0,-1.5699951619724952,-0.0031729075051594212,0.0,-1.3018824006394425e-05,0.0013976149235752809,0.0,-1.5699811649706072,4.703790900172143e-05,0.0,-1.986264450071218e-05,-0.0010751871468366423,0.0,-1.6992926047620927e-05,-0.0003400303519793407,0.0,,,,,,
2024-08-03 22:05:07.289680,7.074847049892696e-05,0.0010752880910890699,0.0,-1.5699951619724952,-0.003172907505194539,0.0,-1.3018824006394425e-05,0.0013976149233715864,0.0,-1.5699811649706072,4.703790914153516e-05,0.0,-1.986264450071218e-05,-0.0010751871469326885,0.0,-1.6992926047620927e-05,-0.0003400303517898574,0.0,,,,,,
2024-08-03 22:05:07.299259,7.074847049892696e-05,0.0010752880910318214,0.0,-1.5699951619724952,-0.0031729075052364234,0.0,-1.3018824008170782e-05,0.0013976149235928334,0.0,-1.5699811649706064,4.7037909079023204e-05,0.0,-1.986264450071218e-05,-0.001075187146842844,0.0,-1.6992926047620927e-05,-0.00034003035193218886,0.0,,,,,,
2024-08-03 22:05:07.309515,7.074847049892696e-05,0.0010752880910667815,0.0,-1.5699951619724934,-0.0031729075052418735,0.0,-1.3018824007282603e-05,0.001397614923667227,0.0,-1.5699811649706081,4.7037908922073664e-05,0.0,-1.986264450071218e-05,-0.0010751871468336841,0.0,-1.6992926048509105e-05,-0.00034003035177896225,0.0,,,,,,
2024-08-03 22:05:07.319814,7.074847049892696e-05,0.001075288091044094,0.0,-1.5699951619724952,-0.0031729075051762463,0.0,-1.3018824007282603e-05,0.001397614923418035,0.0,-1.5699811649706064,4.70379089230257e-05,0.0,-1.9862644501600357e-05,-0.0010751871469097587,0.0,-1.6992926047620927e-05,-0.00034003035160817233,0.0,,,,,,
2024-08-03 22:05:07.329456,7.074847049892696e-05,0.0010752880910585045,0.0,-1.5699951619724952,-0.0031729075052576703,0.0,-1.3018824006394425e-05,0.001397614923597561,0.0,-1.5699811649706072,4.703790882036867e-05,0.0,-1.986264450071218e-05,-0.0010751871468981885,0.0,-1.6992926046732748e-05,-0.00034003035160793716,0.0,,,,,,
2024-08-03 22:05:07.339685,7.074847049892696e-05,0.0010752880911049792,0.0,-1.5699951619724952,-0.0031729075052357595,0.0,-1.3018824008170782e-05,0.0013976149234219675,0.0,-1.5699811649706064,4.7037909156762777e-05,0.0,-1.9862644501600357e-05,-0.00107518714689965,0.0,-1.6992926046732748e-05,-0.0003400303518789075,0.0,,,,,,
2024-08-03 22:05:07.349430,7.074847049892696e-05,0.0010752880910466101,0.0,-1.5699951619724952,-0.003172907505223913,0.0,-1.3018824007282603e-05,0.0013976149235333378,0.0,-1.5699811649706081,4.703790891456123e-05,0.0,-1.986264450071218e-05,-0.0010751871467819358,0.0,-1.6992926047620927e-05,-0.00034003035185360794,0.0,,,,,,
2024-08-03 22:05:07.359673,7.074847049892696e-05,0.0010752880910680548,0.0,-1.5699951619724943,-0.0031729075052248715,0.0,-1.3018824006394425e-05,0.0013976149235582053,0.0,-1.5699811649706072,4.703790887496486e-05,0.0,-1.9862644501600357e-05,-0.0010751871468953045,0.0,-1.6992926047620927e-05,-0.00034003035182095167,0.0,,,,,,
2024-08-03 22:05:07.369962,7.074847049803878e-05,0.0010752880910453013,0.0,-1.5699951619724952,-0.003172907505241794,0.0,-1.3018824007282603e-05,0.0013976149236540627,0.0,-1.5699811649706072,4.703790883680062e-05,0.0,-1.986264450071218e-05,-0.001075187146917773,0.0,-1.6992926048509105e-05,-0.00034003035189452205,0.0,,,,,,
2024-08-03 22:05:07.379706,7.074847049803878e-05,0.0010752880910401255,0.0,-1.5699951619724952,-0.0031729075051932943,0.0,-1.3018824006394425e-05,0.001397614923542448,0.0,-1.5699811649706064,4.703790887692423e-05,0.0,-1.986264450071218e-05,-0.001075187146905753,0.0,-1.6992926048509105e-05,-0.00034003035175444595,0.0,,,,,,
2024-08-03 22:05:07.389915,7.074847049892696e-05,0.0010752880910569556,0.0,-1.5699951619724952,-0.0031729075052078027,0.0,-1.3018824008170782e-05,0.0013976149236602235,0.0,-1.5699811649706072,4.703790880730978e-05,0.0,-1.986264450071218e-05,-0.0010751871468906897,0.0,-1.6992926046732748e-05,-0.0003400303516424419,0.0,,,,,,
2024-08-03 22:05:07.399803,7.074847049803878e-05,0.001075288091041049,0.0,-1.5699951619724952,-0.003172907505205316,0.0,-1.3018824007282603e-05,0.001397614923636637,0.0,-1.5699811649706072,4.7037908838136575e-05,0.0,-1.9862644501600357e-05,-0.0010751871467590678,0.0,-1.6992926047620927e-05,-0.0003400303517896708,0.0,,,,,,
2024-08-03 22:05:07.410115,7.074847049892696e-05,0.0010752880910528306,0.0,-1.5699951619724952,-0.0031729075052366025,0.0,-1.3018824008170782e-05,0.0013976149235911252,0.0,-1.5699811649706072,4.7037909037836315e-05,0.0,-1.986264450071218e-05,-0.0010751871468757219,0.0,-1.6992926047620927e-05,-0.000340030351968401,0.0,,,,,,
2024-08-03 22:05:07.419801,7.074847049892696e-05,0.0010752880910493811,0.0,-1.5699951619724952,-0.00317290750521625,0.0,-1.3018824008170782e-05,0.001397614923629358,0.0,-1.5699811649706072,4.7037908991967516e-05,0.0,-1.986264450071218e-05,-0.001075187146917402,0.0,-1.6992926047620927e-05,-0.0003400303519001599,0.0,,,,,,
2024-08-03 22:05:07.430144,7.074847049803878e-05,0.0010752880910571269,0.0,-1.5699951619724952,-0.003172907505193736,0.0,-1.3018824008170782e-05,0.0013976149235027059,0.0,-1.5699811649706072,4.703790886563118e-05,0.0,-1.986264450071218e-05,-0.0010751871468839408,0.0,-1.6992926047620927e-05,-0.0003400303518590859,0.0,,,,,,
2024-08-03 22:05:07.439784,7.074847049892696e-05,0.0010752880910327146,0.0,-1.5699951619724952,-0.0031729075052412655,0.0,-1.3018824008170782e-05,0.0013976149235429797,0.0,-1.5699811649706064,4.703790919374394e-05,0.0,-1.986264450071218e-05,-0.001075187146926164,0.0,-1.6992926047620927e-05,-0.00034003035199217364,0.0,,,,,,
2024-08-03 22:05:07.450258,7.074847049803878e-05,0.0010752880910289272,0.0,-1.5699951619724952,-0.0031729075052363484,0.0,-1.3018824006394425e-05,0.001397614923552067,0.0,-1.5699811649706072,4.703790910941502e-05,0.0,-1.986264450071218e-05,-0.001075187146835692,0.0,-1.6992926048509105e-05,-0.0003400303520160906,0.0,,,,,,
2024-08-03 22:05:07.459754,7.074847049892696e-05,0.0010752880910875667,0.0,-1.5699951619724952,-0.003172907505236678,0.0,-1.3018824006394425e-05,0.0013976149235648847,0.0,-1.5699811649706072,4.703790896611114e-05,0.0,-1.9862644501600357e-05,-0.0010751871469723087,0.0,-1.6992926047620927e-05,-0.0003400303518093212,0.0,,,,,,
2024-08-03 22:05:07.470097,7.074847049803878e-05,0.0010752880910457137,0.0,-1.5699951619724952,-0.003172907505206256,0.0,-1.3018824007282603e-05,0.001397614923564551,0.0,-1.5699811649706072,4.7037909034405574e-05,0.0,-1.986264450071218e-05,-0.001075187146881655,0.0,-1.6992926047620927e-05,-0.000340030351917007,0.0,,,,,,
2024-08-03 22:05:07.480023,7.074847049892696e-05,0.001075288091067203,0.0,-1.5699951619724952,-0.003172907505256397,0.0,-1.3018824007282603e-05,0.0013976149235672278,0.0,-1.5699811649706064,4.703790914651598e-05,0.0,-1.986264450071218e-05,-0.0010751871469372447,0.0,-1.6992926047620927e-05,-0.00034003035204013365,0.0,,,,,,
2024-08-03 22:05:07.489694,7.074847049892696e-05,0.0010752880910624074,0.0,-1.5699951619724952,-0.0031729075052646543,0.0,-1.3018824006394425e-05,0.0013976149235533073,0.0,-1.5699811649706072,4.703790906447408e-05,0.0,-1.9862644501600357e-05,-0.0010751871469502924,0.0,-1.6992926047620927e-05,-0.0003400303519771632,0.0,,,,,,
2024-08-03 22:05:07.500203,7.074847049892696e-05,0.00107528809108374,0.0,-1.5699951619724952,-0.003172907505225624,0.0,-1.3018824008170782e-05,0.001397614923520492,0.0,-1.5699811649706072,4.7037908982597624e-05,0.0,-1.9862644501600357e-05,-0.00107518714695725,0.0,-1.6992926047620927e-05,-0.0003400303518026485,0.0,,,,,,
2024-08-03 22:05:07.509850,7.074847049803878e-05,0.001075288091054324,0.0,-1.5699951619724952,-0.00317290750526112,0.0,-1.3018824006394425e-05,0.001397614923495247,0.0,-1.5699811649706072,4.7037908981821985e-05,0.0,-1.9862644501600357e-05,-0.0010751871469233266,0.0,-1.6992926047620927e-05,-0.00034003035172814483,0.0,,,,,,
2024-08-03 22:05:07.520047,7.074847049892696e-05,0.001075288091114804,0.0,-1.5699951619724952,-0.0031729075052240084,0.0,-1.3018824006394425e-05,0.0013976149234083265,0.0,-1.5699811649706064,4.703790909071817e-05,0.0,-1.986264450071218e-05,-0.0010751871469980752,0.0,-1.6992926046732748e-05,-0.00034003035185438944,0.0,,,,,,
2024-08-03 22:05:07.530003,7.074847049892696e-05,0.0010752880910885356,0.0,-1.5699951619724952,-0.00317290750522143,0.0,-1.3018824007282603e-05,0.0013976149236149056,0.0,-1.5699811649706072,4.703790885338837e-05,0.0,-1.9862644501600357e-05,-0.001075187146979481,0.0,-1.6992926047620927e-05,-0.0003400303516506776,0.0,,,,,,
2024-08-03 22:05:07.539956,7.074847049803878e-05,0.0010752880910621667,0.0,-1.5699951619724952,-0.003172907505248437,0.0,-1.3018824007282603e-05,0.0013976149234987414,0.0,-1.5699811649706072,4.703790911015997e-05,0.0,-1.986264450071218e-05,-0.0010751871468251191,0.0,-1.6992926047620927e-05,-0.00034003035178913933,0.0,,,,,,
2024-08-03 22:05:07.549760,7.074847049892696e-05,0.001075288091082132,0.0,-1.5699951619724952,-0.0031729075052620882,0.0,-1.3018824006394425e-05,0.001397614923651645,0.0,-1.5699811649706072,4.703790898724527e-05,0.0,-1.986264450071218e-05,-0.0010751871469849889,0.0,-1.6992926048509105e-05,-0.0003400303518853239,0.0,,,,,,
2024-08-03 22:05:07.560219,7.074847049892696e-05,0.0010752880910470549,0.0,-1.5699951619724952,-0.0031729075052242812,0.0,-1.3018824008170782e-05,0.0013976149235641563,0.0,-1.5699811649706072,4.703790882731461e-05,0.0,-1.9862644501600357e-05,-0.0010751871469563581,0.0,-1.6992926048509105e-05,-0.0003400303516934485,0.0,,,,,,
2024-08-03 22:05:07.569866,7.074847049803878e-05,0.0010752880910745155,0.0,-1.5699951619724952,-0.0031729075052244647,0.0,-1.3018824008170782e-05,0.0013976149236339342,0.0,-1.5699811649706072,4.7037908872967545e-05,0.0,-1.986264450071218e-05,-0.0010751871468745013,0.0,-1.6992926047620927e-05,-0.0003400303517752866,0.0,,,,,,
2024-08-03 22:05:07.580092,7.074847049892696e-05,0.001075288091021755,0.0,-1.5699951619724952,-0.003172907505215442,0.0,-1.3018824006394425e-05,0.0013976149235006574,0.0,-1.5699811649706072,4.703790913319721e-05,0.0,-1.986264450071218e-05,-0.0010751871468513748,0.0,-1.6992926048509105e-05,-0.00034003035184360206,0.0,,,,,,
2024-08-03 22:05:07.589727,7.074847049803878e-05,0.0010752880911015976,0.0,-1.5699951619724943,-0.0031729075051951643,0.0,-1.3018824008170782e-05,0.0013976149234452427,0.0,-1.5699811649706064,4.7037909043039835e-05,0.0,-1.9862644501600357e-05,-0.0010751871469501812,0.0,-1.6992926048509105e-05,-0.00034003035168108894,0.0,,,,,,
2024-08-03 22:05:07.599939,7.074847049892696e-05,0.0010752880910920512,0.0,-1.5699951619724934,-0.0031729075051527694,0.0,-1.3018824007282603e-05,0.001397614923460916,0.0,-1.5699811649706072,4.7037909110923684e-05,0.0,-1.986264450071218e-05,-0.0010751871469930963,0.0,-1.6992926048509105e-05,-0.00034003035196109954,0.0,,,,,,
2024-08-03 22:05:07.609555,7.074847049803878e-05,0.001075288091055581,0.0,-1.5699951619724952,-0.003172907505253365,0.0,-1.3018824006394425e-05,0.0013976149236013286,0.0,-1.5699811649706064,4.70379089792624e-05,0.0,-1.986264450071218e-05,-0.0010751871468000814,0.0,-1.6992926047620927e-05,-0.00034003035196180514,0.0,,,,,,
2024-08-03 22:05:07.619734,7.074847049892696e-05,0.0010752880910594193,0.0,-1.5699951619724952,-0.0031729075052284433,0.0,-1.3018824008170782e-05,0.0013976149235467154,0.0,-1.5699811649706064,4.7037908995840936e-05,0.0,-1.9862644501600357e-05,-0.0010751871469010731,0.0,-1.6992926047620927e-05,-0.00034003035193421805,0.0,,,,,,
2024-08-03 22:05:07.630089,7.074847049892696e-05,0.0010752880910670547,0.0,-1.5699951619724952,-0.003172907505204961,0.0,-1.3018824008170782e-05,0.0013976149235293512,0.0,-1.5699811649706072,4.7037909012406136e-05,0.0,-1.986264450071218e-05,-0.0010751871468513148,0.0,-1.6992926047620927e-05,-0.0003400303517795523,0.0,,,,,,
2024-08-03 22:05:07.639766,7.074847049803878e-05,0.0010752880910232321,0.0,-1.5699951619724952,-0.003172907505247455,0.0,-1.3018824008170782e-05,0.0013976149236250512,0.0,-1.5699811649706072,4.7037908757331204e-05,0.0,-1.986264450071218e-05,-0.0010751871469416594,0.0,-1.6992926047620927e-05,-0.00034003035169664637,0.0,,,,,,
2024-08-03 22:05:07.650316,7.074847049892696e-05,0.0010752880910534477,0.0,-1.5699951619724952,-0.0031729075052714718,0.0,-1.3018824006394425e-05,0.0013976149235006767,0.0,-1.5699811649706072,4.70379090026623e-05,0.0,-1.986264450071218e-05,-0.0010751871467264082,0.0,-1.6992926047620927e-05,-0.0003400303518605024,0.0,,,,,,
2024-08-03 22:05:07.660237,7.074847049892696e-05,0.0010752880910300205,0.0,-1.5699951619724952,-0.003172907505223638,0.0,-1.3018824008170782e-05,0.0013976149235566586,0.0,-1.5699811649706072,4.7037908899805886e-05,0.0,-1.9862644501600357e-05,-0.0010751871468893507,0.0,-1.6992926046732748e-05,-0.00034003035179785415,0.0,,,,,,
2024-08-03 22:05:07.669941,7.074847049892696e-05,0.0010752880910153073,0.0,-1.5699951619724952,-0.0031729075052347273,0.0,-1.3018824007282603e-05,0.001397614923630058,0.0,-1.5699811649706081,4.703790899947757e-05,0.0,-1.986264450071218e-05,-0.0010751871469112419,0.0,-1.6992926047620927e-05,-0.0003400303518920184,0.0,,,,,,
2024-08-03 22:05:07.680165,7.074847049803878e-05,0.0010752880911064106,0.0,-1.5699951619724952,-0.003172907505275789,0.0,-1.3018824008170782e-05,0.0013976149236605132,0.0,-1.5699811649706064,4.703790906823561e-05,0.0,-1.986264450071218e-05,-0.001075187146913832,0.0,-1.6992926047620927e-05,-0.00034003035201946594,0.0,,,,,,
2024-08-03 22:05:07.690282,7.074847049892696e-05,0.0010752880910658259,0.0,-1.5699951619724952,-0.0031729075052481437,0.0,-1.3018824007282603e-05,0.0013976149235308106,0.0,-1.5699811649706064,4.703790905292993e-05,0.0,-1.986264450071218e-05,-0.0010751871468034256,0.0,-1.6992926047620927e-05,-0.0003400303519112027,0.0,,,,,,
2024-08-03 22:05:07.700053,7.074847049803878e-05,0.0010752880910429813,0.0,-1.5699951619724952,-0.0031729075051874184,0.0,-1.3018824007282603e-05,0.0013976149235675134,0.0,-1.5699811649706072,4.70379088318289e-05,0.0,-1.9862644501600357e-05,-0.0010751871467652165,0.0,-1.6992926048509105e-05,-0.0003400303518041255,0.0,,,,,,
2024-08-03 22:05:07.710229,7.074847049892696e-05,0.0010752880910520589,0.0,-1.5699951619724952,-0.003172907505207462,0.0,-1.3018824007282603e-05,0.0013976149236845357,0.0,-1.5699811649706072,4.7037908764730775e-05,0.0,-1.986264450071218e-05,-0.0010751871468311553,0.0,-1.6992926047620927e-05,-0.0003400303518231375,0.0,,,,,,
2024-08-03 22:05:07.720010,7.074847049803878e-05,0.0010752880910669374,0.0,-1.5699951619724952,-0.003172907505237325,0.0,-1.3018824007282603e-05,0.001397614923525857,0.0,-1.5699811649706072,4.7037909099094713e-05,0.0,-1.9862644501600357e-05,-0.0010751871468433517,0.0,-1.6992926047620927e-05,-0.00034003035188385415,0.0,,,,,,
2024-08-03 22:05:07.730147,7.074847049892696e-05,0.0010752880910762858,0.0,-1.5699951619724952,-0.0031729075052587636,0.0,-1.3018824007282603e-05,0.0013976149235745774,0.0,-1.5699811649706064,4.7037909133279716e-05,0.0,-1.986264450071218e-05,-0.0010751871468694955,0.0,-1.6992926048509105e-05,-0.0003400303521103272,0.0,,,,,,
2024-08-03 22:05:07.739926,7.074847049892696e-05,0.001075288091073707,0.0,-1.5699951619724952,-0.003172907505233429,0.0,-1.3018824007282603e-05,0.001397614923526885,0.0,-1.5699811649706072,4.7037908875736706e-05,0.0,-1.9862644501600357e-05,-0.0010751871468532511,0.0,-1.6992926047620927e-05,-0.0003400303518768641,0.0,,,,,,
2024-08-03 22:05:07.750092,7.074847049803878e-05,0.0010752880910330181,0.0,-1.5699951619724943,-0.003172907505211099,0.0,-1.3018824007282603e-05,0.0013976149235757473,0.0,-1.5699811649706072,4.703790877240595e-05,0.0,-1.986264450071218e-05,-0.0010751871468574524,0.0,-1.6992926047620927e-05,-0.00034003035175145507,0.0,,,,,,
2024-08-03 22:05:07.759743,7.074847049892696e-05,0.0010752880910369221,0.0,-1.5699951619724943,-0.0031729075051784043,0.0,-1.3018824006394425e-05,0.0013976149234839652,0.0,-1.5699811649706064,4.7037909151752895e-05,0.0,-1.9862644501600357e-05,-0.0010751871469120275,0.0,-1.6992926047620927e-05,-0.00034003035191578087,0.0,,,,,,
2024-08-03 22:05:07.770058,7.074847049803878e-05,0.0010752880910657667,0.0,-1.5699951619724952,-0.0031729075052280534,0.0,-1.3018824007282603e-05,0.0013976149235789036,0.0,-1.5699811649706081,4.7037908946599184e-05,0.0,-1.986264450071218e-05,-0.001075187146899034,0.0,-1.6992926047620927e-05,-0.0003400303517877909,0.0,,,,,,
2024-08-03 22:05:07.780287,7.074847049892696e-05,0.0010752880910667281,0.0,-1.5699951619724952,-0.0031729075052600152,0.0,-1.3018824008170782e-05,0.0013976149236105684,0.0,-1.5699811649706072,4.70379090129915e-05,0.0,-1.986264450071218e-05,-0.0010751871468124472,0.0,-1.6992926047620927e-05,-0.0003400303519311889,0.0,,,,,,
2024-08-03 22:05:07.789819,7.074847049803878e-05,0.0010752880910468669,0.0,-1.5699951619724943,-0.003172907505243152,0.0,-1.3018824006394425e-05,0.0013976149236030314,0.0,-1.5699811649706064,4.703790912228287e-05,0.0,-1.9862644501600357e-05,-0.001075187146907652,0.0,-1.6992926048509105e-05,-0.00034003035202412606,0.0,,,,,,
2024-08-03 22:05:07.800131,7.074847049892696e-05,0.001075288091062734,0.0,-1.5699951619724952,-0.003172907505219627,0.0,-1.3018824006394425e-05,0.0013976149235279468,0.0,-1.5699811649706072,4.703790902617019e-05,0.0,-1.986264450071218e-05,-0.0010751871468500111,0.0,-1.6992926047620927e-05,-0.00034003035176028123,0.0,,,,,,
2024-08-03 22:05:07.810197,7.074847049892696e-05,0.0010752880910425966,0.0,-1.5699951619724952,-0.003172907505250845,0.0,-1.3018824007282603e-05,0.0013976149236839363,0.0,-1.5699811649706072,4.703790873059348e-05,0.0,-1.986264450071218e-05,-0.0010751871468911104,0.0,-1.6992926047620927e-05,-0.0003400303516864155,0.0,,,,,,
2024-08-03 22:05:07.819869,7.074847049892696e-05,0.0010752880910103956,0.0,-1.5699951619724952,-0.003172907505196292,0.0,-1.3018824008170782e-05,0.001397614923532494,0.0,-1.5699811649706081,4.70379088273531e-05,0.0,-1.986264450071218e-05,-0.0010751871468746726,0.0,-1.6992926047620927e-05,-0.0003400303517841775,0.0,,,,,,
2024-08-03 22:05:07.830116,7.074847049803878e-05,0.0010752880910189111,0.0,-1.5699951619724934,-0.0031729075052409307,0.0,-1.3018824006394425e-05,0.0013976149236415586,0.0,-1.5699811649706072,4.7037908661184155e-05,0.0,-1.9862644501600357e-05,-0.0010751871468084725,0.0,-1.6992926046732748e-05,-0.0003400303517962104,0.0,,,,,,
2024-08-03 22:05:07.839814,7.074847049892696e-05,0.0010752880910915414,0.0,-1.5699951619724952,-0.0031729075052386747,0.0,-1.3018824007282603e-05,0.0013976149236139298,0.0,-1.5699811649706072,4.7037908822872526e-05,0.0,-1.9862644501600357e-05,-0.0010751871468390735,0.0,-1.6992926047620927e-05,-0.0003400303518490761,0.0,,,,,,
2024-08-03 22:05:07.850362,7.074847049892696e-05,0.0010752880910735165,0.0,-1.5699951619724952,-0.0031729075051950004,0.0,-1.3018824007282603e-05,0.0013976149235377178,0.0,-1.5699811649706072,4.703790904768282e-05,0.0,-1.986264450071218e-05,-0.001075187146813637,0.0,-1.6992926047620927e-05,-0.00034003035180415575,0.0,,,,,,
2024-08-03 22:05:07.860052,7.074847049803878e-05,0.0010752880910306,0.0,-1.5699951619724952,-0.00317290750522886,0.0,-1.3018824006394425e-05,0.0013976149235722978,0.0,-1.5699811649706081,4.703790887532536e-05,0.0,-1.986264450071218e-05,-0.001075187146867669,0.0,-1.6992926048509105e-05,-0.0003400303517403047,0.0,,,,,,
2024-08-03 22:05:07.869809,7.074847049892696e-05,0.0010752880910635282,0.0,-1.5699951619724952,-0.0031729075052392645,0.0,-1.3018824008170782e-05,0.0013976149235401763,0.0,-1.5699811649706072,4.7037908907364184e-05,0.0,-1.986264450071218e-05,-0.0010751871468695328,0.0,-1.6992926047620927e-05,-0.0003400303517091326,0.0,,,,,,
2024-08-03 22:05:07.880115,7.074847049892696e-05,0.0010752880910641915,0.0,-1.5699951619724952,-0.003172907505214366,0.0,-1.3018824008170782e-05,0.0013976149234931157,0.0,-1.5699811649706064,4.703790903585537e-05,0.0,-1.986264450071218e-05,-0.0010751871469577685,0.0,-1.6992926047620927e-05,-0.00034003035189147826,0.0,,,,,,
2024-08-03 22:05:07.889755,7.074847049892696e-05,0.0010752880910669873,0.0,-1.5699951619724952,-0.003172907505215731,0.0,-1.3018824008170782e-05,0.0013976149235038577,0.0,-1.5699811649706072,4.703790912256281e-05,0.0,-1.986264450071218e-05,-0.0010751871468809013,0.0,-1.6992926048509105e-05,-0.00034003035191380816,0.0,,,,,,
2024-08-03 22:05:07.899983,7.074847049892696e-05,0.0010752880910941164,0.0,-1.5699951619724952,-0.00317290750519883,0.0,-1.3018824007282603e-05,0.0013976149235020896,0.0,-1.5699811649706064,4.703790904676526e-05,0.0,-1.9862644501600357e-05,-0.0010751871469703537,0.0,-1.6992926048509105e-05,-0.0003400303518783412,0.0,,,,,,
2024-08-03 22:05:07.909932,7.074847049892696e-05,0.0010752880910627576,0.0,-1.5699951619724952,-0.0031729075052776504,0.0,-1.3018824006394425e-05,0.0013976149236932156,0.0,-1.5699811649706072,4.7037908884894637e-05,0.0,-1.986264450071218e-05,-0.001075187146831486,0.0,-1.6992926046732748e-05,-0.0003400303517941862,0.0,,,,,,
2024-08-03 22:05:07.919588,7.074847049803878e-05,0.001075288091045565,0.0,-1.5699951619724952,-0.003172907505187588,0.0,-1.3018824008170782e-05,0.0013976149234669697,0.0,-1.5699811649706064,4.703790901322579e-05,0.0,-1.986264450071218e-05,-0.0010751871468797792,0.0,-1.6992926047620927e-05,-0.00034003035188650004,0.0,,,,,,
2024-08-03 22:05:07.929818,7.074847049892696e-05,0.0010752880910456012,0.0,-1.5699951619724952,-0.003172907505240921,0.0,-1.3018824008170782e-05,0.0013976149235199078,0.0,-1.5699811649706072,4.7037908970021095e-05,0.0,-1.9862644501600357e-05,-0.001075187146882712,0.0,-1.6992926047620927e-05,-0.00034003035185427126,0.0,,,,,,
2024-08-03 22:05:07.940204,7.074847049892696e-05,0.00107528809107413,0.0,-1.5699951619724952,-0.003172907505263432,0.0,-1.3018824006394425e-05,0.0013976149235967244,0.0,-1.5699811649706064,4.70379089349722e-05,0.0,-1.9862644501600357e-05,-0.0010751871469129501,0.0,-1.6992926046732748e-05,-0.0003400303518516349,0.0,,,,,,
2024-08-03 22:05:07.950142,7.074847049892696e-05,0.001075288091091018,0.0,-1.5699951619724952,-0.0031729075052514123,0.0,-1.3018824008170782e-05,0.0013976149234747846,0.0,-1.5699811649706072,4.7037909032555275e-05,0.0,-1.986264450071218e-05,-0.0010751871469381485,0.0,-1.6992926046732748e-05,-0.0003400303516986299,0.0,,,,,,
2024-08-03 22:05:07.960426,7.074847049803878e-05,0.0010752880910439282,0.0,-1.5699951619724952,-0.0031729075052416675,0.0,-1.3018824008170782e-05,0.0013976149235211122,0.0,-1.5699811649706081,4.703790870331831e-05,0.0,-1.986264450071218e-05,-0.0010751871468270696,0.0,-1.6992926047620927e-05,-0.0003400303516182139,0.0,,,,,,
2024-08-03 22:05:07.970047,7.074847049892696e-05,0.0010752880910661724,0.0,-1.5699951619724952,-0.0031729075052271956,0.0,-1.3018824007282603e-05,0.0013976149235471365,0.0,-1.5699811649706072,4.7037909070653705e-05,0.0,-1.986264450071218e-05,-0.0010751871469125175,0.0,-1.6992926047620927e-05,-0.00034003035196094743,0.0,,,,,,
2024-08-03 22:05:07.980350,7.074847049892696e-05,0.0010752880910561403,0.0,-1.5699951619724943,-0.0031729075052606835,0.0,-1.3018824007282603e-05,0.0013976149236776109,0.0,-1.5699811649706072,4.703790897885062e-05,0.0,-1.986264450071218e-05,-0.001075187146919958,0.0,-1.6992926047620927e-05,-0.000340030351879693,0.0,,,,,,
2024-08-03 22:05:07.990019,7.074847049803878e-05,0.001075288091036284,0.0,-1.5699951619724952,-0.0031729075052484724,0.0,-1.3018824007282603e-05,0.0013976149236611091,0.0,-1.5699811649706072,4.7037908842678514e-05,0.0,-1.986264450071218e-05,-0.0010751871469043045,0.0,-1.6992926048509105e-05,-0.0003400303517536443,0.0,,,,,,
2024-08-03 22:05:08.000439,7.074847049892696e-05,0.0010752880910686123,0.0,-1.5699951619724952,-0.0031729075052575814,0.0,-1.3018824007282603e-05,0.0013976149236446934,0.0,-1.5699811649706072,4.703790902341198e-05,0.0,-1.986264450071218e-05,-0.0010751871469164335,0.0,-1.6992926047620927e-05,-0.0003400303519203843,0.0,,,,,,
2024-08-03 22:05:08.010456,7.074847049892696e-05,0.0010752880910554349,0.0,-1.5699951619724952,-0.003172907505180996,0.0,-1.3018824007282603e-05,0.0013976149236382045,0.0,-1.5699811649706064,4.7037908850877577e-05,0.0,-1.986264450071218e-05,-0.0010751871468509925,0.0,-1.6992926047620927e-05,-0.0003400303519209589,0.0,,,,,,
2024-08-03 22:05:08.020878,7.074847049892696e-05,0.0010752880910771265,0.0,-1.5699951619724952,-0.003172907505277673,0.0,-1.3018824006394425e-05,0.0013976149236728844,0.0,-1.5699811649706072,4.7037908887887685e-05,0.0,-1.986264450071218e-05,-0.001075187146937744,0.0,-1.6992926047620927e-05,-0.0003400303518256597,0.0,,,,,,
2024-08-03 22:05:08.030517,7.074847049803878e-05,0.0010752880910503667,0.0,-1.5699951619724952,-0.0031729075052815306,0.0,-1.3018824007282603e-05,0.0013976149235544757,0.0,-1.5699811649706072,4.703790909202311e-05,0.0,-1.986264450071218e-05,-0.001075187146901343,0.0,-1.6992926047620927e-05,-0.00034003035179688314,0.0,,,,,,
2024-08-03 22:05:08.040451,7.074847049892696e-05,0.0010752880910919885,0.0,-1.5699951619724952,-0.0031729075052397207,0.0,-1.3018824007282603e-05,0.0013976149235574121,0.0,-1.5699811649706072,4.703790903502411e-05,0.0,-1.986264450071218e-05,-0.0010751871468929548,0.0,-1.6992926048509105e-05,-0.00034003035192324083,0.0,,,,,,
2024-08-03 22:05:08.050731,7.074847049892696e-05,0.0010752880910426248,0.0,-1.5699951619724952,-0.003172907505268976,0.0,-1.3018824007282603e-05,0.0013976149235832482,0.0,-1.5699811649706072,4.7037909038464285e-05,0.0,-1.9862644501600357e-05,-0.0010751871467311101,0.0,-1.6992926047620927e-05,-0.00034003035197939036,0.0,,,,,,
2024-08-03 22:05:08.060412,7.074847049803878e-05,0.0010752880910700994,0.0,-1.5699951619724952,-0.003172907505231894,0.0,-1.3018824006394425e-05,0.0013976149235498338,0.0,-1.5699811649706064,4.703790894388326e-05,0.0,-1.9862644501600357e-05,-0.0010751871468996606,0.0,-1.6992926047620927e-05,-0.00034003035185567953,0.0,,,,,,
2024-08-03 22:05:08.070157,7.074847049892696e-05,0.0010752880910827958,0.0,-1.5699951619724961,-0.0031729075052599146,0.0,-1.3018824007282603e-05,0.0013976149234958312,0.0,-1.5699811649706064,4.703790906843337e-05,0.0,-1.986264450071218e-05,-0.0010751871467845533,0.0,-1.6992926047620927e-05,-0.0003400303518221228,0.0,,,,,,
2024-08-03 22:05:08.080571,7.074847049892696e-05,0.0010752880910376685,0.0,-1.5699951619724952,-0.0031729075051722634,0.0,-1.3018824008170782e-05,0.0013976149235349366,0.0,-1.5699811649706064,4.703790912566211e-05,0.0,-1.986264450071218e-05,-0.0010751871468271963,0.0,-1.6992926048509105e-05,-0.00034003035197941584,0.0,,,,,,
2024-08-03 22:05:08.090770,7.074847049803878e-05,0.001075288091060263,0.0,-1.5699951619724952,-0.0031729075052421827,0.0,-1.3018824007282603e-05,0.0013976149236427122,0.0,-1.5699811649706072,4.7037908973985914e-05,0.0,-1.986264450071218e-05,-0.0010751871468773718,0.0,-1.6992926047620927e-05,-0.000340030351923609,0.0,,,,,,
2024-08-03 22:05:08.100345,7.074847049892696e-05,0.001075288091055653,0.0,-1.5699951619724934,-0.0031729075052602815,0.0,-1.3018824006394425e-05,0.0013976149234770229,0.0,-1.5699811649706064,4.7037909084991954e-05,0.0,-1.9862644501600357e-05,-0.001075187146813439,0.0,-1.6992926047620927e-05,-0.00034003035178389114,0.0,,,,,,
2024-08-03 22:05:08.110655,7.074847049892696e-05,0.001075288091060816,0.0,-1.5699951619724952,-0.003172907505235293,0.0,-1.3018824007282603e-05,0.0013976149235355325,0.0,-1.5699811649706064,4.703790893821028e-05,0.0,-1.986264450071218e-05,-0.0010751871469161488,0.0,-1.6992926047620927e-05,-0.00034003035181424826,0.0,,,,,,
2024-08-03 22:05:08.120361,7.074847049892696e-05,0.0010752880910774854,0.0,-1.5699951619724952,-0.0031729075052605534,0.0,-1.3018824007282603e-05,0.001397614923572079,0.0,-1.5699811649706072,4.70379089589708e-05,0.0,-1.986264450071218e-05,-0.0010751871468972969,0.0,-1.6992926047620927e-05,-0.00034003035189178563,0.0,,,,,,
2024-08-03 22:05:08.130079,7.074847049892696e-05,0.0010752880910523737,0.0,-1.5699951619724952,-0.0031729075052973482,0.0,-1.3018824006394425e-05,0.001397614923627236,0.0,-1.5699811649706064,4.70379089981659e-05,0.0,-1.986264450071218e-05,-0.0010751871467558217,0.0,-1.6992926047620927e-05,-0.0003400303517769091,0.0,,,,,,
2024-08-03 22:05:08.140387,7.074847049892696e-05,0.0010752880910978823,0.0,-1.5699951619724952,-0.0031729075052805613,0.0,-1.3018824007282603e-05,0.001397614923544118,0.0,-1.5699811649706072,4.7037908994182974e-05,0.0,-1.986264450071218e-05,-0.001075187146868778,0.0,-1.6992926047620927e-05,-0.0003400303518201656,0.0,,,,,,
2024-08-03 22:05:08.150575,7.074847049892696e-05,0.001075288091077084,0.0,-1.5699951619724952,-0.0031729075053076967,0.0,-1.3018824006394425e-05,0.001397614923605497,0.0,-1.5699811649706072,4.703790891414641e-05,0.0,-1.986264450071218e-05,-0.0010751871468556407,0.0,-1.6992926047620927e-05,-0.0003400303518265225,0.0,,,,,,
2024-08-03 22:05:08.160349,7.074847049892696e-05,0.0010752880910374276,0.0,-1.5699951619724952,-0.0031729075052106424,0.0,-1.3018824008170782e-05,0.001397614923482328,0.0,-1.5699811649706064,4.703790909155615e-05,0.0,-1.9862644501600357e-05,-0.0010751871469013622,0.0,-1.6992926048509105e-05,-0.00034003035194145206,0.0,,,,,,
2024-08-03 22:05:08.170152,7.074847049892696e-05,0.001075288091059915,0.0,-1.5699951619724952,-0.0031729075052024493,0.0,-1.3018824006394425e-05,0.0013976149234450133,0.0,-1.5699811649706064,4.703790902369409e-05,0.0,-1.986264450071218e-05,-0.0010751871469529288,0.0,-1.6992926047620927e-05,-0.0003400303519105933,0.0,,,,,,
2024-08-03 22:05:08.180333,7.074847049892696e-05,0.0010752880910484665,0.0,-1.5699951619724952,-0.003172907505186214,0.0,-1.3018824008170782e-05,0.001397614923582934,0.0,-1.5699811649706072,4.7037908862756096e-05,0.0,-1.9862644501600357e-05,-0.0010751871468885953,0.0,-1.6992926046732748e-05,-0.0003400303517130513,0.0,,,,,,
2024-08-03 22:05:08.190621,7.074847049892696e-05,0.0010752880910300437,0.0,-1.5699951619724952,-0.003172907505166565,0.0,-1.3018824008170782e-05,0.0013976149235524814,0.0,-1.5699811649706072,4.703790887084294e-05,0.0,-1.986264450071218e-05,-0.0010751871467702496,0.0,-1.6992926047620927e-05,-0.0003400303517467121,0.0,,,,,,
2024-08-03 22:05:08.200455,7.074847049892696e-05,0.001075288091059105,0.0,-1.5699951619724934,-0.003172907505194277,0.0,-1.3018824008170782e-05,0.0013976149235748587,0.0,-1.5699811649706072,4.703790911046008e-05,0.0,-1.986264450071218e-05,-0.0010751871468551286,0.0,-1.6992926047620927e-05,-0.00034003035205809726,0.0,,,,,,
2024-08-03 22:05:08.210611,7.074847049892696e-05,0.0010752880910770623,0.0,-1.5699951619724952,-0.0031729075052856206,0.0,-1.3018824007282603e-05,0.0013976149236252624,0.0,-1.5699811649706072,4.703790905677277e-05,0.0,-1.9862644501600357e-05,-0.0010751871468556615,0.0,-1.6992926048509105e-05,-0.0003400303519331718,0.0,,,,,,
2024-08-03 22:05:08.220322,7.074847049803878e-05,0.0010752880910326042,0.0,-1.5699951619724952,-0.0031729075052407745,0.0,-1.3018824006394425e-05,0.0013976149235965288,0.0,-1.5699811649706072,4.7037908944100966e-05,0.0,-1.9862644501600357e-05,-0.001075187146867245,0.0,-1.6992926047620927e-05,-0.00034003035175143935,0.0,,,,,,
2024-08-03 22:05:08.230560,7.074847049892696e-05,0.0010752880910618815,0.0,-1.5699951619724952,-0.0031729075052700484,0.0,-1.3018824006394425e-05,0.0013976149235648216,0.0,-1.5699811649706072,4.703790887925516e-05,0.0,-1.986264450071218e-05,-0.0010751871467654763,0.0,-1.6992926047620927e-05,-0.0003400303517210716,0.0,,,,,,
2024-08-03 22:05:08.240200,7.074847049803878e-05,0.0010752880910205283,0.0,-1.5699951619724952,-0.00317290750523608,0.0,-1.3018824007282603e-05,0.0013976149235314739,0.0,-1.5699811649706072,4.703790893715654e-05,0.0,-1.986264450071218e-05,-0.0010751871468691653,0.0,-1.6992926046732748e-05,-0.00034003035164752464,0.0,,,,,,
2024-08-03 22:05:08.250441,7.074847049892696e-05,0.0010752880910594122,0.0,-1.5699951619724952,-0.003172907505217855,0.0,-1.3018824008170782e-05,0.0013976149235924197,0.0,-1.5699811649706081,4.703790893069188e-05,0.0,-1.986264450071218e-05,-0.0010751871469099443,0.0,-1.6992926048509105e-05,-0.0003400303518083773,0.0,,,,,,
2024-08-03 22:05:08.260790,7.074847049803878e-05,0.0010752880910497016,0.0,-1.5699951619724952,-0.003172907505203798,0.0,-1.3018824008170782e-05,0.0013976149234768435,0.0,-1.5699811649706072,4.7037909247085274e-05,0.0,-1.986264450071218e-05,-0.001075187146901758,0.0,-1.6992926047620927e-05,-0.00034003035201175867,0.0,,,,,,
2024-08-03 22:05:08.271423,7.074847049892696e-05,0.0010752880910660622,0.0,-1.5699951619724952,-0.0031729075052671024,0.0,-1.3018824007282603e-05,0.0013976149235557732,0.0,-1.5699811649706072,4.703790901563066e-05,0.0,-1.9862644501600357e-05,-0.0010751871468132638,0.0,-1.6992926047620927e-05,-0.0003400303519521781,0.0,,,,,,
2024-08-03 22:05:08.281034,7.074847049892696e-05,0.0010752880910712376,0.0,-1.5699951619724952,-0.003172907505268067,0.0,-1.3018824007282603e-05,0.0013976149236385317,0.0,-1.5699811649706072,4.7037909070585834e-05,0.0,-1.986264450071218e-05,-0.0010751871468853357,0.0,-1.6992926047620927e-05,-0.00034003035208685355,0.0,,,,,,
2024-08-03 22:05:08.291066,7.074847049892696e-05,0.0010752880910463699,0.0,-1.5699951619724961,-0.0031729075052134253,0.0,-1.3018824007282603e-05,0.0013976149236935172,0.0,-1.5699811649706064,4.703790906667468e-05,0.0,-1.9862644501600357e-05,-0.0010751871469198593,0.0,-1.6992926047620927e-05,-0.00034003035197254904,0.0,,,,,,
2024-08-03 22:05:08.300749,7.074847049892696e-05,0.0010752880910679993,0.0,-1.5699951619724952,-0.0031729075051474187,0.0,-1.301882400905896e-05,0.001397614923523143,0.0,-1.5699811649706072,4.703790911005155e-05,0.0,-1.9862644501600357e-05,-0.0010751871468206611,0.0,-1.6992926047620927e-05,-0.00034003035191831335,0.0,,,,,,
2024-08-03 22:05:08.310590,7.074847049803878e-05,0.0010752880910344619,0.0,-1.5699951619724943,-0.003172907505216123,0.0,-1.3018824007282603e-05,0.0013976149235105572,0.0,-1.5699811649706072,4.7037909088686156e-05,0.0,-1.986264450071218e-05,-0.0010751871468442618,0.0,-1.6992926048509105e-05,-0.00034003035191687786,0.0,,,,,,
2024-08-03 22:05:08.320964,7.074847049892696e-05,0.001075288091079721,0.0,-1.5699951619724952,-0.0031729075052230127,0.0,-1.3018824007282603e-05,0.001397614923501201,0.0,-1.5699811649706072,4.70379092526996e-05,0.0,-1.9862644501600357e-05,-0.0010751871468239452,0.0,-1.6992926048509105e-05,-0.00034003035205980455,0.0,,,,,,
2024-08-03 22:05:08.330752,7.074847049892696e-05,0.0010752880910872569,0.0,-1.5699951619724952,-0.0031729075051749353,0.0,-1.3018824008170782e-05,0.0013976149233215834,0.0,-1.5699811649706072,4.703790913015873e-05,0.0,-1.986264450071218e-05,-0.0010751871469364882,0.0,-1.6992926047620927e-05,-0.00034003035190062177,0.0,,,,,,
2024-08-03 22:05:08.340939,7.074847049892696e-05,0.0010752880910762607,0.0,-1.5699951619724952,-0.0031729075051754917,0.0,-1.3018824007282603e-05,0.0013976149234544207,0.0,-1.5699811649706064,4.703790909173211e-05,0.0,-1.986264450071218e-05,-0.001075187146818707,0.0,-1.6992926047620927e-05,-0.00034003035191432435,0.0,,,,,,
2024-08-03 22:05:08.350686,7.074847049892696e-05,0.0010752880910468354,0.0,-1.5699951619724952,-0.003172907505201673,0.0,-1.3018824008170782e-05,0.001397614923518902,0.0,-1.5699811649706064,4.703790915200562e-05,0.0,-1.986264450071218e-05,-0.0010751871467794699,0.0,-1.6992926047620927e-05,-0.0003400303519170046,0.0,,,,,,
2024-08-03 22:05:08.361002,7.074847049803878e-05,0.0010752880910489828,0.0,-1.5699951619724952,-0.0031729075052083326,0.0,-1.3018824008170782e-05,0.0013976149235079905,0.0,-1.5699811649706072,4.703790904492689e-05,0.0,-1.9862644501600357e-05,-0.0010751871468302056,0.0,-1.6992926047620927e-05,-0.0003400303518803084,0.0,,,,,,
2024-08-03 22:05:08.370565,7.074847049892696e-05,0.0010752880911037628,0.0,-1.5699951619724952,-0.003172907505217197,0.0,-1.3018824006394425e-05,0.0013976149235486375,0.0,-1.5699811649706072,4.7037908948232535e-05,0.0,-1.9862644501600357e-05,-0.001075187146848902,0.0,-1.6992926047620927e-05,-0.00034003035187941727,0.0,,,,,,
2024-08-03 22:05:08.380845,7.074847049892696e-05,0.0010752880910738416,0.0,-1.5699951619724952,-0.0031729075052060775,0.0,-1.3018824006394425e-05,0.0013976149235656646,0.0,-1.5699811649706081,4.703790886278602e-05,0.0,-1.986264450071218e-05,-0.001075187146832392,0.0,-1.6992926047620927e-05,-0.0003400303519319549,0.0,,,,,,
2024-08-03 22:05:08.390467,7.074847049803878e-05,0.0010752880910592255,0.0,-1.5699951619724952,-0.00317290750527295,0.0,-1.3018824006394425e-05,0.0013976149235890882,0.0,-1.5699811649706081,4.7037909010750234e-05,0.0,-1.986264450071218e-05,-0.0010751871468422743,0.0,-1.6992926047620927e-05,-0.00034003035197295865,0.0,,,,,,
2024-08-03 22:05:08.400795,7.074847049803878e-05,0.0010752880910391103,0.0,-1.5699951619724952,-0.0031729075052842554,0.0,-1.3018824008170782e-05,0.0013976149236022716,0.0,-1.5699811649706064,4.703790893897681e-05,0.0,-1.986264450071218e-05,-0.0010751871468051815,0.0,-1.6992926047620927e-05,-0.00034003035175820043,0.0,,,,,,
2024-08-03 22:05:08.410413,7.074847049892696e-05,0.0010752880910703093,0.0,-1.5699951619724952,-0.0031729075052256885,0.0,-1.3018824007282603e-05,0.0013976149235423946,0.0,-1.5699811649706072,4.703790903021687e-05,0.0,-1.986264450071218e-05,-0.0010751871469184121,0.0,-1.6992926047620927e-05,-0.0003400303518554975,0.0,,,,,,
2024-08-03 22:05:08.420705,7.074847049803878e-05,0.0010752880910308237,0.0,-1.5699951619724952,-0.003172907505255207,0.0,-1.3018824006394425e-05,0.0013976149236521514,0.0,-1.5699811649706064,4.7037909053570474e-05,0.0,-1.9862644501600357e-05,-0.0010751871468928146,0.0,-1.6992926048509105e-05,-0.00034003035187082323,0.0,,,,,,
2024-08-03 22:05:08.430928,7.074847049892696e-05,0.001075288091005452,0.0,-1.5699951619724952,-0.0031729075052009787,0.0,-1.3018824007282603e-05,0.0013976149235464612,0.0,-1.5699811649706072,4.7037909108671146e-05,0.0,-1.986264450071218e-05,-0.0010751871467494733,0.0,-1.6992926047620927e-05,-0.00034003035194386875,0.0,,,,,,
2024-08-03 22:05:08.440629,7.074847049892696e-05,0.00107528809110789,0.0,-1.5699951619724952,-0.003172907505218839,0.0,-1.3018824008170782e-05,0.0013976149236037717,0.0,-1.5699811649706072,4.703790904972741e-05,0.0,-1.9862644501600357e-05,-0.001075187146818439,0.0,-1.6992926048509105e-05,-0.00034003035197126437,0.0,,,,,,
2024-08-03 22:05:08.450856,7.074847049803878e-05,0.0010752880910614594,0.0,-1.5699951619724952,-0.003172907505210207,0.0,-1.3018824006394425e-05,0.0013976149234433864,0.0,-1.5699811649706064,4.703790916485006e-05,0.0,-1.986264450071218e-05,-0.0010751871467721491,0.0,-1.6992926047620927e-05,-0.00034003035190108136,0.0,,,,,,
2024-08-03 22:05:08.460639,7.074847049892696e-05,0.0010752880910522454,0.0,-1.5699951619724952,-0.0031729075052365106,0.0,-1.3018824006394425e-05,0.0013976149235812737,0.0,-1.5699811649706064,4.7037909009634915e-05,0.0,-1.986264450071218e-05,-0.001075187146841324,0.0,-1.6992926046732748e-05,-0.0003400303519331874,0.0,,,,,,
2024-08-03 22:05:08.470847,7.074847049892696e-05,0.0010752880910353101,0.0,-1.5699951619724952,-0.003172907505256014,0.0,-1.3018824008170782e-05,0.001397614923586878,0.0,-1.5699811649706072,4.703790894217011e-05,0.0,-1.986264450071218e-05,-0.0010751871468304645,0.0,-1.6992926047620927e-05,-0.0003400303517878901,0.0,,,,,,
2024-08-03 22:05:08.480599,7.074847049892696e-05,0.0010752880910697208,0.0,-1.5699951619724952,-0.0031729075051946955,0.0,-1.3018824007282603e-05,0.001397614923452424,0.0,-1.5699811649706072,4.703790909844007e-05,0.0,-1.986264450071218e-05,-0.0010751871469359083,0.0,-1.6992926047620927e-05,-0.0003400303519531412,0.0,,,,,,
2024-08-03 22:05:08.490819,7.074847049892696e-05,0.0010752880910470356,0.0,-1.5699951619724952,-0.0031729075052018578,0.0,-1.3018824006394425e-05,0.0013976149235175024,0.0,-1.5699811649706072,4.703790894107268e-05,0.0,-1.986264450071218e-05,-0.0010751871469151851,0.0,-1.6992926046732748e-05,-0.000340030351859171,0.0,,,,,,
2024-08-03 22:05:08.500559,7.074847049892696e-05,0.0010752880910840476,0.0,-1.5699951619724943,-0.0031729075052448893,0.0,-1.3018824007282603e-05,0.0013976149234369052,0.0,-1.5699811649706072,4.7037909181597295e-05,0.0,-1.986264450071218e-05,-0.0010751871468962797,0.0,-1.6992926047620927e-05,-0.00034003035206801424,0.0,,,,,,
2024-08-03 22:05:08.510830,7.074847049892696e-05,0.001075288091077818,0.0,-1.5699951619724952,-0.0031729075052927876,0.0,-1.3018824008170782e-05,0.0013976149236722207,0.0,-1.5699811649706081,4.7037908922086674e-05,0.0,-1.9862644501600357e-05,-0.0010751871468756456,0.0,-1.6992926046732748e-05,-0.00034003035173209664,0.0,,,,,,
2024-08-03 22:05:08.520682,7.074847049892696e-05,0.0010752880910811957,0.0,-1.5699951619724952,-0.0031729075052674112,0.0,-1.3018824007282603e-05,0.0013976149235929828,0.0,-1.5699811649706072,4.703790882978583e-05,0.0,-1.9862644501600357e-05,-0.0010751871468783396,0.0,-1.6992926047620927e-05,-0.00034003035174163133,0.0,,,,,,
2024-08-03 22:05:08.530889,7.074847049892696e-05,0.001075288091098171,0.0,-1.5699951619724952,-0.0031729075051798493,0.0,-1.3018824006394425e-05,0.001397614923440839,0.0,-1.5699811649706072,4.703790894621722e-05,0.0,-1.986264450071218e-05,-0.0010751871468912663,0.0,-1.6992926047620927e-05,-0.00034003035177682876,0.0,,,,,,
2024-08-03 22:05:08.540716,7.074847049803878e-05,0.0010752880910411427,0.0,-1.5699951619724952,-0.0031729075052432344,0.0,-1.3018824008170782e-05,0.0013976149236026416,0.0,-1.5699811649706064,4.703790894297589e-05,0.0,-1.986264450071218e-05,-0.0010751871469239296,0.0,-1.6992926047620927e-05,-0.0003400303518600182,0.0,,,,,,
2024-08-03 22:05:08.550948,7.074847049892696e-05,0.0010752880910690943,0.0,-1.5699951619724952,-0.003172907505229111,0.0,-1.3018824006394425e-05,0.0013976149235344778,0.0,-1.5699811649706064,4.703790904402136e-05,0.0,-1.986264450071218e-05,-0.0010751871468053526,0.0,-1.6992926047620927e-05,-0.0003400303519364749,0.0,,,,,,
2024-08-03 22:05:08.560743,7.074847049803878e-05,0.001075288091029409,0.0,-1.5699951619724952,-0.0031729075051967863,0.0,-1.3018824006394425e-05,0.001397614923459392,0.0,-1.5699811649706072,4.703790894280339e-05,0.0,-1.986264450071218e-05,-0.0010751871467413066,0.0,-1.6992926046732748e-05,-0.00034003035182230356,0.0,,,,,,
2024-08-03 22:05:08.570504,7.074847049892696e-05,0.0010752880910441416,0.0,-1.5699951619724934,-0.0031729075052356216,0.0,-1.3018824008170782e-05,0.001397614923645765,0.0,-1.5699811649706064,4.70379089443345e-05,0.0,-1.9862644501600357e-05,-0.00107518714683585,0.0,-1.6992926047620927e-05,-0.0003400303518328649,0.0,,,,,,
2024-08-03 22:05:08.580656,7.074847049803878e-05,0.0010752880910683664,0.0,-1.5699951619724952,-0.003172907505196201,0.0,-1.3018824008170782e-05,0.001397614923483051,0.0,-1.5699811649706064,4.703790902637901e-05,0.0,-1.986264450071218e-05,-0.0010751871468595066,0.0,-1.6992926047620927e-05,-0.0003400303518963149,0.0,,,,,,
2024-08-03 22:05:08.590880,7.074847049892696e-05,0.0010752880910808898,0.0,-1.5699951619724943,-0.003172907505242445,0.0,-1.3018824007282603e-05,0.0013976149236480514,0.0,-1.5699811649706072,4.703790880647581e-05,0.0,-1.9862644501600357e-05,-0.0010751871468879842,0.0,-1.6992926047620927e-05,-0.00034003035182181046,0.0,,,,,,
2024-08-03 22:05:08.600667,7.074847049892696e-05,0.001075288091102622,0.0,-1.5699951619724952,-0.0031729075052394067,0.0,-1.3018824008170782e-05,0.0013976149235789092,0.0,-1.5699811649706064,4.703790905014255e-05,0.0,-1.986264450071218e-05,-0.001075187146928838,0.0,-1.6992926047620927e-05,-0.0003400303517748478,0.0,,,,,,
2024-08-03 22:05:08.610779,7.074847049892696e-05,0.0010752880910707319,0.0,-1.5699951619724952,-0.0031729075052929975,0.0,-1.3018824008170782e-05,0.001397614923722039,0.0,-1.5699811649706072,4.703790885762847e-05,0.0,-1.9862644501600357e-05,-0.0010751871468196424,0.0,-1.6992926047620927e-05,-0.00034003035175329485,0.0,,,,,,
2024-08-03 22:05:08.620539,7.074847049892696e-05,0.0010752880911052809,0.0,-1.5699951619724943,-0.0031729075052415396,0.0,-1.3018824008170782e-05,0.001397614923641067,0.0,-1.5699811649706072,4.703790895957383e-05,0.0,-1.986264450071218e-05,-0.0010751871469625242,0.0,-1.6992926047620927e-05,-0.000340030351875341,0.0,,,,,,
2024-08-03 22:05:08.630860,7.074847049892696e-05,0.0010752880910990783,0.0,-1.5699951619724952,-0.0031729075052179772,0.0,-1.3018824007282603e-05,0.0013976149235409578,0.0,-1.5699811649706072,4.703790890023805e-05,0.0,-1.9862644501600357e-05,-0.0010751871468882462,0.0,-1.6992926047620927e-05,-0.0003400303518225245,0.0,,,,,,
2024-08-03 22:05:08.640666,7.074847049892696e-05,0.0010752880910678022,0.0,-1.5699951619724952,-0.0031729075051723466,0.0,-1.3018824006394425e-05,0.0013976149234821665,0.0,-1.5699811649706072,4.703790905897652e-05,0.0,-1.986264450071218e-05,-0.001075187146745088,0.0,-1.6992926047620927e-05,-0.00034003035193246826,0.0,,,,,,
2024-08-03 22:05:08.650916,7.074847049892696e-05,0.0010752880910490997,0.0,-1.5699951619724952,-0.0031729075051989174,0.0,-1.3018824007282603e-05,0.0013976149235833978,0.0,-1.5699811649706072,4.703790907764323e-05,0.0,-1.9862644501600357e-05,-0.0010751871468428346,0.0,-1.6992926048509105e-05,-0.0003400303520494808,0.0,,,,,,
2024-08-03 22:05:08.660507,7.074847049892696e-05,0.0010752880910516866,0.0,-1.5699951619724952,-0.003172907505291836,0.0,-1.3018824006394425e-05,0.0013976149235100128,0.0,-1.5699811649706072,4.703790904550596e-05,0.0,-1.986264450071218e-05,-0.0010751871469936358,0.0,-1.6992926047620927e-05,-0.00034003035191455626,0.0,,,,,,
2024-08-03 22:05:08.670810,7.074847049803878e-05,0.0010752880910365934,0.0,-1.5699951619724952,-0.0031729075052256235,0.0,-1.3018824007282603e-05,0.0013976149235481559,0.0,-1.5699811649706072,4.703790896954264e-05,0.0,-1.986264450071218e-05,-0.001075187146902542,0.0,-1.6992926047620927e-05,-0.0003400303517615553,0.0,,,,,,
2024-08-03 22:05:08.680688,7.074847049892696e-05,0.0010752880910388546,0.0,-1.5699951619724952,-0.0031729075052518464,0.0,-1.3018824007282603e-05,0.001397614923676546,0.0,-1.5699811649706064,4.703790878571551e-05,0.0,-1.986264450071218e-05,-0.0010751871468591572,0.0,-1.6992926047620927e-05,-0.00034003035191273177,0.0,,,,,,
2024-08-03 22:05:08.690645,7.074847049892696e-05,0.001075288091026611,0.0,-1.5699951619724952,-0.0031729075052510233,0.0,-1.3018824008170782e-05,0.0013976149235390817,0.0,-1.5699811649706072,4.7037909095372864e-05,0.0,-1.986264450071218e-05,-0.00107518714690644,0.0,-1.6992926047620927e-05,-0.0003400303519277907,0.0,,,,,,
2024-08-03 22:05:08.701134,7.074847049803878e-05,0.001075288091066976,0.0,-1.5699951619724952,-0.003172907505215764,0.0,-1.3018824008170782e-05,0.0013976149234906795,0.0,-1.5699811649706072,4.703790883666065e-05,0.0,-1.9862644501600357e-05,-0.0010751871467633877,0.0,-1.6992926048509105e-05,-0.00034003035173431394,0.0,,,,,,
2024-08-03 22:05:08.710569,7.074847049892696e-05,0.0010752880910757667,0.0,-1.5699951619724952,-0.00317290750525292,0.0,-1.3018824008170782e-05,0.0013976149235101322,0.0,-1.5699811649706064,4.7037909095980776e-05,0.0,-1.986264450071218e-05,-0.001075187147014603,0.0,-1.6992926047620927e-05,-0.0003400303519486092,0.0,,,,,,
2024-08-03 22:05:08.720884,7.074847049892696e-05,0.0010752880910699868,0.0,-1.5699951619724952,-0.003172907505291818,0.0,-1.3018824006394425e-05,0.0013976149235338936,0.0,-1.5699811649706072,4.703790909458606e-05,0.0,-1.9862644501600357e-05,-0.0010751871468959626,0.0,-1.6992926047620927e-05,-0.00034003035180623037,0.0,,,,,,
2024-08-03 22:05:08.730599,7.074847049803878e-05,0.0010752880910485563,0.0,-1.5699951619724952,-0.003172907505250275,0.0,-1.3018824008170782e-05,0.0013976149235236527,0.0,-1.5699811649706072,4.703790902193085e-05,0.0,-1.986264450071218e-05,-0.001075187146863416,0.0,-1.6992926048509105e-05,-0.00034003035176209033,0.0,,,,,,
2024-08-03 22:05:08.740848,7.074847049892696e-05,0.0010752880910343532,0.0,-1.5699951619724952,-0.0031729075052081305,0.0,-1.3018824006394425e-05,0.0013976149235832088,0.0,-1.5699811649706072,4.703790894687349e-05,0.0,-1.986264450071218e-05,-0.0010751871468852557,0.0,-1.6992926047620927e-05,-0.00034003035175667875,0.0,,,,,,
2024-08-03 22:05:08.750889,7.757338403990843e-05,0.0010748626244542227,0.0,-1.569998335321573,-0.0031733255404297325,0.0,-1.1646096429451802e-05,0.0013983478318525192,0.0,-1.5699811183386725,4.663425319016137e-05,0.0,-2.0590952710008992e-05,-0.0010747664326324824,0.0,-1.6857994443064683e-05,-0.00033990990954559596,0.0,,,,,,
2024-08-03 22:05:08.760786,7.757536135155618e-05,0.0010748663594615303,0.0,-1.569998335355402,-0.003173359367503077,0.0,-1.16460934744822e-05,0.0013983507404933516,0.0,-1.5699811183377506,4.663517454793942e-05,0.0,-2.05909770292223e-05,-0.0010747682896502537,0.0,-1.6857993681895778e-05,-0.00033990962933621433,0.0,,,,,,
2024-08-03 22:05:08.771048,8.432805042613012e-05,0.0010744411753750309,0.0,-1.5700015091304216,-0.003173785312199003,0.0,-1.0276437551581807e-05,0.0013990818129341644,0.0,-1.569981072108006,4.623298398563711e-05,0.0,-2.1349284408778146e-05,-0.0010743473680993147,0.0,-1.671994554719447e-05,-0.00033978845098734376,0.0,,,,,,
2024-08-03 22:05:08.780684,8.43282011393498e-05,0.0010744440592223756,0.0,-1.5700015091558244,-0.0031738107134018523,0.0,-1.0276435660649952e-05,0.001399083651375658,0.0,-1.5699810721072502,4.623373969248935e-05,0.0,-2.1349294728523205e-05,-0.0010743482535451499,0.0,-1.6719944902376938e-05,-0.0003397881233927469,0.0,,,,,,
2024-08-03 22:05:08.790988,8.43282008720081e-05,0.0010744443829454296,0.0,-1.5700015091588095,-0.0031738136989752546,0.0,-1.0276435366662895e-05,0.0013990839255251923,0.0,-1.569981072107188,4.623380284514574e-05,0.0,-2.134929508468275e-05,-0.0010743484067523344,0.0,-1.6719944947674037e-05,-0.00033978809963632463,0.0,,,,,,
2024-08-03 22:05:08.800689,8.432820052384216e-05,0.0010744444057400133,0.0,-1.5700015091591888,-0.003173814078632117,0.0,-1.0276435314260368e-05,0.0013990839656489867,0.0,-1.569981072107188,4.623380259098284e-05,0.0,-2.1349295240113975e-05,-0.0010743484313282307,0.0,-1.6719945017840132e-05,-0.0003397880979226579,0.0,,,,,,
2024-08-03 22:05:08.810951,8.432820027959309e-05,0.00107444439975784,0.0,-1.5700015091592598,-0.003173814149800577,0.0,-1.02764352964968e-05,0.0013990839756584529,0.0,-1.5699810721071916,4.6233798285871125e-05,0.0,-2.134929532715546e-05,-0.0010743484381447602,0.0,-1.6719945068466302e-05,-0.00033978809824921133,0.0,,,,,,
2024-08-03 22:05:08.820668,8.432820012149733e-05,0.0010744443938104297,0.0,-1.5700015091592865,-0.003173814176119955,0.0,-1.0276435286726837e-05,0.0013990839807384715,0.0,-1.5699810721071952,4.623379492569354e-05,0.0,-2.1349295381334343e-05,-0.0010743484418179647,0.0,-1.6719945101328904e-05,-0.0003397880985395659,0.0,,,,,,
2024-08-03 22:05:08.830922,8.432820002113317e-05,0.0010744443898583625,0.0,-1.5700015091593025,-0.0031738141908463063,0.0,-1.027643527962141e-05,0.001399083984210576,0.0,-1.5699810721071978,4.6233792870791716e-05,0.0,-2.134929541774966e-05,-0.0010743484441189692,0.0,-1.6719945121757007e-05,-0.00033978809888527393,0.0,,,,,,
2024-08-03 22:05:08.840916,8.432819995540797e-05,0.0010744443873502798,0.0,-1.5700015091593096,-0.0031738141999165413,0.0,-1.0276435275180518e-05,0.0013990839864533881,0.0,-1.5699810721071996,4.623379143227672e-05,0.0,-2.134929543995412e-05,-0.0010743484456345834,0.0,-1.6719945135079683e-05,-0.0003397880988822809,0.0,,,,,,
2024-08-03 22:05:08.851078,8.432819991366358e-05,0.001074444385718429,0.0,-1.5700015091593167,-0.00317381420568152,0.0,-1.0276435273404161e-05,0.0013990839878490233,0.0,-1.5699810721071996,4.6233790654355046e-05,0.0,-2.1349295454164974e-05,-0.0010743484466617286,0.0,-1.6719945143961468e-05,-0.00033978809897070624,0.0,,,,,,
2024-08-03 22:05:08.860759,8.432819988790641e-05,0.0010744443847438409,0.0,-1.5700015091593202,-0.003173814209363369,0.0,-1.0276435271627804e-05,0.0013990839888072925,0.0,-1.5699810721072005,4.623379007796108e-05,0.0,-2.13492954612704e-05,-0.0010743484472150843,0.0,-1.6719945149290538e-05,-0.0003397880993182481,0.0,,,,,,
2024-08-03 22:05:08.871091,8.43281998719192e-05,0.0010744443841176029,0.0,-1.570001509159323,-0.0031738142116894403,0.0,-1.0276435271627804e-05,0.0013990839892750976,0.0,-1.5699810721072005,4.6233789717933316e-05,0.0,-2.1349295469264007e-05,-0.0010743484476302117,0.0,-1.6719945152843252e-05,-0.0003397880991787678,0.0,,,,,,
2024-08-03 22:05:08.880735,8.432819986126106e-05,0.0010744443837138707,0.0,-1.5700015091593238,-0.003173814213119142,0.0,-1.0276435271627804e-05,0.0013990839895373446,0.0,-1.5699810721072005,4.623378954063753e-05,0.0,-2.134929547281672e-05,-0.0010743484478311597,0.0,-1.671994515461961e-05,-0.00033978809916713733,0.0,,,,,,
2024-08-03 22:05:08.891122,8.432819985415563e-05,0.0010744443833585217,0.0,-1.5700015091593247,-0.0031738142141567393,0.0,-1.0276435271627804e-05,0.001399083990019201,0.0,-1.5699810721072005,4.6233789601669655e-05,0.0,-2.1349295474593077e-05,-0.0010743484480790694,0.0,-1.6719945155507787e-05,-0.00033978809939992475,0.0,,,,,,
2024-08-03 22:05:08.900797,8.432819984971474e-05,0.001074444383286598,0.0,-1.5700015091593256,-0.003173814214770079,0.0,-1.0276435269851447e-05,0.0013990839900506818,0.0,-1.5699810721072005,4.623378946436141e-05,0.0,-2.1349295477257613e-05,-0.0010743484483040449,0.0,-1.6719945156395966e-05,-0.00033978809928577735,0.0,,,,,,
2024-08-03 22:05:08.911070,8.43281998470502e-05,0.0010744443831066845,0.0,-1.5700015091593265,-0.0031738142151187987,0.0,-1.0276435269851447e-05,0.001399083990135193,0.0,-1.5699810721072005,4.623378911414178e-05,0.0,-2.1349295477257613e-05,-0.001074348448249636,0.0,-1.6719945157284144e-05,-0.00033978809922506474,0.0,,,,,,
2024-08-03 22:05:08.920792,8.432819984527384e-05,0.0010744443830837528,0.0,-1.5700015091593256,-0.0031738142153840882,0.0,-1.0276435268963269e-05,0.0013990839903240725,0.0,-1.5699810721072005,4.62337893536158e-05,0.0,-2.134929547814579e-05,-0.0010743484483342414,0.0,-1.6719945157284144e-05,-0.0003397880993058633,0.0,,,,,,
2024-08-03 22:05:08.930765,8.432819984438567e-05,0.001074444383027561,0.0,-1.5700015091593256,-0.003173814215499047,0.0,-1.0276435268963269e-05,0.0013990839903028518,0.0,-1.5699810721072014,4.62337893438286e-05,0.0,-2.1349295477257613e-05,-0.0010743484483108075,0.0,-1.6719945157284144e-05,-0.0003397880993352817,0.0,,,,,,
2024-08-03 22:05:08.941090,8.432819984349749e-05,0.0010744443829535264,0.0,-1.5700015091593265,-0.003173814215587591,0.0,-1.027643526807509e-05,0.0013990839902270785,0.0,-1.5699810721072014,4.623378928800574e-05,0.0,-2.134929547814579e-05,-0.0010743484482642353,0.0,-1.6719945158172322e-05,-0.00033978809947903606,0.0,,,,,,
2024-08-03 22:05:08.950777,9.093261421710963e-05,0.0010740185870766984,0.0,-1.5700046834203796,-0.003174237515296544,0.0,-8.911104754538712e-06,0.0013998130795583172,0.0,-1.569981026277067,4.5832452284073465e-05,0.0,-2.2135286481095306e-05,-0.0010739268896926269,0.0,-1.6578683533552407e-05,-0.00033966654374362334,0.0,,,,,,
2024-08-03 22:05:08.960929,9.093263299941867e-05,0.001074021025407069,0.0,-1.5700046834411345,-0.0031742582720840633,0.0,-8.911103441811008e-06,0.001399814347857501,0.0,-1.569981026276393,4.5833126333002226e-05,0.0,-2.2135290708824584e-05,-0.0010739272695516144,0.0,-1.6578682853207738e-05,-0.00033966619660298993,0.0,,,,,,
2024-08-03 22:05:08.971195,9.735676319966302e-05,0.0010735953643386984,0.0,-1.5700078581283916,-0.003174684475200102,0.0,-7.5520734794665145e-06,0.0014005421890411409,0.0,-1.5699809808466183,4.5432766299320203e-05,0.0,-2.2946691633940475e-05,-0.001073505534296379,0.0,-1.6434109297414068e-05,-0.00033954439199172196,0.0,,,,,,
2024-08-03 22:05:08.980874,9.73567666084918e-05,0.0010735975766526342,0.0,-1.5700078581468861,-0.0031747029699887123,0.0,-7.552072438521407e-06,0.0014005431687002343,0.0,-1.5699809808459904,4.543339422271133e-05,0.0,-2.2946693347236646e-05,-0.0010735056406067233,0.0,-1.6434108658813784e-05,-0.00033954402995445764,0.0,,,,,,
2024-08-03 22:05:08.991146,9.735676611732913e-05,0.0010735978230453644,0.0,-1.5700078581490622,-0.0031747051448630845,0.0,-7.552072255556652e-06,0.0014005433288728597,0.0,-1.569980980845937,4.543344838267051e-05,0.0,-2.2946693521319617e-05,-0.0010735056938648534,0.0,-1.6434108680130066e-05,-0.00033954399931469055,0.0,,,,,,
2024-08-03 22:05:09.000781,9.73567656741281e-05,0.0010735978401286443,0.0,-1.5700078581493384,-0.0031747054229182203,0.0,-7.55207221736498e-06,0.0014005433539044597,0.0,-1.5699809808459362,4.543344880003229e-05,0.0,-2.2946693618131064e-05,-0.001073505705827579,0.0,-1.643410873342077e-05,-0.0003395439966256466,0.0,,,,,,
2024-08-03 22:05:09.011111,9.735676537570015e-05,0.0010735978354250765,0.0,-1.5700078581493917,-0.0031747054760664435,0.0,-7.552072203154125e-06,0.001400543361112216,0.0,-1.5699809808459388,4.543344553861251e-05,0.0,-2.2946693674974483e-05,-0.0010735057102515726,0.0,-1.64341087733888e-05,-0.0003395439968696503,0.0,,,,,,
2024-08-03 22:05:09.020866,9.735676518296543e-05,0.0010735978309747093,0.0,-1.570007858149413,-0.0031747054961220817,0.0,-7.552072193384163e-06,0.0014005433650252546,0.0,-1.5699809808459415,4.54334430741273e-05,0.0,-2.294669371050162e-05,-0.0010735057129320606,0.0,-1.6434108798257796e-05,-0.00033954399721611186,0.0,,,,,,
2024-08-03 22:05:09.031063,9.735676506039681e-05,0.001073597827981431,0.0,-1.5700078581494246,-0.003174705507281209,0.0,-7.552072188943271e-06,0.001400543367388503,0.0,-1.5699809808459433,4.543344175930123e-05,0.0,-2.294669373270608e-05,-0.0010735057147843853,0.0,-1.6434108814245008e-05,-0.0003395439971759437,0.0,,,,,,
2024-08-03 22:05:09.040913,9.735676498223711e-05,0.00107359782614748,0.0,-1.5700078581494317,-0.0031747055141984736,0.0,-7.552072185390557e-06,0.0014005433689578245,0.0,-1.5699809808459442,4.543344075209617e-05,0.0,-2.2946693747805114e-05,-0.001073505715859896,0.0,-1.643410882401497e-05,-0.0003395439974800341,0.0,,,,,,
2024-08-03 22:05:09.051030,9.735676493249912e-05,0.00107359782486211,0.0,-1.5700078581494343,-0.003174705518603471,0.0,-7.552072181837843e-06,0.0014005433702179754,0.0,-1.5699809808459442,4.543343975485742e-05,0.0,-2.2946693758463255e-05,-0.0010735057164871537,0.0,-1.643410882934404e-05,-0.00033954399744173303,0.0,,,,,,
2024-08-03 22:05:09.061174,9.73567649005247e-05,0.001073597824113376,0.0,-1.5700078581494379,-0.003174705521371929,0.0,-7.5520721800614865e-06,0.001400543370796007,0.0,-1.569980980845945,4.5433439357718715e-05,0.0,-2.2946693763792325e-05,-0.001073505717092721,0.0,-1.643410883467311e-05,-0.0003395439973100159,0.0,,,,,,
2024-08-03 22:05:09.070902,9.735676488098477e-05,0.0010735978236276185,0.0,-1.5700078581494388,-0.003174705523139456,0.0,-7.552072179173308e-06,0.0014005433711422135,0.0,-1.569980980845945,4.5433439182895885e-05,0.0,-2.294669376734504e-05,-0.0010735057173819177,0.0,-1.6434108837337646e-05,-0.00033954399743446335,0.0,,,,,,
2024-08-03 22:05:09.081120,9.735676486677391e-05,0.001073597823292092,0.0,-1.5700078581494397,-0.0031747055243233104,0.0,-7.552072179173308e-06,0.0014005433716412301,0.0,-1.569980980845946,4.543343893876554e-05,0.0,-2.2946693770009574e-05,-0.0010735057177366331,0.0,-1.6434108839114003e-05,-0.0003395439974316261,0.0,,,,,,
2024-08-03 22:05:09.090929,9.735676485966849e-05,0.0010735978230644557,0.0,-1.5700078581494414,-0.0031747055250153687,0.0,-7.55207217828513e-06,0.0014005433717627067,0.0,-1.569980980845946,4.543343892511359e-05,0.0,-2.2946693770897753e-05,-0.0010735057176463,0.0,-1.6434108840002182e-05,-0.00033954399764425116,0.0,,,,,,
2024-08-03 22:05:09.101070,9.735676485345124e-05,0.0010735978229461998,0.0,-1.5700078581494414,-0.0031747055254724016,0.0,-7.552072177396951e-06,0.001400543371761427,0.0,-1.569980980845946,4.543343865931742e-05,0.0,-2.2946693770897753e-05,-0.001073505717708082,0.0,-1.643410884089036e-05,-0.00033954399737691954,0.0,,,,,,
2024-08-03 22:05:09.111498,9.735676484989852e-05,0.0010735978228177063,0.0,-1.5700078581494414,-0.003174705525860892,0.0,-7.552072177396951e-06,0.0014005433719768926,0.0,-1.569980980845946,4.543343889179237e-05,0.0,-2.294669377267411e-05,-0.0010735057177657758,0.0,-1.643410884177854e-05,-0.00033954399765388104,0.0,,,,,,
2024-08-03 22:05:09.121084,9.735676484812217e-05,0.0010735978228200516,0.0,-1.5700078581494414,-0.003174705525973316,0.0,-7.55207217828513e-06,0.0014005433719202361,0.0,-1.569980980845946,4.543343886765608e-05,0.0,-2.294669377267411e-05,-0.0010735057177132458,0.0,-1.643410884089036e-05,-0.0003395439975970801,0.0,,,,,,
2024-08-03 22:05:09.131382,9.735676484723399e-05,0.001073597822786169,0.0,-1.5700078581494423,-0.003174705526125204,0.0,-7.552072177396951e-06,0.001400543372194834,0.0,-1.569980980845946,4.5433438523516867e-05,0.0,-2.2946693773562288e-05,-0.0010735057177552563,0.0,-1.6434108842666717e-05,-0.00033954399763607606,0.0,,,,,,
2024-08-03 22:05:09.141189,9.735676484545763e-05,0.001073597822744908,0.0,-1.5700078581494414,-0.0031747055261976084,0.0,-7.55207217828513e-06,0.001400543372096562,0.0,-1.569980980845946,4.5433438603173525e-05,0.0,-2.294669377267411e-05,-0.0010735057177838785,0.0,-1.6434108842666717e-05,-0.000339543997709238,0.0,,,,,,
2024-08-03 22:05:09.151256,9.735676484634581e-05,0.0010735978227334347,0.0,-1.5700078581494423,-0.003174705526293907,0.0,-7.55207217828513e-06,0.0014005433721743887,0.0,-1.569980980845946,4.5433438700423316e-05,0.0,-2.294669377267411e-05,-0.0010735057177528587,0.0,-1.6434108843554895e-05,-0.0003395439977441217,0.0,,,,,,
2024-08-03 22:05:09.161022,0.0001035933658073418,0.0010731717579497205,0.0,-1.5700110333023563,-0.003175129377546093,0.0,-6.202654980747013e-06,0.0014012694307368094,0.0,-1.5699809358141543,4.503410971020685e-05,0.0,-2.3781395833033514e-05,-0.00107308369099575,0.0,-1.6286118663444427e-05,-0.0003394221190142899,0.0,,,,,,
2024-08-03 22:05:09.171237,0.0001035933671982292,0.0010731737735668206,0.0,-1.570011033318761,-0.0031751457838516245,0.0,-6.202654191156398e-06,0.0014012701616801294,0.0,-1.569980935813561,4.503470213699948e-05,0.0,-2.3781396287780865e-05,-0.0010730835808724698,0.0,-1.628611798221158e-05,-0.00033942175096618986,0.0,,,,,,
2024-08-03 22:05:09.180982,0.00010964587301920403,0.0010727478334832952,0.0,-1.5700142088971665,-0.0031755712747229686,0.0,-4.869005605812049e-06,0.001401994284805132,0.0,-1.569980891179548,4.4636924330284863e-05,0.0,-2.4637408260197446e-05,-0.0010726614259231229,0.0,-1.6134604702955357e-05,-0.00033929985421548734,0.0,,,,,,
2024-08-03 22:05:09.191212,0.00010964587363115896,0.0010727497376281812,0.0,-1.5700142089124556,-0.0031755865653795247,0.0,-4.8690049361255205e-06,0.0014019948665997528,0.0,-1.569980891178977,4.4637494437536744e-05,0.0,-2.46374081962486e-05,-0.0010726611694170836,0.0,-1.6134604042150613e-05,-0.0003392994765519106,0.0,,,,,,
2024-08-03 22:05:09.200810,0.00010964587315864804,0.0010727499489257323,0.0,-1.570014208914255,-0.003175588363073013,0.0,-4.86900479579333e-06,0.001401994973818857,0.0,-1.5699808911789273,4.463754478650252e-05,0.0,-2.4637408285066442e-05,-0.0010726611758921105,0.0,-1.6134604048367862e-05,-0.00033929944288438297,0.0,,,,,,
2024-08-03 22:05:09.211076,0.00010964587274386872,0.0010727499636728366,0.0,-1.570014208914485,-0.0031755885930953363,0.0,-4.869004758489837e-06,0.0014019949916407766,0.0,-1.5699808911789264,4.4637545759791024e-05,0.0,-2.463740834901529e-05,-0.0010726611813527721,0.0,-1.6134604092776783e-05,-0.00033929943987408826,0.0,,,,,,
2024-08-03 22:05:09.220734,0.00010964587246675706,0.0010727499599462369,0.0,-1.5700142089145277,-0.0031755886370150145,0.0,-4.869004742502625e-06,0.0014019949970583037,0.0,-1.569980891178929,4.463754319004539e-05,0.0,-2.4637408388983317e-05,-0.0010726611847033112,0.0,-1.6134604124751206e-05,-0.000339299439795803,0.0,,,,,,
2024-08-03 22:05:09.231095,0.00010964587229089773,0.0010727499562461886,0.0,-1.5700142089145446,-0.0031755886535731687,0.0,-4.869004731844484e-06,0.0014019950001678753,0.0,-1.5699808911789308,4.4637540935770284e-05,0.0,-2.463740841562867e-05,-0.0010726611869201286,0.0,-1.6134604146955667e-05,-0.00033929943982181096,0.0,,,,,,
2024-08-03 22:05:09.240789,0.00010964587217721089,0.001072749953836624,0.0,-1.5700142089145535,-0.003175588662866182,0.0,-4.8690047265154135e-06,0.0014019950022012813,0.0,-1.5699808911789326,4.4637539651140655e-05,0.0,-2.463740843250406e-05,-0.0010726611884212703,0.0,-1.6134604159390165e-05,-0.0003392994398842143,0.0,,,,,,
2024-08-03 22:05:09.251114,0.00010964587210438026,0.0010727499522398367,0.0,-1.5700142089145597,-0.003175588668569807,0.0,-4.869004721186343e-06,0.0014019950035316863,0.0,-1.5699808911789326,4.463753890373342e-05,0.0,-2.46374084431622e-05,-0.001072661189352708,0.0,-1.613460416827195e-05,-0.0003392994401240129,0.0,,,,,,
2024-08-03 22:05:09.261457,0.00011552262832470461,0.0010723236829008858,0.0,-1.5700173849496168,-0.0031760115224046177,0.0,-3.56429222669874e-06,0.001402715932799974,0.0,-1.5699808469392362,4.4242013646544616e-05,0.0,-2.5512879711087066e-05,-0.001072238901679724,0.0,-1.5979454814463168e-05,-0.00033917773988108074,0.0,,,,,,
2024-08-03 22:05:09.271247,0.00011552262909297895,0.0010723254644247917,0.0,-1.570017384963602,-0.003176025507390432,0.0,-3.5642916946798664e-06,0.0014027163636183971,0.0,-1.5699808469386891,4.424256115000537e-05,0.0,-2.5512879301636815e-05,-0.0010722385163147814,0.0,-1.5979454103920432e-05,-0.00033917735986586223,0.0,,,,,,
2024-08-03 22:05:09.281370,0.00012123394350282979,0.0010718992996155956,0.0,-1.5700205614215468,-0.003176448394942264,0.0,-2.323664792136526e-06,0.0014034320080390352,0.0,-1.5699808030903677,4.385118565379987e-05,0.0,-2.6406092410447002e-05,-0.0010718161745367724,0.0,-1.582055392024273e-05,-0.00033905606253334223,0.0,,,,,,
2024-08-03 22:05:09.291221,0.00012123394398955156,0.0010719010131005062,0.0,-1.5700205614348481,-0.00317646169647785,0.0,-2.323664268999437e-06,0.0014034323388930473,0.0,-1.569980803089834,4.385172030517859e-05,0.0,-2.640609185533549e-05,-0.001071815688771278,0.0,-1.582055320703546e-05,-0.00033905567327747316,0.0,,,,,,
2024-08-03 22:05:09.301356,0.00012123394357033135,0.0010719012027819803,0.0,-1.5700205614364122,-0.0031764632599735956,0.0,-2.3236641260027113e-06,0.0014034324126662877,0.0,-1.569980803089785,4.38517683797057e-05,0.0,-2.6406091892638983e-05,-0.0010718156661030107,0.0,-1.5820553205259102e-05,-0.00033905563737920334,0.0,,,,,,
2024-08-03 22:05:09.311115,0.00012123394320529002,0.0010719012162817146,0.0,-1.5700205614366112,-0.0031764634598226305,0.0,-2.323664074488363e-06,0.0014034324257708101,0.0,-1.5699808030897842,4.385176997452752e-05,0.0,-2.6406091937936083e-05,-0.0010718156678412494,0.0,-1.5820553242562596e-05,-0.00033905563426874256,0.0,,,,,,
2024-08-03 22:05:09.321587,0.0001212339429592646,0.0010719012130702105,0.0,-1.5700205614366494,-0.00317646349806577,0.0,-2.3236640460666536e-06,0.0014034324302023208,0.0,-1.569980803089786,4.385176747176889e-05,0.0,-2.640609196813415e-05,-0.0010718156704034162,0.0,-1.5820553270984306e-05,-0.0003390556337462448,0.0,,,,,,
2024-08-03 22:05:09.331110,0.0001212339428029452,0.0010719012097985372,0.0,-1.5700205614366636,-0.0031764635123997416,0.0,-2.3236640291912636e-06,0.0014034324328947908,0.0,-1.5699808030897877,4.385176569181857e-05,0.0,-2.6406091986785896e-05,-0.0010718156721141734,0.0,-1.5820553289636052e-05,-0.00033905563392181456,0.0,,,,,,
2024-08-03 22:05:09.341611,0.00012123394270080468,0.001071901207685424,0.0,-1.5700205614366716,-0.0031764635204911172,0.0,-2.323664017644944e-06,0.0014034324346878658,0.0,-1.5699808030897895,4.385176457895562e-05,0.0,-2.6406092000108572e-05,-0.001071815673543963,0.0,-1.582055330207055e-05,-0.0003390556340841733,0.0,,,,,,
2024-08-03 22:05:09.351825,0.00012123394263685583,0.0010719012063286181,0.0,-1.570020561436676,-0.0031764635254438066,0.0,-2.3236640096513383e-06,0.0014034324358163995,0.0,-1.5699808030897895,4.385176395277498e-05,0.0,-2.6406092008102178e-05,-0.0010718156745182033,0.0,-1.5820553309175978e-05,-0.000339055634072182,0.0,,,,,,
2024-08-03 22:05:09.361460,0.00012679061122433666,0.001071474681164599,0.0,-1.5700237383411098,-0.0031768808986902108,0.0,-1.2804220244078124e-06,0.001404136470137839,0.0,-1.5699807596229327,4.346917375307603e-05,0.0,-2.731546148737607e-05,-0.0010713934224916507,0.0,-1.5657780762623474e-05,-0.00033893546396486637,0.0,,,,,,
2024-08-03 22:05:09.371700,0.00012679061195175478,0.0010714762960169156,0.0,-1.5700237383534323,-0.0031768932219670247,0.0,-1.28042150304708e-06,0.001404136674355712,0.0,-1.5699807596224096,4.346969701767944e-05,0.0,-2.731546077860969e-05,-0.001071392842419585,0.0,-1.5657779981914643e-05,-0.0003389350689041856,0.0,,,,,,
2024-08-03 22:05:09.381353,0.00013220318835482914,0.001071051316966124,0.0,-1.5700269156671582,-0.003177302513947429,0.0,9.55628941312625e-07,0.0014048007853966341,0.0,-1.569980716506043,4.311920685655152e-05,0.0,-2.8239532912088805e-05,-0.0010709715857024993,0.0,-1.5491023347635746e-05,-0.00033881979264097713,0.0,,,,,,
2024-08-03 22:05:09.391581,0.00013220318909468176,0.0010710532214959483,0.0,-1.5700269156800617,-0.0031773154186456416,0.0,9.556282858369514e-07,0.0014048013753513965,0.0,-1.5699807165056239,4.311962543921994e-05,0.0,-2.8239532260165845e-05,-0.0010709710222547904,0.0,-1.5491022668179255e-05,-0.00033881948670926477,0.0,,,,,,
2024-08-03 22:05:09.401846,0.0001322031887180941,0.0010710534319678647,0.0,-1.5700269156815796,-0.00317731693670282,0.0,9.556280504696701e-07,0.0014048014764404123,0.0,-1.5699807165055883,4.31196615569944e-05,0.0,-2.823953228059395e-05,-0.0010709709905079965,0.0,-1.5491022678837396e-05,-0.0003388194595465811,0.0,,,,,,
2024-08-03 22:05:09.411428,0.00013220318836815181,0.0010710534478615941,0.0,-1.570026915681774,-0.0031773171310068423,0.0,9.55627925236513e-07,0.001404801492766174,0.0,-1.5699807165055883,4.311966120083832e-05,0.0,-2.823953231878562e-05,-0.0010709709913937742,0.0,-1.5491022717917247e-05,-0.0003388194570278154,0.0,,,,,,
2024-08-03 22:05:09.421718,0.00013220318813012,0.001071053445072045,0.0,-1.5700269156818105,-0.0031773171681841834,0.0,9.55627847076812e-07,0.001404801497291283,0.0,-1.5699807165055901,4.311965918849089e-05,0.0,-2.8239532344542795e-05,-0.0010709709937348978,0.0,-1.5491022746338956e-05,-0.0003388194571488194,0.0,,,,,,
2024-08-03 22:05:09.431472,0.0001322031879782415,0.0010710534420097365,0.0,-1.5700269156818265,-0.0031773171820782143,0.0,9.55627798226999e-07,0.0014048014999844772,0.0,-1.5699807165055928,4.311965730662568e-05,0.0,-2.8239532361418185e-05,-0.0010709709956068828,0.0,-1.5491022764102524e-05,-0.0003388194572420218,0.0,,,,,,
2024-08-03 22:05:09.441689,0.00013220318788231822,0.0010710534399282917,0.0,-1.5700269156818327,-0.003177317189930415,0.0,9.556277671407543e-07,0.0014048015017632779,0.0,-1.5699807165055937,4.3119656089481997e-05,0.0,-2.8239532372964504e-05,-0.0010709709969556715,0.0,-1.5491022775648844e-05,-0.00033881945736925366,0.0,,,,,,
2024-08-03 22:05:09.451576,0.00013220318781925755,0.0010710534386256937,0.0,-1.570026915681838,-0.0031773171948241163,0.0,9.55627747600829e-07,0.0014048015028295781,0.0,-1.5699807165055946,4.3119655468578386e-05,0.0,-2.823953238006993e-05,-0.001070970997652733,0.0,-1.549102278364245e-05,-0.0003388194573323666,0.0,,,,,,
2024-08-03 22:05:09.461881,0.00013748163198457064,0.0010706255609728198,0.0,-1.5700300935103078,-0.0031778049357180293,0.0,2.7120632379862286e-06,0.0014057222469528925,0.0,-1.5699806739398303,4.256808119454652e-05,0.0,-2.9176964365440483e-05,-0.0010705438078574168,0.0,-1.5320112448868883e-05,-0.00033867501929254475,0.0,,,,,,
2024-08-03 22:05:09.471562,0.00013748163235050015,0.001070626652664922,0.0,-1.5700300935202678,-0.003177814895831625,0.0,2.71206219171205e-06,0.0014057218614275792,0.0,-1.5699806739392344,4.256867655289833e-05,0.0,-2.917696347282117e-05,-0.0010705430573949312,0.0,-1.5320111464767194e-05,-0.000338674546682931,0.0,,,,,,
2024-08-03 22:05:09.481850,0.00014263518251578233,0.0010701996597309344,0.0,-1.5700332717756156,-0.0031782417742763614,0.0,4.047777620641568e-06,0.001406452015011554,0.0,-1.5699806317766498,4.21654985267155e-05,0.0,-3.0126541639141635e-05,-0.0010701197630590335,0.0,-1.5144936088340444e-05,-0.0003385510142703647,0.0,,,,,,
2024-08-03 22:05:09.491448,0.000142635183031814,0.001070201060242694,0.0,-1.5700332717862187,-0.0031782523790651832,0.0,4.047777648175099e-06,0.0014064519385653552,0.0,-1.5699806317761364,4.216601052906433e-05,0.0,-3.0126540740305074e-05,-0.0010701189778748695,0.0,-1.514493509535697e-05,-0.00033855059333158977,0.0,,,,,,
2024-08-03 22:05:09.501716,0.00014263518274670872,0.0010702012154706617,0.0,-1.5700332717874639,-0.0031782536233530313,0.0,4.047777749427439e-06,0.001406451959796808,0.0,-1.5699806317760885,4.216605865450416e-05,0.0,-3.012654070921883e-05,-0.0010701189163718897,0.0,-1.5144935074928867e-05,-0.00033855055287356243,0.0,,,,,,
2024-08-03 22:05:09.512052,0.0001426351824846961,0.0010702012269999427,0.0,-1.570033271787622,-0.00317825378098915,0.0,4.047777794724539e-06,0.0014064519656917214,0.0,-1.5699806317760867,4.216606076795301e-05,0.0,-3.0126540729646933e-05,-0.0010701189128477335,0.0,-1.514493510157422e-05,-0.0003385505486927325,0.0,,,,,,
2024-08-03 22:05:09.521602,0.00014263518230794858,0.001070201224742979,0.0,-1.5700332717876504,-0.003178253810346152,0.0,4.047777819593534e-06,0.0014064519684114378,0.0,-1.5699806317760876,4.216605944733665e-05,0.0,-3.0126540746522323e-05,-0.0010701189140736912,0.0,-1.5144935122890502e-05,-0.00033855054861243203,0.0,,,,,,
2024-08-03 22:05:09.533334,0.00014263518219514992,0.001070201222319734,0.0,-1.570033271787662,-0.003178253821196118,0.0,4.047777836468924e-06,0.0014064519703937805,0.0,-1.5699806317760894,4.2166057967804116e-05,0.0,-3.0126540758068643e-05,-0.0010701189152632832,0.0,-1.5144935137989535e-05,-0.00033855054850548123,0.0,,,,,,
2024-08-03 22:05:09.542982,0.0001426351821223193,0.001070201220813775,0.0,-1.5700332717876673,-0.0031782538271148087,0.0,4.0477778453507085e-06,0.001406451971546816,0.0,-1.5699806317760894,4.2166057212910464e-05,0.0,-3.012654076606225e-05,-0.0010701189161883339,0.0,-1.5144935147759497e-05,-0.0003385505487380221,0.0,,,,,,
2024-08-03 22:05:09.552709,0.0001426351820770222,0.0010702012197441007,0.0,-1.5700332717876717,-0.0031782538308613908,0.0,4.047777852456136e-06,0.001406451972473301,0.0,-1.5699806317760903,4.216605660800046e-05,0.0,-3.012654077139132e-05,-0.0010701189168705156,0.0,-1.514493515220039e-05,-0.00033855054878483015,0.0,,,,,,
2024-08-03 22:05:09.562942,0.00014767231576051643,0.0010697744705982669,0.0,-1.5700364504953004,-0.003178684095059627,0.0,5.458053164986154e-06,0.0014071917539549821,0.0,-1.569980590022733,4.1755674134654874e-05,0.0,-3.108715258637318e-05,-0.0010696954878173155,0.0,-1.496535588696446e-05,-0.0003384261483819302,0.0,,,,,,
2024-08-03 22:05:09.572521,0.00014767231647194734,0.001069775868333221,0.0,-1.5700364505054905,-0.00317869428715304,0.0,5.458053141893515e-06,0.001407191699658788,0.0,-1.569980590022249,4.1756158050100566e-05,0.0,-3.108715165733855e-05,-0.0010696946776042585,0.0,-1.4965354782070506e-05,-0.000338425748090875,0.0,,,,,,
2024-08-03 22:05:09.582733,0.00015260077131262761,0.0010693491402367968,0.0,-1.57003962964455,-0.0031791257177712358,0.0,6.881751751564025e-06,0.0014079316263552184,0.0,-1.569980548679407,4.134564221732937e-05,0.0,-3.205778794246328e-05,-0.0010692710621688353,0.0,-1.4781230486704544e-05,-0.00033830117640941187,0.0,,,,,,
2024-08-03 22:05:09.592418,0.00015260077185708099,0.0010693505056417264,0.0,-1.5700396296544727,-0.0031791356401778487,0.0,6.88175165297622e-06,0.0014079315163361568,0.0,-1.5699805486789247,4.134612441856068e-05,0.0,-3.2057786983230585e-05,-0.0010692701993197588,0.0,-1.478122921838576e-05,-0.00033830076786691755,0.0,,,,,,
2024-08-03 22:05:09.602102,0.00015260077159506835,0.0010693506565280404,0.0,-1.5700396296556371,-0.0031791368054542024,0.0,6.881751674292502e-06,0.0014079315321472038,0.0,-1.5699805486788803,4.134616929978333e-05,0.0,-3.2057786937933486e-05,-0.0010692701283467538,0.0,-1.4781229197069479e-05,-0.000338300728141653,0.0,,,,,,
2024-08-03 22:05:09.612413,0.00015260077134815475,0.0010693506677821615,0.0,-1.5700396296557864,-0.0031791369536559038,0.0,6.8817516831742864e-06,0.0014079315373285756,0.0,-1.5699805486788785,4.1346171274487154e-05,0.0,-3.20577869539207e-05,-0.001069270123492506,0.0,-1.4781229223714831e-05,-0.00033830072420255755,0.0,,,,,,
2024-08-03 22:05:09.622099,0.0001526007711811772,0.0010693506655905165,0.0,-1.5700396296558148,-0.0031791369815385067,0.0,6.881751686727e-06,0.001407931539812979,0.0,-1.5699805486788803,4.1346170010979084e-05,0.0,-3.205778696813155e-05,-0.0010692701247390136,0.0,-1.4781229245031113e-05,-0.00033830072393182956,0.0,,,,,,
2024-08-03 22:05:09.632167,0.00015260077107548398,0.0010693506632876118,0.0,-1.5700396296558237,-0.0031791369920222572,0.0,6.881751689391535e-06,0.0014079315417605846,0.0,-1.5699805486788811,4.134616864912965e-05,0.0,-3.205778697878969e-05,-0.0010692701259545695,0.0,-1.4781229260130146e-05,-0.00033830072402459173,0.0,,,,,,
2024-08-03 22:05:09.642021,0.00015260077100620606,0.001069350661761764,0.0,-1.570039629655829,-0.0031791369978130084,0.0,6.881751688503357e-06,0.0014079315430095825,0.0,-1.5699805486788811,4.134616788731835e-05,0.0,-3.205778698500694e-05,-0.0010692701267205685,0.0,-1.478122926901193e-05,-0.0003383007242162288,0.0,,,,,,
2024-08-03 22:05:09.652195,0.00015260077096268532,0.0010693506608018973,0.0,-1.5700396296558343,-0.0031791370013912754,0.0,6.881751691167892e-06,0.001407931543710494,0.0,-1.5699805486788811,4.134616738442809e-05,0.0,-3.2057786988559656e-05,-0.001069270127338246,0.0,-1.4781229273452823e-05,-0.0003383007241752429,0.0,,,,,,
2024-08-03 22:05:09.661846,0.00015260077093515179,0.0010693506602329947,0.0,-1.570039629655836,-0.003179137003639794,0.0,6.881751692056071e-06,0.0014079315442556677,0.0,-1.569980548678883,4.134616706329456e-05,0.0,-3.205778699211237e-05,-0.0010692701278372369,0.0,-1.4781229278781893e-05,-0.00033830072420780954,0.0,,,,,,
2024-08-03 22:05:09.672190,0.0001526007709182764,0.0010693506597912483,0.0,-1.570039629655837,-0.003179137005118671,0.0,6.881751690279714e-06,0.0014079315447946593,0.0,-1.569980548678883,4.134616671502443e-05,0.0,-3.205778699300055e-05,-0.00106927012792202,0.0,-1.4781229279670072e-05,-0.0003383007242083239,0.0,,,,,,
2024-08-03 22:05:09.681663,0.00015260077090673008,0.001069350659549578,0.0,-1.5700396296558379,-0.0031791370059760524,0.0,6.881751692056071e-06,0.0014079315447609354,0.0,-1.569980548678883,4.1346166655551494e-05,0.0,-3.2057786993888726e-05,-0.001069270128156949,0.0,-1.4781229281446429e-05,-0.0003383007242223396,0.0,,,,,,
2024-08-03 22:05:09.692090,0.00015260077089873647,0.001069350659375405,0.0,-1.5700396296558397,-0.0031791370066054222,0.0,6.8817516938324275e-06,0.001407931545091809,0.0,-1.5699805486788838,4.134616641155158e-05,0.0,-3.205778699300055e-05,-0.001069270128218233,0.0,-1.4781229283222785e-05,-0.00033830072421859117,0.0,,,,,,
2024-08-03 22:05:09.702081,0.00015260077089518376,0.0010693506592521686,0.0,-1.5700396296558397,-0.003179137007009952,0.0,6.881751692056071e-06,0.0014079315450720438,0.0,-1.569980548678883,4.134616657357226e-05,0.0,-3.205778699566508e-05,-0.0010692701283485993,0.0,-1.4781229283222785e-05,-0.00033830072430522976,0.0,,,,,,
2024-08-03 22:05:09.711854,0.00015260077089074287,0.0010693506592465549,0.0,-1.5700396296558397,-0.0031791370072510195,0.0,6.881751692944249e-06,0.0014079315452691062,0.0,-1.569980548678883,4.1346166453424876e-05,0.0,-3.205778699566508e-05,-0.0010692701283677097,0.0,-1.4781229283222785e-05,-0.0003383007242670548,0.0,,,,,,
2024-08-03 22:05:09.721486,0.0001526007708889665,0.0010693506591819605,0.0,-1.5700396296558397,-0.003179137007380356,0.0,6.881751692944249e-06,0.0014079315452037412,0.0,-1.569980548678883,4.1346166549136834e-05,0.0,-3.205778699566508e-05,-0.0010692701284900409,0.0,-1.4781229284110964e-05,-0.0003383007243588595,0.0,,,,,,
2024-08-03 22:05:09.731683,0.0001526007708889665,0.0010693506591718145,0.0,-1.5700396296558397,-0.003179137007470744,0.0,6.881751692056071e-06,0.0014079315452483541,0.0,-1.5699805486788838,4.134616621439082e-05,0.0,-3.205778699566508e-05,-0.0010692701283963422,0.0,-1.4781229284110964e-05,-0.0003383007240658839,0.0,,,,,,
2024-08-03 22:05:09.742007,0.00015260077088630197,0.0010693506591108448,0.0,-1.5700396296558397,-0.003179137007541373,0.0,6.881751692944249e-06,0.0014079315453891777,0.0,-1.5699805486788838,4.1346166312303495e-05,0.0,-3.205778699566508e-05,-0.0010692701285272682,0.0,-1.4781229284110964e-05,-0.0003383007241597447,0.0,,,,,,
2024-08-03 22:05:09.751605,0.00015260077088719015,0.0010693506591183575,0.0,-1.5700396296558397,-0.003179137007617983,0.0,6.881751692944249e-06,0.0014079315454413408,0.0,-1.569980548678883,4.1346166333047427e-05,0.0,-3.205778699744144e-05,-0.001069270128486321,0.0,-1.4781229284110964e-05,-0.00033830072416085957,0.0,,,,,,
2024-08-03 22:05:09.761509,0.00015260077088719015,0.0010693506590934375,0.0,-1.5700396296558397,-0.003179137007593044,0.0,6.881751691167892e-06,0.0014079315453094455,0.0,-1.5699805486788838,4.1346166350334813e-05,0.0,-3.205778699566508e-05,-0.0010692701284851973,0.0,-1.4781229284110964e-05,-0.0003383007242622986,0.0,,,,,,
2024-08-03 22:05:09.771833,0.00015742759277870277,0.001068923689476503,0.0,-1.570042809246489,-0.0031795671177243245,0.0,8.308533471002022e-06,0.001408670847013297,0.0,-1.5699805077451705,4.0936029683705894e-05,0.0,-3.303752743377686e-05,-0.001068846487175693,0.0,-1.4592411285541118e-05,-0.00033817616502214757,0.0,,,,,,
2024-08-03 22:05:09.782017,0.00015742759350878544,0.0010689250068639763,0.0,-1.570042809255909,-0.003179576538261233,0.0,8.308533312018085e-06,0.0014086706858436016,0.0,-1.569980507744697,4.0936502980228853e-05,0.0,-3.303752642747071e-05,-0.0010688455877766918,0.0,-1.4592409748104274e-05,-0.000338175757969665,0.0,,,,,,
2024-08-03 22:05:09.791662,0.00016215919221895803,0.0010684981124030794,0.0,-1.5700459892776564,-0.0031800076380939977,0.0,9.735847474878767e-06,0.0014094094202023147,0.0,-1.5699804672206676,4.052681889183708e-05,0.0,-3.402553909026551e-05,-0.001068421785325032,0.0,-1.4398750915134428e-05,-0.0003380511349584988,0.0,,,,,,
2024-08-03 22:05:09.802135,0.00016215919279716218,0.0010684994111933596,0.0,-1.5700459892868925,-0.0031800168724088556,0.0,9.735847274150444e-06,0.0014094092212253123,0.0,-1.5699804672201978,4.052728932046163e-05,0.0,-3.402553805820219e-05,-0.0010684208422732753,0.0,-1.4398749032196179e-05,-0.00033805072215711645,0.0,,,,,,
2024-08-03 22:05:09.811634,0.0001621591925777821,0.0010684995546982993,0.0,-1.5700459892879761,-0.003180017956108267,0.0,9.735847279479515e-06,0.0014094092250494187,0.0,-1.5699804672201525,4.052733368612978e-05,0.0,-3.4025537996917876e-05,-0.0010684207606580388,0.0,-1.4398749006439004e-05,-0.00033805068165520646,0.0,,,,,,
2024-08-03 22:05:09.821947,0.00016215919236284293,0.0010684995656426836,0.0,-1.570045989288113,-0.0031800180935046807,0.0,9.735847280367693e-06,0.0014094092285636627,0.0,-1.5699804672201516,4.0527335761959956e-05,0.0,-3.402553800757602e-05,-0.0010684207545931226,0.0,-1.4398749028643465e-05,-0.00033805067747300684,0.0,,,,,,
2024-08-03 22:05:09.831773,0.0001621591922162935,0.001068499563741356,0.0,-1.5700459892881404,-0.00318001811922809,0.0,9.735847283032228e-06,0.0014094092307949543,0.0,-1.5699804672201525,4.0527334541925466e-05,0.0,-3.4025538020010515e-05,-0.0010684207554032192,0.0,-1.4398749049071569e-05,-0.00033805067728555956,0.0,,,,,,
2024-08-03 22:05:09.841887,0.00016215919212214658,0.0010684995616488961,0.0,-1.5700459892881475,-0.003180018128642731,0.0,9.735847283032228e-06,0.0014094092324133285,0.0,-1.5699804672201525,4.052733363816598e-05,0.0,-3.402553802800412e-05,-0.0010684207564926563,0.0,-1.4398749063282423e-05,-0.0003380506775079898,0.0,,,,,,
2024-08-03 22:05:09.851602,0.00016215919206175045,0.0010684995602564602,0.0,-1.5700459892881538,-0.003180018133916851,0.0,9.735847283920407e-06,0.0014094092335259364,0.0,-1.5699804672201543,4.0527332852619e-05,0.0,-3.402553803333319e-05,-0.0010684207573046205,0.0,-1.4398749068611494e-05,-0.00033805067752753007,0.0,,,,,,
2024-08-03 22:05:09.861947,0.00016215919202355877,0.0010684995593877125,0.0,-1.5700459892881564,-0.003180018137154082,0.0,9.735847286584942e-06,0.001409409234257347,0.0,-1.5699804672201552,4.0527332193235e-05,0.0,-3.402553803599773e-05,-0.0010684207577864094,0.0,-1.4398749074828743e-05,-0.0003380506774296739,0.0,,,,,,
2024-08-03 22:05:09.872092,0.0001668014023934461,0.001068072442810612,0.0,-1.570049169759759,-0.003180448072507947,0.0,1.1162983844847929e-05,0.0014101475110203353,0.0,-1.569980427104559,4.011791299553681e-05,0.0,-3.5021064529239254e-05,-0.0010679969468568602,0.0,-1.4200094318184142e-05,-0.00033792605754895497,0.0,,,,,,
2024-08-03 22:05:09.881737,0.00016680140311109426,0.0010680736997079764,0.0,-1.570049169768567,-0.0031804568798490408,0.0,1.1162983604151577e-05,0.0014101472719325622,0.0,-1.5699804271040962,4.011837511854182e-05,0.0,-3.502106346431333e-05,-0.0010679959759714263,0.0,-1.4200091894345235e-05,-0.0003379256470299627,0.0,,,,,,
2024-08-03 22:05:09.892005,0.00017135954006963772,0.0010676466545799606,0.0,-1.5700523506710924,-0.0031808878039949395,0.0,1.2589781047012139e-05,0.0014108852053843642,0.0,-1.569980387397651,3.970922409972442e-05,0.0,-3.602341980712964e-05,-0.001067571995113964,0.0,-1.3996291786888548e-05,-0.0003378009386735782,0.0,,,,,,
2024-08-03 22:05:09.902057,0.00017135954066205272,0.0010676478975924348,0.0,-1.5700523506797557,-0.0031808964658396324,0.0,1.2589780769012293e-05,0.0014108849329551908,0.0,-1.56998038739719,3.970968468029637e-05,0.0,-3.60234187182229e-05,-0.0010675709850473366,0.0,-1.3996288591222594e-05,-0.00033780052232968056,0.0,,,,,,
2024-08-03 22:05:09.911746,0.000171359540469318,0.0010676480347934303,0.0,-1.5700523506807709,-0.0031808974823078068,0.0,1.2589780761906866e-05,0.001410884927161358,0.0,-1.5699803873971474,3.970972815779672e-05,0.0,-3.602341864361591e-05,-0.0010675708949111978,0.0,-1.3996288561024528e-05,-0.00033780048130242367,0.0,,,,,,
2024-08-03 22:05:09.921964,0.00017135954027303058,0.0010676480451544828,0.0,-1.5700523506808997,-0.0031808976112189585,0.0,1.2589780763683223e-05,0.001410884929451589,0.0,-1.5699803873971447,3.970973052561371e-05,0.0,-3.602341865072134e-05,-0.0010675708877315496,0.0,-1.3996288584117167e-05,-0.000337800477228417,0.0,,,,,,
2024-08-03 22:05:09.931651,0.000171359540140692,0.001067648043448213,0.0,-1.5700523506809245,-0.0031808976353104824,0.0,1.2589780763683223e-05,0.0014108849313491125,0.0,-1.5699803873971456,3.970972930099185e-05,0.0,-3.6023418659603124e-05,-0.0010675708884015035,0.0,-1.3996288601880735e-05,-0.0003378004768419643,0.0,,,,,,
2024-08-03 22:05:09.941942,0.00017135954005453868,0.00106764804153262,0.0,-1.5700523506809334,-0.003180897644136852,0.0,1.2589780766347758e-05,0.0014108849327960386,0.0,-1.5699803873971465,3.970972833536356e-05,0.0,-3.602341866759673e-05,-0.0010675708895916142,0.0,-1.3996288615203412e-05,-0.00033780047682943734,0.0,,,,,,
2024-08-03 22:05:09.952037,0.00017135954000124798,0.001067648040195133,0.0,-1.5700523506809387,-0.0031808976490649925,0.0,1.2589780766347758e-05,0.0014108849338652393,0.0,-1.5699803873971474,3.9709727708311005e-05,0.0,-3.602341867114944e-05,-0.0010675708901755467,0.0,-1.3996288623197017e-05,-0.0003378004770580313,0.0,,,,,,
2024-08-03 22:05:09.961783,0.00017135953996572084,0.0010676480394500075,0.0,-1.5700523506809414,-0.0031808976520584223,0.0,1.2589780768124115e-05,0.0014108849344918973,0.0,-1.5699803873971483,3.970972692682751e-05,0.0,-3.6023418675590335e-05,-0.0010675708908088174,0.0,-1.3996288626749731e-05,-0.0003378004768976842,0.0,,,,,,
