will-d-chen/ur3e-codebase/joint_states_20240803_220058.csv
time,shoulder_pan_joint_position,shoulder_pan_joint_velocity,shoulder_pan_joint_effort,shoulder_lift_joint_position,shoulder_lift_joint_velocity,shoulder_lift_joint_effort,elbow_joint_position,elbow_joint_velocity,elbow_joint_effort,wrist_1_joint_position,wrist_1_joint_velocity,wrist_1_joint_effort,wrist_2_joint_position,wrist_2_joint_velocity,wrist_2_joint_effort,wrist_3_joint_position,wrist_3_joint_velocity,wrist_3_joint_effort,force_x,force_y,force_z,torque_x,torque_y,torque_z
2024-08-03 22:00:59.482219,7.112527611763397e-05,0.001075444272691533,0.0,-1.5699941928081855,-0.003172693683608347,0.0,-1.4513478232558441e-05,0.0013971092917418899,0.0,-1.569979337221925,4.76387471339307e-05,0.0,-2.06404540286087e-05,-0.0010753497671301803,0.0,-1.810029194171392e-05,-0.00034034625514663727,0.0,,,,,,
2024-08-03 22:00:59.482430,7.11252761167458e-05,0.001075444272733618,0.0,-1.5699941928081855,-0.0031726936835319046,0.0,-1.451347823344662e-05,0.0013971092916784797,0.0,-1.569979337221925,4.7638747251705195e-05,0.0,-2.06404540286087e-05,-0.0010753497670874614,0.0,-1.810029194171392e-05,-0.0003403462553417042,0.0,,,,,,
2024-08-03 22:00:59.482590,7.11252761167458e-05,0.0010754442727359003,0.0,-1.5699941928081855,-0.0031726936835484226,0.0,-1.451347823344662e-05,0.0013971092917084995,0.0,-1.569979337221925,4.763874743396446e-05,0.0,-2.0640454030385058e-05,-0.0010753497671345425,0.0,-1.810029194171392e-05,-0.0003403462553579872,0.0,,,,,,
2024-08-03 22:00:59.482742,7.11252761167458e-05,0.0010754442727193918,0.0,-1.5699941928081855,-0.0031726936835507888,0.0,-1.451347823344662e-05,0.0013971092917395853,0.0,-1.569979337221925,4.763874711780742e-05,0.0,-2.06404540286087e-05,-0.0010753497671558171,0.0,-1.810029194171392e-05,-0.0003403462551496325,0.0,,,,,,
2024-08-03 22:00:59.483124,7.11252761167458e-05,0.0010754442726701452,0.0,-1.5699941928081864,-0.0031726936835685038,0.0,-1.4513478232558441e-05,0.0013971092916374656,0.0,-1.569979337221925,4.7638747481851935e-05,0.0,-2.06404540286087e-05,-0.00107534976706811,0.0,-1.8100291942602098e-05,-0.00034034625531512467,0.0,,,,,,
2024-08-03 22:00:59.483451,7.11252761167458e-05,0.0010754442727103845,0.0,-1.5699941928081864,-0.0031726936835514215,0.0,-1.451347823344662e-05,0.001397109291749526,0.0,-1.569979337221925,4.7638746975464034e-05,0.0,-2.06404540286087e-05,-0.0010753497670627796,0.0,-1.810029194082574e-05,-0.00034034625499627133,0.0,,,,,,
2024-08-03 22:00:59.483646,7.112527611763397e-05,0.0010754442726845239,0.0,-1.5699941928081855,-0.0031726936836303805,0.0,-1.4513478234334798e-05,0.001397109291803418,0.0,-1.569979337221925,4.763874702182192e-05,0.0,-2.06404540286087e-05,-0.0010753497670467627,0.0,-1.8100291942602098e-05,-0.00034034625506284123,0.0,,,,,,
2024-08-03 22:00:59.483802,7.11252761167458e-05,0.0010754442726894902,0.0,-1.5699941928081873,-0.003172693683541286,0.0,-1.451347823344662e-05,0.001397109291752388,0.0,-1.569979337221925,4.763874720941318e-05,0.0,-2.06404540286087e-05,-0.001075349767139846,0.0,-1.810029194171392e-05,-0.00034034625535559187,0.0,,,,,,
2024-08-03 22:00:59.483954,7.11252761167458e-05,0.001075444272709036,0.0,-1.5699941928081855,-0.0031726936836073564,0.0,-1.451347823344662e-05,0.0013971092917538655,0.0,-1.569979337221925,4.763874722623967e-05,0.0,-2.06404540286087e-05,-0.0010753497672088322,0.0,-1.810029194171392e-05,-0.0003403462552327893,0.0,,,,,,
2024-08-03 22:00:59.484127,7.11252761167458e-05,0.001075444272720334,0.0,-1.5699941928081873,-0.003172693683565864,0.0,-1.4513478232558441e-05,0.0013971092918038952,0.0,-1.569979337221925,4.763874726830444e-05,0.0,-2.06404540286087e-05,-0.00107534976716765,0.0,-1.8100291942602098e-05,-0.00034034625531132834,0.0,,,,,,
2024-08-03 22:00:59.484287,7.11252761167458e-05,0.001075444272685776,0.0,-1.5699941928081864,-0.0031726936835391583,0.0,-1.451347823344662e-05,0.001397109291785137,0.0,-1.569979337221926,4.763874701154715e-05,0.0,-2.06404540286087e-05,-0.0010753497670364758,0.0,-1.8100291942602098e-05,-0.00034034625514678385,0.0,,,,,,
2024-08-03 22:00:59.492721,7.11252761167458e-05,0.0010754442726938537,0.0,-1.5699941928081855,-0.0031726936835847633,0.0,-1.4513478232558441e-05,0.0013971092918779865,0.0,-1.569979337221925,4.763874730610081e-05,0.0,-2.06404540286087e-05,-0.0010753497670998604,0.0,-1.810029194171392e-05,-0.00034034625534035406,0.0,,,,,,
2024-08-03 22:00:59.502734,7.11252761167458e-05,0.0010754442726972633,0.0,-1.5699941928081855,-0.00317269368351486,0.0,-1.4513478232558441e-05,0.0013971092916713044,0.0,-1.569979337221925,4.763874715387644e-05,0.0,-2.06404540286087e-05,-0.0010753497671038387,0.0,-1.810029194171392e-05,-0.0003403462551498811,0.0,,,,,,
2024-08-03 22:00:59.513169,7.11252761167458e-05,0.0010754442727050665,0.0,-1.5699941928081873,-0.0031726936835347504,0.0,-1.451347823344662e-05,0.001397109291753071,0.0,-1.569979337221925,4.763874707467287e-05,0.0,-2.06404540286087e-05,-0.0010753497670708562,0.0,-1.810029194082574e-05,-0.00034034625512466147,0.0,,,,,,
2024-08-03 22:00:59.522696,7.112527611763397e-05,0.0010754442727136024,0.0,-1.5699941928081855,-0.003172693683539134,0.0,-1.4513478232558441e-05,0.001397109291761361,0.0,-1.569979337221925,4.763874729233459e-05,0.0,-2.06404540286087e-05,-0.0010753497672125667,0.0,-1.810029194171392e-05,-0.0003403462552325142,0.0,,,,,,
2024-08-03 22:00:59.533168,7.11252761167458e-05,0.0010754442727206655,0.0,-1.5699941928081855,-0.0031726936835672257,0.0,-1.4513478232558441e-05,0.0013971092918283814,0.0,-1.569979337221925,4.7638747065084294e-05,0.0,-2.06404540286087e-05,-0.0010753497671401435,0.0,-1.810029194171392e-05,-0.0003403462552229976,0.0,,,,,,
2024-08-03 22:00:59.542869,7.11252761167458e-05,0.0010754442726909526,0.0,-1.5699941928081864,-0.0031726936835412677,0.0,-1.4513478232558441e-05,0.0013971092918517057,0.0,-1.569979337221926,4.763874709747581e-05,0.0,-2.06404540286087e-05,-0.0010753497672117494,0.0,-1.810029194171392e-05,-0.00034034625515357974,0.0,,,,,,
2024-08-03 22:00:59.553121,7.11252761167458e-05,0.0010754442727042928,0.0,-1.5699941928081864,-0.003172693683588761,0.0,-1.4513478231670263e-05,0.001397109291916724,0.0,-1.569979337221925,4.763874727080537e-05,0.0,-2.06404540286087e-05,-0.001075349767047887,0.0,-1.810029194171392e-05,-0.0003403462553855808,0.0,,,,,,
2024-08-03 22:00:59.562838,7.11252761167458e-05,0.0010754442727084143,0.0,-1.5699941928081855,-0.003172693683525884,0.0,-1.451347823344662e-05,0.0013971092916295843,0.0,-1.569979337221925,4.763874720911134e-05,0.0,-2.06404540286087e-05,-0.0010753497671445312,0.0,-1.810029194171392e-05,-0.0003403462552432348,0.0,,,,,,
2024-08-03 22:00:59.573109,7.11252761167458e-05,0.001075444272736,0.0,-1.5699941928081855,-0.003172693683533655,0.0,-1.4513478234334798e-05,0.001397109291739355,0.0,-1.569979337221925,4.763874721265711e-05,0.0,-2.06404540286087e-05,-0.0010753497671945722,0.0,-1.810029194171392e-05,-0.0003403462552434989,0.0,,,,,,
2024-08-03 22:00:59.582775,7.11252761167458e-05,0.0010754442726627692,0.0,-1.5699941928081864,-0.0031726936835556564,0.0,-1.4513478231670263e-05,0.0013971092917988447,0.0,-1.569979337221925,4.7638747057858304e-05,0.0,-2.06404540286087e-05,-0.0010753497671007327,0.0,-1.810029194171392e-05,-0.0003403462551363354,0.0,,,,,,
2024-08-03 22:00:59.593248,7.11252761167458e-05,0.001075444272728328,0.0,-1.5699941928081864,-0.0031726936835695645,0.0,-1.451347823344662e-05,0.0013971092918621144,0.0,-1.569979337221925,4.763874721933016e-05,0.0,-2.06404540286087e-05,-0.001075349767136918,0.0,-1.810029194171392e-05,-0.0003403462552725433,0.0,,,,,,
2024-08-03 22:00:59.602891,7.11252761167458e-05,0.0010754442726745807,0.0,-1.5699941928081855,-0.0031726936835932327,0.0,-1.451347823344662e-05,0.0013971092917215789,0.0,-1.569979337221925,4.763874737973375e-05,0.0,-2.06404540286087e-05,-0.0010753497670534548,0.0,-1.8100291942602098e-05,-0.00034034625536557477,0.0,,,,,,
2024-08-03 22:00:59.614199,7.11252761167458e-05,0.0010754442727411828,0.0,-1.5699941928081855,-0.003172693683541686,0.0,-1.4513478232558441e-05,0.0013971092916797239,0.0,-1.569979337221925,4.763874740691665e-05,0.0,-2.064045402949688e-05,-0.001075349767186764,0.0,-1.810029194171392e-05,-0.00034034625534451273,0.0,,,,,,
2024-08-03 22:00:59.624422,7.112527611763397e-05,0.0010754442726549024,0.0,-1.5699941928081864,-0.0031726936835904662,0.0,-1.451347823344662e-05,0.0013971092919711709,0.0,-1.569979337221925,4.763874699395998e-05,0.0,-2.06404540286087e-05,-0.001075349767096644,0.0,-1.810029194082574e-05,-0.00034034625510168245,0.0,,,,,,
2024-08-03 22:00:59.634402,7.112527611585762e-05,0.001075444272685162,0.0,-1.5699941928081855,-0.0031726936835424374,0.0,-1.451347823344662e-05,0.0013971092917529286,0.0,-1.569979337221925,4.763874733694669e-05,0.0,-2.06404540286087e-05,-0.0010753497670717535,0.0,-1.8100291942602098e-05,-0.0003403462553496322,0.0,,,,,,
2024-08-03 22:00:59.644340,7.11252761167458e-05,0.0010754442727151441,0.0,-1.5699941928081855,-0.0031726936835859,0.0,-1.451347823344662e-05,0.0013971092917908785,0.0,-1.569979337221925,4.7638747143034094e-05,0.0,-2.06404540286087e-05,-0.0010753497670615583,0.0,-1.810029194171392e-05,-0.0003403462552341377,0.0,,,,,,
2024-08-03 22:00:59.653957,7.11252761167458e-05,0.0010754442726997264,0.0,-1.5699941928081855,-0.003172693683589401,0.0,-1.451347823344662e-05,0.0013971092918113898,0.0,-1.569979337221925,4.763874718068063e-05,0.0,-2.06404540286087e-05,-0.0010753497671226622,0.0,-1.810029194171392e-05,-0.0003403462551685246,0.0,,,,,,
2024-08-03 22:00:59.663832,7.11252761167458e-05,0.0010754442727200658,0.0,-1.5699941928081855,-0.003172693683552388,0.0,-1.451347823344662e-05,0.0013971092916848923,0.0,-1.569979337221925,4.763874721689168e-05,0.0,-2.064045402949688e-05,-0.0010753497671158174,0.0,-1.810029194171392e-05,-0.0003403462552647046,0.0,,,,,,
2024-08-03 22:00:59.674223,7.11252761167458e-05,0.001075444272704471,0.0,-1.5699941928081864,-0.0031726936835077247,0.0,-1.451347823344662e-05,0.0013971092917463058,0.0,-1.569979337221925,4.763874712549474e-05,0.0,-2.0640454027720523e-05,-0.00107534976714686,0.0,-1.810029194171392e-05,-0.00034034625526351426,0.0,,,,,,
2024-08-03 22:00:59.684220,7.112527611585762e-05,0.001075444272713684,0.0,-1.5699941928081855,-0.0031726936835661077,0.0,-1.4513478232558441e-05,0.0013971092917424391,0.0,-1.569979337221925,4.763874721372527e-05,0.0,-2.06404540286087e-05,-0.0010753497670982393,0.0,-1.810029194171392e-05,-0.00034034625524333964,0.0,,,,,,
2024-08-03 22:00:59.693859,7.11252761167458e-05,0.0010754442726975298,0.0,-1.5699941928081855,-0.0031726936835275426,0.0,-1.4513478234334798e-05,0.0013971092916846705,0.0,-1.569979337221925,4.763874721640119e-05,0.0,-2.06404540286087e-05,-0.0010753497671389198,0.0,-1.810029194171392e-05,-0.00034034625529923666,0.0,,,,,,
2024-08-03 22:00:59.704423,7.11252761167458e-05,0.0010754442726985608,0.0,-1.5699941928081864,-0.003172693683601515,0.0,-1.451347823344662e-05,0.001397109291743874,0.0,-1.569979337221925,4.763874713846928e-05,0.0,-2.06404540286087e-05,-0.0010753497671267347,0.0,-1.810029194171392e-05,-0.00034034625518932957,0.0,,,,,,
2024-08-03 22:00:59.714022,7.11252761167458e-05,0.0010754442726983514,0.0,-1.5699941928081855,-0.003172693683532971,0.0,-1.4513478234334798e-05,0.0013971092916804317,0.0,-1.569979337221925,4.763874735196202e-05,0.0,-2.06404540286087e-05,-0.0010753497671097104,0.0,-1.810029194171392e-05,-0.0003403462553060729,0.0,,,,,,
2024-08-03 22:00:59.723839,7.11252761167458e-05,0.0010754442726858872,0.0,-1.5699941928081864,-0.003172693683586822,0.0,-1.451347823344662e-05,0.001397109291803731,0.0,-1.569979337221925,4.763874727286947e-05,0.0,-2.06404540286087e-05,-0.0010753497671436808,0.0,-1.810029194171392e-05,-0.00034034625524009083,0.0,,,,,,
2024-08-03 22:00:59.733683,7.11252761167458e-05,0.001075444272685885,0.0,-1.5699941928081873,-0.0031726936835661194,0.0,-1.451347823344662e-05,0.001397109291821878,0.0,-1.569979337221925,4.7638747239258554e-05,0.0,-2.06404540286087e-05,-0.0010753497671365556,0.0,-1.810029194171392e-05,-0.00034034625517373115,0.0,,,,,,
2024-08-03 22:00:59.744034,7.11252761167458e-05,0.0010754442726964716,0.0,-1.5699941928081864,-0.00317269368354876,0.0,-1.451347823344662e-05,0.001397109291718729,0.0,-1.569979337221925,4.763874719142366e-05,0.0,-2.06404540286087e-05,-0.0010753497671077193,0.0,-1.810029194171392e-05,-0.00034034625521334487,0.0,,,,,,
2024-08-03 22:00:59.753798,7.11252761167458e-05,0.0010754442727233756,0.0,-1.5699941928081864,-0.0031726936835555445,0.0,-1.451347823344662e-05,0.0013971092917182582,0.0,-1.569979337221925,4.763874715484669e-05,0.0,-2.06404540286087e-05,-0.0010753497671620188,0.0,-1.810029194171392e-05,-0.0003403462550885996,0.0,,,,,,
2024-08-03 22:00:59.763606,7.112527611763397e-05,0.0010754442726618278,0.0,-1.5699941928081864,-0.0031726936835628433,0.0,-1.451347823344662e-05,0.001397109291798507,0.0,-1.569979337221925,4.763874713358592e-05,0.0,-2.06404540286087e-05,-0.00107534976710301,0.0,-1.810029194171392e-05,-0.0003403462550286635,0.0,,,,,,
2024-08-03 22:00:59.773350,7.11252761167458e-05,0.0010754442726990296,0.0,-1.5699941928081864,-0.0031726936835874335,0.0,-1.451347823344662e-05,0.001397109291836691,0.0,-1.569979337221925,4.763874720056414e-05,0.0,-2.06404540286087e-05,-0.0010753497671140422,0.0,-1.810029194171392e-05,-0.0003403462551749586,0.0,,,,,,
2024-08-03 22:00:59.783615,7.11252761167458e-05,0.0010754442727012904,0.0,-1.5699941928081864,-0.0031726936835567137,0.0,-1.451347823344662e-05,0.001397109291766049,0.0,-1.569979337221925,4.763874723092494e-05,0.0,-2.06404540286087e-05,-0.0010753497671998785,0.0,-1.8100291942602098e-05,-0.00034034625532639853,0.0,,,,,,
2024-08-03 22:00:59.793396,7.11252761167458e-05,0.001075444272706458,0.0,-1.5699941928081864,-0.003172693683553561,0.0,-1.451347823344662e-05,0.0013971092917529928,0.0,-1.569979337221925,4.763874730184304e-05,0.0,-2.06404540286087e-05,-0.0010753497670141486,0.0,-1.810029194171392e-05,-0.0003403462552712805,0.0,,,,,,
2024-08-03 22:00:59.803883,7.11252761167458e-05,0.0010754442726978583,0.0,-1.5699941928081855,-0.0031726936835803554,0.0,-1.4513478232558441e-05,0.0013971092918006124,0.0,-1.569979337221925,4.7638747104468806e-05,0.0,-2.06404540286087e-05,-0.0010753497670724077,0.0,-1.810029194082574e-05,-0.00034034625515010574,0.0,,,,,,
2024-08-03 22:00:59.813682,7.11252761167458e-05,0.0010754442727343174,0.0,-1.5699941928081864,-0.003172693683583324,0.0,-1.451347823344662e-05,0.0013971092917699321,0.0,-1.569979337221925,4.76387471959385e-05,0.0,-2.06404540286087e-05,-0.0010753497671846398,0.0,-1.810029194171392e-05,-0.0003403462551752138,0.0,,,,,,
2024-08-03 22:00:59.823816,7.11252761167458e-05,0.0010754442726718673,0.0,-1.5699941928081864,-0.0031726936836090017,0.0,-1.4513478232558441e-05,0.001397109291783097,0.0,-1.569979337221925,4.763874730665072e-05,0.0,-2.06404540286087e-05,-0.0010753497670741977,0.0,-1.810029194082574e-05,-0.00034034625529851144,0.0,,,,,,
2024-08-03 22:00:59.833776,7.11252761167458e-05,0.0010754442727187346,0.0,-1.5699941928081855,-0.0031726936835571587,0.0,-1.451347823344662e-05,0.0013971092917645367,0.0,-1.569979337221925,4.763874717142805e-05,0.0,-2.06404540286087e-05,-0.0010753497671201714,0.0,-1.810029194082574e-05,-0.000340346255263601,0.0,,,,,,
2024-08-03 22:00:59.843487,7.11252761167458e-05,0.0010754442727092149,0.0,-1.5699941928081864,-0.003172693683507541,0.0,-1.451347823344662e-05,0.0013971092917046605,0.0,-1.569979337221925,4.763874710922509e-05,0.0,-2.06404540286087e-05,-0.001075349767195469,0.0,-1.810029194171392e-05,-0.0003403462551368701,0.0,,,,,,
2024-08-03 22:00:59.853772,7.11252761167458e-05,0.0010754442727184223,0.0,-1.5699941928081855,-0.0031726936835742327,0.0,-1.451347823344662e-05,0.0013971092917983551,0.0,-1.569979337221925,4.763874712518943e-05,0.0,-2.064045402949688e-05,-0.001075349767200278,0.0,-1.810029194171392e-05,-0.00034034625519613164,0.0,,,,,,
2024-08-03 22:00:59.863631,7.112527611763397e-05,0.0010754442726788591,0.0,-1.5699941928081855,-0.0031726936836024484,0.0,-1.4513478232558441e-05,0.0013971092917366731,0.0,-1.569979337221925,4.763874733074115e-05,0.0,-2.06404540286087e-05,-0.0010753497672061837,0.0,-1.810029194171392e-05,-0.000340346255376537,0.0,,,,,,
2024-08-03 22:00:59.873241,7.11252761167458e-05,0.0010754442727340242,0.0,-1.5699941928081855,-0.003172693683575712,0.0,-1.4513478234334798e-05,0.001397109291645719,0.0,-1.569979337221925,4.763874733599031e-05,0.0,-2.06404540286087e-05,-0.0010753497672780965,0.0,-1.810029194082574e-05,-0.00034034625522180457,0.0,,,,,,
2024-08-03 22:00:59.883756,7.112527611763397e-05,0.0010754442727051608,0.0,-1.5699941928081873,-0.0031726936835867934,0.0,-1.451347823344662e-05,0.001397109291854849,0.0,-1.569979337221925,4.76387472237408e-05,0.0,-2.06404540286087e-05,-0.0010753497671033723,0.0,-1.810029194171392e-05,-0.0003403462552135027,0.0,,,,,,
2024-08-03 22:00:59.893423,7.112527611763397e-05,0.0010754442727445095,0.0,-1.5699941928081864,-0.0031726936835566747,0.0,-1.4513478234334798e-05,0.0013971092917321975,0.0,-1.5699793372219242,4.763874717407415e-05,0.0,-2.06404540286087e-05,-0.0010753497671757272,0.0,-1.810029194082574e-05,-0.00034034625513036307,0.0,,,,,,
2024-08-03 22:00:59.903658,7.11252761167458e-05,0.0010754442727083544,0.0,-1.5699941928081864,-0.0031726936835536207,0.0,-1.451347823344662e-05,0.0013971092918102826,0.0,-1.569979337221925,4.7638747227006745e-05,0.0,-2.06404540286087e-05,-0.0010753497671554444,0.0,-1.810029194171392e-05,-0.00034034625530440267,0.0,,,,,,
2024-08-03 22:00:59.913745,7.11252761167458e-05,0.0010754442727362024,0.0,-1.5699941928081855,-0.0031726936835632345,0.0,-1.4513478232558441e-05,0.001397109291845745,0.0,-1.5699793372219242,4.7638747305148665e-05,0.0,-2.06404540286087e-05,-0.001075349767101677,0.0,-1.810029194171392e-05,-0.0003403462553931728,0.0,,,,,,
2024-08-03 22:00:59.923388,7.11252761167458e-05,0.0010754442726877815,0.0,-1.5699941928081855,-0.0031726936835510568,0.0,-1.451347823344662e-05,0.0013971092916713664,0.0,-1.569979337221926,4.763874703565634e-05,0.0,-2.06404540286087e-05,-0.0010753497670550028,0.0,-1.810029194171392e-05,-0.00034034625511183037,0.0,,,,,,
2024-08-03 22:00:59.933705,7.11252761167458e-05,0.0010754442727544326,0.0,-1.5699941928081855,-0.00317269368359664,0.0,-1.451347823344662e-05,0.0013971092918996684,0.0,-1.569979337221925,4.763874708088058e-05,0.0,-2.06404540286087e-05,-0.0010753497671619364,0.0,-1.810029194171392e-05,-0.0003403462551584207,0.0,,,,,,
2024-08-03 22:00:59.943454,7.112527611763397e-05,0.0010754442727384274,0.0,-1.5699941928081864,-0.0031726936835647663,0.0,-1.451347823344662e-05,0.0013971092917229467,0.0,-1.569979337221925,4.7638747312242166e-05,0.0,-2.06404540286087e-05,-0.0010753497671072564,0.0,-1.810029194082574e-05,-0.00034034625521199406,0.0,,,,,,
2024-08-03 22:00:59.953361,7.11252761167458e-05,0.0010754442727415481,0.0,-1.5699941928081864,-0.0031726936834747,0.0,-1.4513478234334798e-05,0.0013971092916444908,0.0,-1.569979337221925,4.763874719243262e-05,0.0,-2.06404540286087e-05,-0.0010753497672526108,0.0,-1.810029194171392e-05,-0.0003403462551966846,0.0,,,,,,
2024-08-03 22:00:59.963667,7.112527611763397e-05,0.0010754442726860873,0.0,-1.5699941928081864,-0.0031726936835343843,0.0,-1.4513478232558441e-05,0.0013971092917622599,0.0,-1.569979337221925,4.763874702087855e-05,0.0,-2.06404540286087e-05,-0.0010753497671195074,0.0,-1.8100291942602098e-05,-0.0003403462551576185,0.0,,,,,,
2024-08-03 22:00:59.973455,7.11252761167458e-05,0.0010754442727269756,0.0,-1.5699941928081864,-0.00317269368357204,0.0,-1.451347823344662e-05,0.001397109291818323,0.0,-1.569979337221925,4.7638747161795345e-05,0.0,-2.06404540286087e-05,-0.0010753497671438434,0.0,-1.810029194171392e-05,-0.00034034625523436527,0.0,,,,,,
2024-08-03 22:00:59.983764,7.112527611763397e-05,0.0010754442726907502,0.0,-1.5699941928081873,-0.003172693683539993,0.0,-1.451347823344662e-05,0.0013971092918169904,0.0,-1.569979337221926,4.7638746991970145e-05,0.0,-2.06404540286087e-05,-0.001075349767137173,0.0,-1.810029194171392e-05,-0.0003403462550158003,0.0,,,,,,
2024-08-03 22:00:59.993469,7.112527611585762e-05,0.0010754442726986617,0.0,-1.5699941928081873,-0.003172693683557508,0.0,-1.451347823344662e-05,0.0013971092917745183,0.0,-1.569979337221925,4.763874714934838e-05,0.0,-2.06404540286087e-05,-0.0010753497670656748,0.0,-1.810029194171392e-05,-0.00034034625522051513,0.0,,,,,,
2024-08-03 22:01:00.003778,7.11252761167458e-05,0.001075444272726878,0.0,-1.5699941928081864,-0.0031726936835642285,0.0,-1.4513478232558441e-05,0.001397109291769973,0.0,-1.569979337221925,4.7638747354632736e-05,0.0,-2.06404540286087e-05,-0.0010753497671030063,0.0,-1.810029194171392e-05,-0.0003403462552937735,0.0,,,,,,
2024-08-03 22:01:00.013577,7.11252761167458e-05,0.0010754442727201538,0.0,-1.5699941928081873,-0.0031726936835098467,0.0,-1.451347823344662e-05,0.0013971092917789217,0.0,-1.569979337221926,4.76387470324948e-05,0.0,-2.06404540286087e-05,-0.0010753497671218372,0.0,-1.810029194082574e-05,-0.00034034625525237647,0.0,,,,,,
2024-08-03 22:01:00.023425,7.112527611763397e-05,0.0010754442726488124,0.0,-1.5699941928081855,-0.0031726936835662495,0.0,-1.4513478232558441e-05,0.0013971092917298188,0.0,-1.569979337221925,4.7638746988791156e-05,0.0,-2.06404540286087e-05,-0.0010753497670345422,0.0,-1.810029194171392e-05,-0.0003403462551657729,0.0,,,,,,
2024-08-03 22:01:00.033889,7.11252761167458e-05,0.0010754442727075866,0.0,-1.5699941928081855,-0.0031726936835400096,0.0,-1.451347823344662e-05,0.0013971092916910967,0.0,-1.569979337221925,4.7638747229391014e-05,0.0,-2.06404540286087e-05,-0.0010753497671750563,0.0,-1.810029194171392e-05,-0.0003403462551999745,0.0,,,,,,
2024-08-03 22:01:00.043777,7.11252761167458e-05,0.0010754442727212142,0.0,-1.5699941928081855,-0.003172693683577491,0.0,-1.4513478232558441e-05,0.0013971092917297342,0.0,-1.569979337221925,4.763874731511248e-05,0.0,-2.06404540286087e-05,-0.0010753497671567539,0.0,-1.810029194171392e-05,-0.0003403462552400624,0.0,,,,,,
2024-08-03 22:01:00.053570,7.11252761167458e-05,0.0010754442727232863,0.0,-1.5699941928081864,-0.0031726936835579558,0.0,-1.4513478234334798e-05,0.0013971092916596766,0.0,-1.569979337221925,4.7638747357084984e-05,0.0,-2.06404540286087e-05,-0.0010753497671233947,0.0,-1.810029194171392e-05,-0.00034034625526700865,0.0,,,,,,
2024-08-03 22:01:00.063411,7.11252761167458e-05,0.0010754442727381667,0.0,-1.5699941928081873,-0.0031726936835578725,0.0,-1.451347823344662e-05,0.001397109291820661,0.0,-1.569979337221926,4.763874717345529e-05,0.0,-2.06404540286087e-05,-0.0010753497670939985,0.0,-1.810029194171392e-05,-0.00034034625518817815,0.0,,,,,,
2024-08-03 22:01:00.073578,7.112527611763397e-05,0.0010754442727485825,0.0,-1.5699941928081855,-0.0031726936835484287,0.0,-1.451347823344662e-05,0.0013971092917440327,0.0,-1.569979337221925,4.7638747062270356e-05,0.0,-2.06404540286087e-05,-0.0010753497671983163,0.0,-1.810029194171392e-05,-0.000340346255162438,0.0,,,,,,
2024-08-03 22:01:00.083436,7.11252761167458e-05,0.001075444272716065,0.0,-1.5699941928081864,-0.003172693683551808,0.0,-1.4513478232558441e-05,0.0013971092917421843,0.0,-1.569979337221925,4.763874713897571e-05,0.0,-2.06404540286087e-05,-0.0010753497671606982,0.0,-1.810029194171392e-05,-0.00034034625514932284,0.0,,,,,,
2024-08-03 22:01:00.093508,7.11252761167458e-05,0.0010754442726987384,0.0,-1.5699941928081864,-0.0031726936835915105,0.0,-1.4513478232558441e-05,0.001397109291684962,0.0,-1.569979337221925,4.7638747450669304e-05,0.0,-2.06404540286087e-05,-0.0010753497672395117,0.0,-1.810029194171392e-05,-0.00034034625526413724,0.0,,,,,,
2024-08-03 22:01:00.103294,7.112527611763397e-05,0.0010754442727182046,0.0,-1.5699941928081873,-0.0031726936835261626,0.0,-1.451347823344662e-05,0.0013971092917528134,0.0,-1.569979337221925,4.7638747072067315e-05,0.0,-2.06404540286087e-05,-0.0010753497672088134,0.0,-1.810029194171392e-05,-0.00034034625517214844,0.0,,,,,,
2024-08-03 22:01:00.113512,7.11252761167458e-05,0.0010754442727513678,0.0,-1.5699941928081855,-0.003172693683533151,0.0,-1.4513478234334798e-05,0.001397109291687567,0.0,-1.569979337221925,4.763874730560056e-05,0.0,-2.06404540286087e-05,-0.0010753497672623086,0.0,-1.810029194171392e-05,-0.0003403462552521242,0.0,,,,,,
2024-08-03 22:01:00.123857,7.11252761167458e-05,0.001075444272670914,0.0,-1.5699941928081855,-0.0031726936835887566,0.0,-1.451347823344662e-05,0.0013971092917597224,0.0,-1.569979337221926,4.7638747294391644e-05,0.0,-2.06404540286087e-05,-0.0010753497671098626,0.0,-1.810029194082574e-05,-0.00034034625528179413,0.0,,,,,,
2024-08-03 22:01:00.133770,7.112527611763397e-05,0.001075444272732221,0.0,-1.5699941928081864,-0.003172693683576821,0.0,-1.4513478232558441e-05,0.0013971092917374702,0.0,-1.569979337221926,4.763874704770074e-05,0.0,-2.06404540286087e-05,-0.0010753497671580378,0.0,-1.810029194171392e-05,-0.0003403462551282581,0.0,,,,,,
2024-08-03 22:01:00.143282,7.11252761167458e-05,0.0010754442727127645,0.0,-1.5699941928081864,-0.003172693683567435,0.0,-1.451347823344662e-05,0.001397109291760391,0.0,-1.569979337221925,4.7638747193802294e-05,0.0,-2.06404540286087e-05,-0.0010753497670889225,0.0,-1.810029194171392e-05,-0.00034034625521122243,0.0,,,,,,
2024-08-03 22:01:00.153662,7.11252761167458e-05,0.001075444272727934,0.0,-1.5699941928081855,-0.003172693683539788,0.0,-1.451347823344662e-05,0.0013971092917557607,0.0,-1.569979337221925,4.763874696751347e-05,0.0,-2.06404540286087e-05,-0.0010753497671400947,0.0,-1.810029194171392e-05,-0.00034034625499794013,0.0,,,,,,
2024-08-03 22:01:00.163274,7.11252761167458e-05,0.0010754442726978234,0.0,-1.5699941928081855,-0.0031726936835524177,0.0,-1.4513478232558441e-05,0.0013971092917687152,0.0,-1.569979337221925,4.7638747110093104e-05,0.0,-2.0640454030385058e-05,-0.0010753497671720275,0.0,-1.810029194171392e-05,-0.00034034625514936187,0.0,,,,,,
2024-08-03 22:01:00.173480,7.11252761167458e-05,0.001075444272755107,0.0,-1.5699941928081864,-0.003172693683539538,0.0,-1.4513478234334798e-05,0.0013971092916594207,0.0,-1.569979337221926,4.7638747240605676e-05,0.0,-2.06404540286087e-05,-0.0010753497671836013,0.0,-1.810029194171392e-05,-0.0003403462551903384,0.0,,,,,,
2024-08-03 22:01:00.183455,7.112527611763397e-05,0.0010754442727083373,0.0,-1.5699941928081864,-0.003172693683573277,0.0,-1.4513478232558441e-05,0.0013971092917502764,0.0,-1.569979337221926,4.763874713122713e-05,0.0,-2.0640454030385058e-05,-0.0010753497671873832,0.0,-1.810029194171392e-05,-0.00034034625512883575,0.0,,,,,,
2024-08-03 22:01:00.193591,7.11252761167458e-05,0.0010754442727181014,0.0,-1.5699941928081864,-0.0031726936835754765,0.0,-1.4513478232558441e-05,0.0013971092917984696,0.0,-1.569979337221926,4.763874706108283e-05,0.0,-2.06404540286087e-05,-0.0010753497671015925,0.0,-1.810029194171392e-05,-0.0003403462551131366,0.0,,,,,,
2024-08-03 22:01:00.203391,7.11252761167458e-05,0.001075444272705464,0.0,-1.5699941928081855,-0.003172693683522682,0.0,-1.4513478232558441e-05,0.0013971092916940106,0.0,-1.569979337221925,4.76387471003355e-05,0.0,-2.064045402949688e-05,-0.0010753497671040506,0.0,-1.810029194171392e-05,-0.00034034625510832525,0.0,,,,,,
2024-08-03 22:01:00.213869,7.11252761167458e-05,0.0010754442727060253,0.0,-1.5699941928081855,-0.0031726936835189097,0.0,-1.451347823344662e-05,0.001397109291742671,0.0,-1.569979337221925,4.763874720609747e-05,0.0,-2.0640454030385058e-05,-0.0010753497671629354,0.0,-1.810029194171392e-05,-0.000340346255162343,0.0,,,,,,
2024-08-03 22:01:00.223479,7.11252761167458e-05,0.001075444272687958,0.0,-1.5699941928081855,-0.0031726936835582116,0.0,-1.451347823344662e-05,0.0013971092916909645,0.0,-1.569979337221925,4.763874708944252e-05,0.0,-2.06404540286087e-05,-0.0010753497671050084,0.0,-1.810029194171392e-05,-0.0003403462551275889,0.0,,,,,,
2024-08-03 22:01:00.233378,7.11252761167458e-05,0.0010754442727251778,0.0,-1.5699941928081873,-0.0031726936835301082,0.0,-1.451347823344662e-05,0.001397109291766545,0.0,-1.569979337221925,4.7638747228122714e-05,0.0,-2.06404540286087e-05,-0.0010753497671547201,0.0,-1.810029194171392e-05,-0.000340346255235222,0.0,,,,,,
2024-08-03 22:01:00.243559,7.11252761167458e-05,0.001075444272720547,0.0,-1.5699941928081864,-0.0031726936835409334,0.0,-1.4513478232558441e-05,0.0013971092917086886,0.0,-1.569979337221925,4.763874716302342e-05,0.0,-2.06404540286087e-05,-0.0010753497671209492,0.0,-1.810029194082574e-05,-0.00034034625521722317,0.0,,,,,,
2024-08-03 22:01:00.253758,7.11252761167458e-05,0.0010754442727145938,0.0,-1.5699941928081864,-0.003172693683531175,0.0,-1.451347823344662e-05,0.0013971092917742223,0.0,-1.5699793372219242,4.7638747158566374e-05,0.0,-2.06404540286087e-05,-0.0010753497670860433,0.0,-1.810029194082574e-05,-0.00034034625529275476,0.0,,,,,,
2024-08-03 22:01:00.263601,7.11252761167458e-05,0.001075444272740836,0.0,-1.5699941928081864,-0.0031726936835032096,0.0,-1.451347823344662e-05,0.0013971092915753091,0.0,-1.569979337221925,4.7638747265451795e-05,0.0,-2.06404540286087e-05,-0.0010753497671741113,0.0,-1.810029194171392e-05,-0.0003403462552909578,0.0,,,,,,
2024-08-03 22:01:00.273701,7.112527611763397e-05,0.0010754442727154085,0.0,-1.5699941928081855,-0.003172693683494216,0.0,-1.4513478232558441e-05,0.001397109291721765,0.0,-1.569979337221925,4.7638747168759934e-05,0.0,-2.06404540286087e-05,-0.0010753497672188837,0.0,-1.810029194171392e-05,-0.0003403462552451209,0.0,,,,,,
2024-08-03 22:01:00.283549,7.11252761167458e-05,0.0010754442727235274,0.0,-1.5699941928081855,-0.0031726936835676056,0.0,-1.4513478232558441e-05,0.0013971092917358264,0.0,-1.569979337221926,4.763874722063402e-05,0.0,-2.0640454027720523e-05,-0.0010753497670824743,0.0,-1.810029194171392e-05,-0.00034034625528677094,0.0,,,,,,
2024-08-03 22:01:00.293674,7.11252761167458e-05,0.0010754442727209928,0.0,-1.5699941928081855,-0.0031726936835564687,0.0,-1.451347823344662e-05,0.0013971092918369122,0.0,-1.569979337221926,4.763874706756072e-05,0.0,-2.06404540286087e-05,-0.00107534976711042,0.0,-1.810029194082574e-05,-0.0003403462552203936,0.0,,,,,,
2024-08-03 22:01:00.303624,7.112527611763397e-05,0.0010754442727551488,0.0,-1.5699941928081855,-0.003172693683593084,0.0,-1.4513478232558441e-05,0.001397109291824095,0.0,-1.569979337221925,4.76387472603207e-05,0.0,-2.06404540286087e-05,-0.0010753497671688803,0.0,-1.810029194171392e-05,-0.0003403462553008491,0.0,,,,,,
2024-08-03 22:01:00.313900,7.11252761167458e-05,0.0010754442726567143,0.0,-1.5699941928081864,-0.0031726936835921237,0.0,-1.4513478232558441e-05,0.00139710929195792,0.0,-1.569979337221925,4.763874705322518e-05,0.0,-2.06404540286087e-05,-0.001075349767102169,0.0,-1.810029194171392e-05,-0.00034034625524728907,0.0,,,,,,
2024-08-03 22:01:00.323566,7.11252761167458e-05,0.0010754442726935117,0.0,-1.5699941928081864,-0.003172693683593607,0.0,-1.4513478232558441e-05,0.0013971092917932498,0.0,-1.569979337221925,4.763874717673251e-05,0.0,-2.06404540286087e-05,-0.0010753497671646055,0.0,-1.810029194082574e-05,-0.0003403462552210643,0.0,,,,,,
2024-08-03 22:01:00.333927,7.112527611763397e-05,0.0010754442727334086,0.0,-1.5699941928081864,-0.0031726936835937193,0.0,-1.451347823344662e-05,0.0013971092917792582,0.0,-1.569979337221925,4.7638747164620884e-05,0.0,-2.06404540286087e-05,-0.0010753497671191898,0.0,-1.810029194082574e-05,-0.0003403462552498547,0.0,,,,,,
2024-08-03 22:01:00.343516,7.11252761167458e-05,0.0010754442726871956,0.0,-1.5699941928081855,-0.003172693683542326,0.0,-1.451347823344662e-05,0.0013971092916017073,0.0,-1.569979337221925,4.76387472490347e-05,0.0,-2.06404540286087e-05,-0.0010753497671110981,0.0,-1.810029194082574e-05,-0.00034034625523588163,0.0,,,,,,
2024-08-03 22:01:00.353959,7.112527611763397e-05,0.001075444272710682,0.0,-1.5699941928081855,-0.003172693683564808,0.0,-1.451347823344662e-05,0.0013971092917701795,0.0,-1.569979337221925,4.7638747152307275e-05,0.0,-2.06404540286087e-05,-0.0010753497671127552,0.0,-1.810029194171392e-05,-0.0003403462552507518,0.0,,,,,,
2024-08-03 22:01:00.363380,7.11252761167458e-05,0.0010754442727595275,0.0,-1.5699941928081855,-0.003172693683532359,0.0,-1.451347823344662e-05,0.0013971092916729112,0.0,-1.569979337221925,4.7638747132432006e-05,0.0,-2.06404540286087e-05,-0.0010753497671621291,0.0,-1.810029194171392e-05,-0.0003403462551781132,0.0,,,,,,
2024-08-03 22:01:00.373702,7.11252761167458e-05,0.0010754442727202588,0.0,-1.5699941928081855,-0.003172693683560852,0.0,-1.451347823344662e-05,0.0013971092917935593,0.0,-1.569979337221926,4.7638747065113026e-05,0.0,-2.06404540286087e-05,-0.0010753497671125837,0.0,-1.810029194171392e-05,-0.0003403462550976193,0.0,,,,,,
2024-08-03 22:01:00.383984,7.11252761167458e-05,0.001075444272680067,0.0,-1.5699941928081855,-0.003172693683602696,0.0,-1.451347823344662e-05,0.0013971092918194665,0.0,-1.569979337221926,4.763874705610016e-05,0.0,-2.06404540286087e-05,-0.001075349767185764,0.0,-1.810029194171392e-05,-0.0003403462550545921,0.0,,,,,,
2024-08-03 22:01:00.393541,7.11252761167458e-05,0.001075444272709863,0.0,-1.5699941928081855,-0.0031726936835334684,0.0,-1.4513478234334798e-05,0.0013971092917161117,0.0,-1.569979337221925,4.763874729087948e-05,0.0,-2.06404540286087e-05,-0.0010753497671424643,0.0,-1.810029194171392e-05,-0.00034034625526003614,0.0,,,,,,
2024-08-03 22:01:00.403937,7.11252761167458e-05,0.0010754442727350297,0.0,-1.5699941928081855,-0.0031726936835864074,0.0,-1.451347823344662e-05,0.0013971092918775518,0.0,-1.569979337221925,4.763874700143935e-05,0.0,-2.064045402949688e-05,-0.0010753497670596714,0.0,-1.810029194082574e-05,-0.00034034625506865613,0.0,,,,,,
2024-08-03 22:01:00.413465,7.11252761167458e-05,0.0010754442727048171,0.0,-1.5699941928081855,-0.0031726936835762432,0.0,-1.4513478231670263e-05,0.0013971092918225257,0.0,-1.569979337221925,4.763874709663783e-05,0.0,-2.0640454030385058e-05,-0.001075349767134796,0.0,-1.810029194171392e-05,-0.0003403462552178442,0.0,,,,,,
2024-08-03 22:01:00.423759,7.11252761167458e-05,0.0010754442727096134,0.0,-1.5699941928081855,-0.003172693683566037,0.0,-1.451347823344662e-05,0.0013971092918357779,0.0,-1.569979337221925,4.763874722230196e-05,0.0,-2.064045402949688e-05,-0.0010753497672730983,0.0,-1.810029194171392e-05,-0.0003403462553608641,0.0,,,,,,
2024-08-03 22:01:00.433408,7.11252761167458e-05,0.001075444272765186,0.0,-1.5699941928081855,-0.003172693683555691,0.0,-1.4513478232558441e-05,0.0013971092917889833,0.0,-1.569979337221926,4.7638747066771204e-05,0.0,-2.06404540286087e-05,-0.0010753497672495774,0.0,-1.810029194171392e-05,-0.0003403462552006431,0.0,,,,,,
2024-08-03 22:01:00.443658,7.11252761167458e-05,0.0010754442726842591,0.0,-1.5699941928081864,-0.0031726936835292444,0.0,-1.451347823344662e-05,0.0013971092917506997,0.0,-1.569979337221925,4.7638747226701975e-05,0.0,-2.0640454030385058e-05,-0.001075349767064179,0.0,-1.810029194171392e-05,-0.0003403462552445611,0.0,,,,,,
2024-08-03 22:01:00.453855,7.11252761167458e-05,0.0010754442727088317,0.0,-1.5699941928081855,-0.003172693683491223,0.0,-1.4513478232558441e-05,0.0013971092917487026,0.0,-1.569979337221925,4.7638747297933624e-05,0.0,-2.06404540286087e-05,-0.0010753497671574842,0.0,-1.810029194171392e-05,-0.00034034625526496297,0.0,,,,,,
2024-08-03 22:01:00.463588,7.11252761167458e-05,0.001075444272668142,0.0,-1.5699941928081855,-0.003172693683583518,0.0,-1.4513478232558441e-05,0.0013971092918842534,0.0,-1.569979337221925,4.763874719760242e-05,0.0,-2.06404540286087e-05,-0.0010753497670699175,0.0,-1.8100291942602098e-05,-0.0003403462552654486,0.0,,,,,,
2024-08-03 22:01:00.473476,7.11252761167458e-05,0.001075444272737273,0.0,-1.5699941928081873,-0.003172693683498635,0.0,-1.4513478234334798e-05,0.001397109291732609,0.0,-1.569979337221925,4.76387472001619e-05,0.0,-2.06404540286087e-05,-0.0010753497672270893,0.0,-1.810029194082574e-05,-0.0003403462552914421,0.0,,,,,,
2024-08-03 22:01:00.483667,7.11252761167458e-05,0.001075444272679904,0.0,-1.5699941928081855,-0.003172693683577898,0.0,-1.4513478232558441e-05,0.0013971092917368694,0.0,-1.569979337221925,4.763874735092574e-05,0.0,-2.06404540286087e-05,-0.0010753497672227746,0.0,-1.810029194171392e-05,-0.00034034625531046575,0.0,,,,,,
2024-08-03 22:01:00.493372,7.11252761167458e-05,0.0010754442727033719,0.0,-1.5699941928081855,-0.0031726936835725812,0.0,-1.451347823344662e-05,0.0013971092918225903,0.0,-1.569979337221925,4.763874718542195e-05,0.0,-2.06404540286087e-05,-0.0010753497671380301,0.0,-1.810029194171392e-05,-0.0003403462551892733,0.0,,,,,,
2024-08-03 22:01:00.503696,7.112527611763397e-05,0.0010754442727177941,0.0,-1.5699941928081855,-0.0031726936835658175,0.0,-1.451347823344662e-05,0.0013971092917526684,0.0,-1.569979337221925,4.7638747230620174e-05,0.0,-2.06404540286087e-05,-0.0010753497672094587,0.0,-1.810029194171392e-05,-0.0003403462552781613,0.0,,,,,,
2024-08-03 22:01:00.513849,7.11252761167458e-05,0.001075444272711092,0.0,-1.5699941928081855,-0.0031726936835486078,0.0,-1.4513478232558441e-05,0.0013971092918170624,0.0,-1.569979337221925,4.763874718962996e-05,0.0,-2.06404540286087e-05,-0.00107534976716779,0.0,-1.810029194171392e-05,-0.00034034625531712643,0.0,,,,,,
2024-08-03 22:01:00.523554,7.11252761167458e-05,0.001075444272699884,0.0,-1.5699941928081855,-0.0031726936835792846,0.0,-1.451347823344662e-05,0.0013971092917693425,0.0,-1.569979337221925,4.7638747099607893e-05,0.0,-2.0640454027720523e-05,-0.0010753497671413242,0.0,-1.810029194171392e-05,-0.0003403462550963895,0.0,,,,,,
2024-08-03 22:01:00.533851,7.112527611763397e-05,0.0010754442727315535,0.0,-1.5699941928081864,-0.0031726936835653973,0.0,-1.451347823344662e-05,0.0013971092918363538,0.0,-1.569979337221925,4.763874723237062e-05,0.0,-2.06404540286087e-05,-0.0010753497671276754,0.0,-1.810029194171392e-05,-0.00034034625525677497,0.0,,,,,,
2024-08-03 22:01:00.543467,7.11252761167458e-05,0.0010754442726780735,0.0,-1.5699941928081855,-0.0031726936835482266,0.0,-1.451347823344662e-05,0.00139710929179925,0.0,-1.569979337221925,4.7638747149330815e-05,0.0,-2.06404540286087e-05,-0.0010753497671175392,0.0,-1.810029194171392e-05,-0.0003403462552446136,0.0,,,,,,
2024-08-03 22:01:00.553702,7.11252761167458e-05,0.0010754442727378096,0.0,-1.5699941928081855,-0.003172693683575794,0.0,-1.4513478234334798e-05,0.0013971092917907507,0.0,-1.569979337221925,4.763874731321838e-05,0.0,-2.06404540286087e-05,-0.0010753497672236004,0.0,-1.810029194171392e-05,-0.0003403462553121981,0.0,,,,,,
2024-08-03 22:01:00.564022,7.11252761167458e-05,0.0010754442727324636,0.0,-1.5699941928081855,-0.003172693683548493,0.0,-1.451347823344662e-05,0.0013971092916944053,0.0,-1.569979337221925,4.763874743313385e-05,0.0,-2.06404540286087e-05,-0.0010753497672536705,0.0,-1.810029194171392e-05,-0.0003403462553981677,0.0,,,,,,
2024-08-03 22:01:00.573711,7.11252761167458e-05,0.001075444272699342,0.0,-1.5699941928081873,-0.003172693683539395,0.0,-1.451347823344662e-05,0.0013971092918103375,0.0,-1.569979337221925,4.7638747070112824e-05,0.0,-2.06404540286087e-05,-0.0010753497671240938,0.0,-1.810029194171392e-05,-0.00034034625521013194,0.0,,,,,,
2024-08-03 22:01:00.583854,7.11252761167458e-05,0.0010754442727161585,0.0,-1.5699941928081864,-0.0031726936835342282,0.0,-1.451347823344662e-05,0.0013971092917159436,0.0,-1.569979337221925,4.7638747162248e-05,0.0,-2.06404540286087e-05,-0.0010753497670994588,0.0,-1.810029194171392e-05,-0.00034034625511941577,0.0,,,,,,
2024-08-03 22:01:00.593603,7.11252761167458e-05,0.0010754442727461094,0.0,-1.5699941928081855,-0.0031726936835212907,0.0,-1.451347823344662e-05,0.0013971092916773911,0.0,-1.569979337221925,4.7638747182406137e-05,0.0,-2.06404540286087e-05,-0.001075349767213772,0.0,-1.810029194082574e-05,-0.0003403462551491291,0.0,,,,,,
2024-08-03 22:01:00.604791,7.112527611763397e-05,0.0010754442727024063,0.0,-1.5699941928081855,-0.003172693683559145,0.0,-1.451347823344662e-05,0.0013971092916952874,0.0,-1.5699793372219242,4.763874732657922e-05,0.0,-2.06404540286087e-05,-0.0010753497671430125,0.0,-1.810029194171392e-05,-0.0003403462553946201,0.0,,,,,,
2024-08-03 22:01:00.614404,7.11252761167458e-05,0.001075444272706773,0.0,-1.5699941928081855,-0.0031726936835740436,0.0,-1.451347823344662e-05,0.001397109291769037,0.0,-1.569979337221926,4.763874726136858e-05,0.0,-2.06404540286087e-05,-0.0010753497671866436,0.0,-1.810029194171392e-05,-0.0003403462552824605,0.0,,,,,,
2024-08-03 22:01:00.623998,7.112527611763397e-05,0.0010754442726779315,0.0,-1.5699941928081855,-0.003172693683525414,0.0,-1.451347823344662e-05,0.0013971092916803248,0.0,-1.569979337221925,4.763874701395516e-05,0.0,-2.06404540286087e-05,-0.0010753497671109414,0.0,-1.810029194082574e-05,-0.00034034625498730834,0.0,,,,,,
2024-08-03 22:01:00.634187,7.11252761167458e-05,0.0010754442726973658,0.0,-1.5699941928081873,-0.0031726936835280457,0.0,-1.451347823344662e-05,0.0013971092917216114,0.0,-1.569979337221925,4.7638747374411186e-05,0.0,-2.06404540286087e-05,-0.0010753497671386687,0.0,-1.810029194082574e-05,-0.00034034625527770734,0.0,,,,,,
2024-08-03 22:01:00.643827,7.11252761167458e-05,0.0010754442726760532,0.0,-1.5699941928081864,-0.003172693683550801,0.0,-1.451347823344662e-05,0.0013971092918269653,0.0,-1.569979337221925,4.763874719173201e-05,0.0,-2.0640454027720523e-05,-0.0010753497670635194,0.0,-1.810029194082574e-05,-0.00034034625531122414,0.0,,,,,,
2024-08-03 22:01:00.654005,7.11252761167458e-05,0.0010754442726625816,0.0,-1.5699941928081855,-0.0031726936835429105,0.0,-1.451347823344662e-05,0.0013971092918468083,0.0,-1.569979337221925,4.763874711105956e-05,0.0,-2.064045402949688e-05,-0.0010753497670503147,0.0,-1.810029194171392e-05,-0.0003403462552981442,0.0,,,,,,
2024-08-03 22:01:00.664308,7.11252761167458e-05,0.0010754442726902103,0.0,-1.5699941928081855,-0.0031726936836116992,0.0,-1.4513478232558441e-05,0.0013971092917889516,0.0,-1.569979337221925,4.7638747273681214e-05,0.0,-2.06404540286087e-05,-0.0010753497671037214,0.0,-1.8100291942602098e-05,-0.0003403462553770918,0.0,,,,,,
2024-08-03 22:01:00.673937,7.11252761167458e-05,0.0010754442726996943,0.0,-1.5699941928081855,-0.0031726936835447823,0.0,-1.451347823344662e-05,0.0013971092918737792,0.0,-1.569979337221925,4.763874717038808e-05,0.0,-2.06404540286087e-05,-0.0010753497670739048,0.0,-1.810029194171392e-05,-0.00034034625537547147,0.0,,,,,,
2024-08-03 22:01:00.684187,7.11252761167458e-05,0.001075444272710795,0.0,-1.5699941928081855,-0.003172693683569803,0.0,-1.4513478232558441e-05,0.0013971092918861631,0.0,-1.569979337221925,4.763874713602039e-05,0.0,-2.0640454030385058e-05,-0.001075349767115737,0.0,-1.810029194171392e-05,-0.00034034625518339085,0.0,,,,,,
2024-08-03 22:01:00.693945,7.11252761167458e-05,0.001075444272700103,0.0,-1.5699941928081855,-0.003172693683593475,0.0,-1.451347823344662e-05,0.001397109291849298,0.0,-1.569979337221925,4.76387469306854e-05,0.0,-2.06404540286087e-05,-0.001075349767214373,0.0,-1.810029194082574e-05,-0.00034034625504474633,0.0,,,,,,
2024-08-03 22:01:00.704029,7.11252761167458e-05,0.00107544427271858,0.0,-1.5699941928081855,-0.0031726936835274966,0.0,-1.4513478232558441e-05,0.0013971092917220464,0.0,-1.569979337221925,4.7638747228016896e-05,0.0,-2.06404540286087e-05,-0.001075349767131197,0.0,-1.810029194171392e-05,-0.00034034625520636163,0.0,,,,,,
2024-08-03 22:01:00.714253,7.11252761167458e-05,0.0010754442726785237,0.0,-1.5699941928081855,-0.0031726936835824006,0.0,-1.4513478232558441e-05,0.0013971092917983755,0.0,-1.569979337221926,4.763874712271929e-05,0.0,-2.06404540286087e-05,-0.0010753497670804328,0.0,-1.810029194171392e-05,-0.0003403462553021832,0.0,,,,,,
2024-08-03 22:01:00.723944,7.11252761167458e-05,0.001075444272705724,0.0,-1.5699941928081864,-0.0031726936835216276,0.0,-1.4513478234334798e-05,0.0013971092916543488,0.0,-1.569979337221925,4.7638747351738783e-05,0.0,-2.06404540286087e-05,-0.0010753497672235058,0.0,-1.810029194171392e-05,-0.0003403462552360653,0.0,,,,,,
2024-08-03 22:01:00.734341,7.11252761167458e-05,0.001075444272725196,0.0,-1.5699941928081873,-0.0031726936835445568,0.0,-1.451347823344662e-05,0.0013971092918406971,0.0,-1.569979337221925,4.763874705165114e-05,0.0,-2.06404540286087e-05,-0.0010753497672674704,0.0,-1.810029194171392e-05,-0.0003403462552201157,0.0,,,,,,
2024-08-03 22:01:00.743884,7.11252761167458e-05,0.0010754442727198999,0.0,-1.5699941928081855,-0.0031726936835770776,0.0,-1.4513478232558441e-05,0.0013971092918009511,0.0,-1.569979337221925,4.763874705664779e-05,0.0,-2.06404540286087e-05,-0.0010753497671823766,0.0,-1.810029194171392e-05,-0.0003403462551428071,0.0,,,,,,
2024-08-03 22:01:00.753982,7.11252761167458e-05,0.001075444272726484,0.0,-1.5699941928081873,-0.0031726936835431976,0.0,-1.4513478234334798e-05,0.0013971092916954422,0.0,-1.569979337221925,4.7638747250079434e-05,0.0,-2.06404540286087e-05,-0.0010753497671366168,0.0,-1.8100291942602098e-05,-0.0003403462552716023,0.0,,,,,,
2024-08-03 22:01:00.763658,7.11252761167458e-05,0.0010754442727019281,0.0,-1.5699941928081873,-0.0031726936835697276,0.0,-1.4513478232558441e-05,0.0013971092917760561,0.0,-1.569979337221925,4.763874710215696e-05,0.0,-2.06404540286087e-05,-0.0010753497670361804,0.0,-1.810029194171392e-05,-0.00034034625508558617,0.0,,,,,,
2024-08-03 22:01:00.773885,7.11252761167458e-05,0.001075444272707519,0.0,-1.5699941928081855,-0.0031726936835548645,0.0,-1.4513478232558441e-05,0.0013971092917744346,0.0,-1.569979337221925,4.7638747077081317e-05,0.0,-2.0640454027720523e-05,-0.0010753497670731122,0.0,-1.810029194082574e-05,-0.00034034625520367823,0.0,,,,,,
2024-08-03 22:01:00.784072,7.11252761167458e-05,0.0010754442727061884,0.0,-1.5699941928081864,-0.003172693683578501,0.0,-1.451347823344662e-05,0.001397109291852724,0.0,-1.569979337221925,4.763874732021929e-05,0.0,-2.06404540286087e-05,-0.0010753497671413537,0.0,-1.810029194171392e-05,-0.00034034625532292887,0.0,,,,,,
2024-08-03 22:01:00.794056,7.11252761167458e-05,0.001075444272720779,0.0,-1.5699941928081855,-0.0031726936835534446,0.0,-1.4513478232558441e-05,0.0013971092916819322,0.0,-1.5699793372219242,4.763874754129234e-05,0.0,-2.0640454030385058e-05,-0.0010753497671761418,0.0,-1.810029194171392e-05,-0.0003403462554678327,0.0,,,,,,
2024-08-03 22:01:00.804108,7.11252761167458e-05,0.0010754442727172824,0.0,-1.5699941928081855,-0.003172693683595602,0.0,-1.4513478232558441e-05,0.0013971092918378413,0.0,-1.569979337221925,4.763874726588981e-05,0.0,-2.06404540286087e-05,-0.0010753497671340201,0.0,-1.810029194171392e-05,-0.00034034625530117413,0.0,,,,,,
2024-08-03 22:01:00.813870,7.11252761167458e-05,0.0010754442726892686,0.0,-1.5699941928081864,-0.0031726936835757345,0.0,-1.451347823344662e-05,0.0013971092917099168,0.0,-1.569979337221925,4.763874734803905e-05,0.0,-2.06404540286087e-05,-0.001075349767165408,0.0,-1.810029194082574e-05,-0.00034034625525025143,0.0,,,,,,
2024-08-03 22:01:00.824269,7.79501388645798e-05,0.001075018834596148,0.0,-1.5699973659439308,-0.0031731122078992174,0.0,-1.3138075639851365e-05,0.0013978424005264777,0.0,-1.5699792899894023,4.723484035696322e-05,0.0,-2.140131512007315e-05,-0.0010749290531515895,0.0,-1.798928831764357e-05,-0.0003402256719026069,0.0,,,,,,
2024-08-03 22:01:00.834407,7.795182534486855e-05,0.0010750224913518563,0.0,-1.5699973659769888,-0.0031731452656177817,0.0,-1.3138072790574995e-05,0.0013978452113604318,0.0,-1.5699792899884937,4.723574977289098e-05,0.0,-2.140132563610564e-05,-0.0010749308243540464,0.0,-1.7989287635522544e-05,-0.00034022538748031345,0.0,,,,,,
2024-08-03 22:01:00.843963,8.469809840416787e-05,0.0010745973225561958,0.0,-1.570000539538836,-0.0031735713676255372,0.0,-1.1764834293437332e-05,0.0013985766364810887,0.0,-1.5699792431584765,4.6833244055991376e-05,0.0,-2.2189702423958124e-05,-0.0010745098966800607,0.0,-1.787587561263848e-05,-0.0003401041419493901,0.0,,,,,,
2024-08-03 22:01:00.854277,8.46982311379918e-05,0.0010746001751644452,0.0,-1.5700005395639243,-0.0031735964552791034,0.0,-1.1764832450467111e-05,0.0013985784361569705,0.0,-1.569979243157725,4.683399567622824e-05,0.0,-2.2189706992747915e-05,-0.0010745107482622504,0.0,-1.7875875035322508e-05,-0.00034010381278857843,0.0,,,,,,
2024-08-03 22:01:00.864083,8.46982308537747e-05,0.001074600495276406,0.0,-1.570000539566873,-0.003173599404073373,0.0,-1.1764832163585481e-05,0.0013985787052552497,0.0,-1.5699792431576611,4.6834058944708644e-05,0.0,-2.2189707324038466e-05,-0.0010745108971112027,0.0,-1.787587507884325e-05,-0.00034010378899507285,0.0,,,,,,
2024-08-03 22:01:00.874126,8.469823049939151e-05,0.0010746005176882525,0.0,-1.570000539567247,-0.003173599779253228,0.0,-1.1764832115623847e-05,0.001398578744698997,0.0,-1.5699792431576611,4.683405875925326e-05,0.0,-2.2189707465258834e-05,-0.0010745109210979957,0.0,-1.7875875144568454e-05,-0.00034010378745218063,0.0,,,,,,
2024-08-03 22:01:00.884429,8.469823025070156e-05,0.0010746005118497236,0.0,-1.5700005395673189,-0.0031735998496535134,0.0,-1.1764832097860278e-05,0.001398578754810127,0.0,-1.5699792431576656,4.683405453066703e-05,0.0,-2.2189707547859427e-05,-0.0010745109279441342,0.0,-1.787587519253009e-05,-0.0003401037877084134,0.0,,,,,,
2024-08-03 22:01:00.894238,8.469823008905308e-05,0.0010746005059466474,0.0,-1.5700005395673455,-0.0031735998757125186,0.0,-1.1764832088978494e-05,0.001398578759935837,0.0,-1.5699792431576682,4.683405113756721e-05,0.0,-2.218970759670924e-05,-0.0010745109314016844,0.0,-1.787587522450451e-05,-0.00034010378803884785,0.0,,,,,,
2024-08-03 22:01:00.904377,8.469822998602439e-05,0.001074600502157981,0.0,-1.5700005395673597,-0.003173599890201625,0.0,-1.1764832082761245e-05,0.0013985787632444804,0.0,-1.569979243157671,4.6834049227148446e-05,0.0,-2.2189707628683664e-05,-0.0010745109338816232,0.0,-1.7875875244044437e-05,-0.0003401037884051761,0.0,,,,,,
2024-08-03 22:01:00.914282,8.469822992118736e-05,0.0010746004995624342,0.0,-1.5700005395673668,-0.0031735998991767977,0.0,-1.176483208009671e-05,0.0013985787653484965,0.0,-1.5699792431576718,4.683404774394556e-05,0.0,-2.2189707646447232e-05,-0.0010745109352348723,0.0,-1.7875875254702578e-05,-0.00034010378844313936,0.0,,,,,,
2024-08-03 22:01:00.924539,8.46982298785548e-05,0.0010746004979470512,0.0,-1.5700005395673748,-0.0031735999049272027,0.0,-1.1764832078320353e-05,0.0013985787667815234,0.0,-1.5699792431576736,4.6834047018454064e-05,0.0,-2.218970765976991e-05,-0.001074510936194368,0.0,-1.7875875263584362e-05,-0.0003401037885816892,0.0,,,,,,
2024-08-03 22:01:00.934292,8.469822985102127e-05,0.0010746004970121075,0.0,-1.5700005395673784,-0.003173599908420353,0.0,-1.1764832075655818e-05,0.001398578767529654,0.0,-1.5699792431576736,4.683404641943475e-05,0.0,-2.2189707667763514e-05,-0.0010745109368877183,0.0,-1.7875875268913433e-05,-0.00034010378854081264,0.0,,,,,,
2024-08-03 22:01:00.944543,8.469822983592223e-05,0.001074600496367341,0.0,-1.5700005395673793,-0.0031735999107843226,0.0,-1.176483207476764e-05,0.0013985787681961332,0.0,-1.5699792431576745,4.68340457252858e-05,0.0,-2.2189707673092585e-05,-0.0010745109374071889,0.0,-1.7875875271577968e-05,-0.0003401037884243395,0.0,,,,,,
2024-08-03 22:01:00.954256,8.469822982437591e-05,0.00107460049593911,0.0,-1.570000539567381,-0.0031735999122616014,0.0,-1.176483207476764e-05,0.0013985787685735459,0.0,-1.5699792431576745,4.683404568374763e-05,0.0,-2.21897076766453e-05,-0.0010745109375029597,0.0,-1.7875875274242503e-05,-0.00034010378856415735,0.0,,,,,,
2024-08-03 22:01:00.964416,8.469822981727049e-05,0.0010746004956483683,0.0,-1.570000539567381,-0.0031735999132349083,0.0,-1.1764832073879461e-05,0.0013985787688907832,0.0,-1.5699792431576753,4.6834045385498466e-05,0.0,-2.2189707678421655e-05,-0.0010745109377147753,0.0,-1.787587527513068e-05,-0.0003401037884771984,0.0,,,,,,
2024-08-03 22:01:00.974063,8.46982298128296e-05,0.0010746004955161097,0.0,-1.570000539567381,-0.003173599913776602,0.0,-1.1764832073879461e-05,0.0013985787689781816,0.0,-1.5699792431576745,4.683404556055006e-05,0.0,-2.2189707679309834e-05,-0.0010745109377752267,0.0,-1.787587527690704e-05,-0.0003401037886887336,0.0,,,,,,
2024-08-03 22:01:00.984422,8.469822981016506e-05,0.0010746004954202007,0.0,-1.5700005395673828,-0.003173599914226557,0.0,-1.176483207476764e-05,0.0013985787691820667,0.0,-1.5699792431576753,4.683404543579699e-05,0.0,-2.218970768108619e-05,-0.0010745109379891567,0.0,-1.787587527690704e-05,-0.0003401037887298201,0.0,,,,,,
2024-08-03 22:01:00.994029,8.46982298083887e-05,0.0010746004953425458,0.0,-1.570000539567381,-0.0031735999143856523,0.0,-1.1764832073879461e-05,0.001398578769076762,0.0,-1.5699792431576753,4.6834045266359826e-05,0.0,-2.218970768108619e-05,-0.0010745109378921434,0.0,-1.7875875277795217e-05,-0.0003401037886051482,0.0,,,,,,
2024-08-03 22:01:01.004396,8.469822980661235e-05,0.0010746004952916753,0.0,-1.5700005395673828,-0.003173599914643141,0.0,-1.1764832073879461e-05,0.0013985787691868387,0.0,-1.5699792431576753,4.683404523509404e-05,0.0,-2.2189707682862547e-05,-0.0010745109379581618,0.0,-1.7875875278683395e-05,-0.00034010378852396045,0.0,,,,,,
2024-08-03 22:01:01.014065,8.469822980661235e-05,0.001074600495304945,0.0,-1.5700005395673828,-0.003173599914715006,0.0,-1.1764832073879461e-05,0.0013985787692031948,0.0,-1.5699792431576753,4.683404534689577e-05,0.0,-2.218970768197437e-05,-0.0010745109380102384,0.0,-1.7875875278683395e-05,-0.0003401037885929198,0.0,,,,,,
2024-08-03 22:01:01.024317,8.469822980483599e-05,0.0010746004952748205,0.0,-1.570000539567382,-0.0031735999147347333,0.0,-1.1764832072991283e-05,0.0013985787692485368,0.0,-1.5699792431576753,4.683404545325481e-05,0.0,-2.2189707683750726e-05,-0.001074510937898643,0.0,-1.7875875278683395e-05,-0.0003401037887954323,0.0,,,,,,
2024-08-03 22:01:01.033988,8.469822980572417e-05,0.0010746004952596395,0.0,-1.5700005395673828,-0.0031735999148167367,0.0,-1.1764832073879461e-05,0.001398578769202595,0.0,-1.5699792431576753,4.683404537956799e-05,0.0,-2.2189707683750726e-05,-0.0010745109378771894,0.0,-1.7875875278683395e-05,-0.00034010378877397823,0.0,,,,,,
2024-08-03 22:01:01.044317,8.469822980572417e-05,0.001074600495230067,0.0,-1.5700005395673837,-0.0031735999148183435,0.0,-1.1764832073879461e-05,0.001398578769159043,0.0,-1.5699792431576736,4.683404549564311e-05,0.0,-2.2189707682862547e-05,-0.001074510937882024,0.0,-1.7875875278683395e-05,-0.0003401037888185862,0.0,,,,,,
2024-08-03 22:01:01.054478,8.469822980394781e-05,0.001074600495260601,0.0,-1.5700005395673828,-0.003173599914842502,0.0,-1.1764832072991283e-05,0.0013985787693338765,0.0,-1.5699792431576753,4.683404517901108e-05,0.0,-2.2189707682862547e-05,-0.0010745109378281167,0.0,-1.7875875277795217e-05,-0.0003401037886480271,0.0,,,,,,
2024-08-03 22:01:01.064194,8.469822980483599e-05,0.0010746004952127946,0.0,-1.5700005395673828,-0.0031735999148223984,0.0,-1.1764832072991283e-05,0.0013985787691515748,0.0,-1.5699792431576753,4.6834045452766706e-05,0.0,-2.2189707683750726e-05,-0.001074510937769026,0.0,-1.7875875277795217e-05,-0.0003401037888285832,0.0,,,,,,
2024-08-03 22:01:01.074412,8.469822980483599e-05,0.0010746004952258178,0.0,-1.5700005395673828,-0.0031735999148368617,0.0,-1.1764832073879461e-05,0.0013985787692998033,0.0,-1.5699792431576753,4.683404507828523e-05,0.0,-2.2189707682862547e-05,-0.0010745109379061797,0.0,-1.7875875278683395e-05,-0.0003401037886144701,0.0,,,,,,
2024-08-03 22:01:01.084214,8.469822980483599e-05,0.0010746004952259657,0.0,-1.5700005395673837,-0.003173599914867574,0.0,-1.1764832073879461e-05,0.0013985787693028724,0.0,-1.5699792431576753,4.683404544185215e-05,0.0,-2.2189707682862547e-05,-0.001074510937865826,0.0,-1.7875875278683395e-05,-0.0003401037887695228,0.0,,,,,,
2024-08-03 22:01:01.094410,8.469822980483599e-05,0.001074600495252009,0.0,-1.5700005395673846,-0.003173599914913188,0.0,-1.1764832072991283e-05,0.001398578769240546,0.0,-1.5699792431576753,4.68340455045289e-05,0.0,-2.2189707682862547e-05,-0.0010745109379668694,0.0,-1.7875875278683395e-05,-0.00034010378883380136,0.0,,,,,,
2024-08-03 22:01:01.104024,8.469822980483599e-05,0.0010746004952482582,0.0,-1.5700005395673837,-0.0031735999148827824,0.0,-1.1764832072991283e-05,0.0013985787693319518,0.0,-1.5699792431576753,4.6834045286182186e-05,0.0,-2.2189707683750726e-05,-0.0010745109378695822,0.0,-1.7875875278683395e-05,-0.00034010378871946834,0.0,,,,,,
2024-08-03 22:01:01.114968,8.469822980483599e-05,0.001074600495263259,0.0,-1.570000539567382,-0.0031735999148762182,0.0,-1.1764832072991283e-05,0.001398578769312464,0.0,-1.5699792431576753,4.683404525836145e-05,0.0,-2.2189707683750726e-05,-0.0010745109378283864,0.0,-1.7875875278683395e-05,-0.00034010378873255693,0.0,,,,,,
2024-08-03 22:01:01.124019,8.469822980483599e-05,0.0010746004952217989,0.0,-1.5700005395673837,-0.0031735999148673963,0.0,-1.1764832072991283e-05,0.001398578769247769,0.0,-1.5699792431576753,4.6834045387132033e-05,0.0,-2.2189707683750726e-05,-0.0010745109378443836,0.0,-1.7875875278683395e-05,-0.0003401037888709997,0.0,,,,,,
2024-08-03 22:01:01.134399,8.469822980483599e-05,0.0010746004951814859,0.0,-1.5700005395673846,-0.003173599914905505,0.0,-1.1764832073879461e-05,0.0013985787692827505,0.0,-1.5699792431576745,4.683404530021924e-05,0.0,-2.2189707682862547e-05,-0.001074510937781545,0.0,-1.7875875278683395e-05,-0.00034010378871616716,0.0,,,,,,
2024-08-03 22:01:01.144058,8.469822980572417e-05,0.0010746004952248173,0.0,-1.5700005395673828,-0.0031735999148850844,0.0,-1.1764832072991283e-05,0.0013985787692188333,0.0,-1.5699792431576753,4.683404536502103e-05,0.0,-2.2189707683750726e-05,-0.0010745109379079662,0.0,-1.7875875277795217e-05,-0.00034010378878460775,0.0,,,,,,
2024-08-03 22:01:01.154430,8.469822980483599e-05,0.0010746004952382543,0.0,-1.5700005395673846,-0.003173599914897837,0.0,-1.1764832073879461e-05,0.001398578769305664,0.0,-1.5699792431576753,4.683404539659376e-05,0.0,-2.2189707682862547e-05,-0.0010745109379677162,0.0,-1.7875875278683395e-05,-0.0003401037888552048,0.0,,,,,,
2024-08-03 22:01:01.164011,8.469822980572417e-05,0.001074600495240044,0.0,-1.5700005395673828,-0.0031735999148598667,0.0,-1.1764832073879461e-05,0.0013985787692272844,0.0,-1.5699792431576753,4.68340453787814e-05,0.0,-2.2189707682862547e-05,-0.0010745109378271919,0.0,-1.7875875278683395e-05,-0.00034010378873631315,0.0,,,,,,
2024-08-03 22:01:01.174438,8.469822980572417e-05,0.00107460049520026,0.0,-1.5700005395673828,-0.003173599914853762,0.0,-1.1764832072991283e-05,0.0013985787693397297,0.0,-1.5699792431576753,4.683404510542942e-05,0.0,-2.2189707682862547e-05,-0.0010745109378836916,0.0,-1.7875875278683395e-05,-0.00034010378870290335,0.0,,,,,,
2024-08-03 22:01:01.184034,8.469822980572417e-05,0.0010746004952753166,0.0,-1.5700005395673828,-0.0031735999148719326,0.0,-1.1764832073879461e-05,0.0013985787693304233,0.0,-1.5699792431576753,4.683404519050048e-05,0.0,-2.2189707682862547e-05,-0.0010745109380410275,0.0,-1.7875875278683395e-05,-0.0003401037887014155,0.0,,,,,,
2024-08-03 22:01:01.194215,8.469822980483599e-05,0.0010746004952432305,0.0,-1.5700005395673828,-0.003173599914912996,0.0,-1.1764832072991283e-05,0.001398578769248452,0.0,-1.5699792431576745,4.683404536774487e-05,0.0,-2.2189707682862547e-05,-0.001074510937916278,0.0,-1.7875875278683395e-05,-0.00034010378881366426,0.0,,,,,,
2024-08-03 22:01:01.204974,8.469822980483599e-05,0.0010746004952613478,0.0,-1.5700005395673837,-0.003173599914886139,0.0,-1.1764832073879461e-05,0.0013985787692354153,0.0,-1.5699792431576753,4.683404525082321e-05,0.0,-2.2189707683750726e-05,-0.0010745109379869718,0.0,-1.7875875277795217e-05,-0.000340103788670326,0.0,,,,,,
2024-08-03 22:01:01.214463,8.469822980483599e-05,0.0010746004952453972,0.0,-1.5700005395673846,-0.0031735999148699134,0.0,-1.1764832073879461e-05,0.0013985787691799707,0.0,-1.5699792431576745,4.683404535110627e-05,0.0,-2.2189707682862547e-05,-0.0010745109378528573,0.0,-1.7875875278683395e-05,-0.0003401037887167045,0.0,,,,,,
2024-08-03 22:01:01.224480,8.469822980483599e-05,0.0010746004952563765,0.0,-1.5700005395673828,-0.0031735999148763236,0.0,-1.1764832072991283e-05,0.0013985787692783304,0.0,-1.5699792431576753,4.683404513923495e-05,0.0,-2.2189707683750726e-05,-0.001074510937943531,0.0,-1.7875875278683395e-05,-0.00034010378862818285,0.0,,,,,,
2024-08-03 22:01:01.234607,8.469822980483599e-05,0.0010746004952472718,0.0,-1.570000539567382,-0.003173599914862952,0.0,-1.1764832072991283e-05,0.0013985787692916032,0.0,-1.5699792431576745,4.683404537941913e-05,0.0,-2.2189707683750726e-05,-0.0010745109378970108,0.0,-1.7875875278683395e-05,-0.00034010378864918667,0.0,,,,,,
2024-08-03 22:01:01.244312,8.469822980483599e-05,0.001074600495237734,0.0,-1.5700005395673846,-0.0031735999149070018,0.0,-1.1764832073879461e-05,0.00139857876932005,0.0,-1.5699792431576753,4.6834045109607394e-05,0.0,-2.2189707683750726e-05,-0.0010745109378697043,0.0,-1.7875875278683395e-05,-0.000340103788581492,0.0,,,,,,
2024-08-03 22:01:01.254683,8.469822980483599e-05,0.0010746004952382456,0.0,-1.5700005395673837,-0.0031735999148924865,0.0,-1.1764832073879461e-05,0.001398578769186001,0.0,-1.5699792431576745,4.683404533008012e-05,0.0,-2.2189707682862547e-05,-0.0010745109379136772,0.0,-1.7875875277795217e-05,-0.0003401037887585345,0.0,,,,,,
2024-08-03 22:01:01.264361,8.469822980483599e-05,0.0010746004952660807,0.0,-1.5700005395673846,-0.00317359991488599,0.0,-1.1764832072991283e-05,0.0013985787692613223,0.0,-1.5699792431576753,4.683404529218975e-05,0.0,-2.2189707682862547e-05,-0.0010745109377544944,0.0,-1.7875875278683395e-05,-0.0003401037887521904,0.0,,,,,,
2024-08-03 22:01:01.274584,8.469822980572417e-05,0.001074600495244741,0.0,-1.5700005395673828,-0.003173599914860827,0.0,-1.1764832073879461e-05,0.0013985787693284383,0.0,-1.5699792431576753,4.683404517983789e-05,0.0,-2.2189707682862547e-05,-0.0010745109379014018,0.0,-1.7875875278683395e-05,-0.0003401037886954075,0.0,,,,,,
2024-08-03 22:01:01.284553,8.469822980483599e-05,0.0010746004952396238,0.0,-1.5700005395673837,-0.0031735999148763817,0.0,-1.1764832073879461e-05,0.0013985787692711413,0.0,-1.5699792431576753,4.6834045286942754e-05,0.0,-2.2189707683750726e-05,-0.0010745109379499908,0.0,-1.7875875278683395e-05,-0.0003401037886990372,0.0,,,,,,
2024-08-03 22:01:01.294710,8.469822980572417e-05,0.0010746004952295071,0.0,-1.5700005395673828,-0.0031735999148711012,0.0,-1.1764832072991283e-05,0.0013985787693251274,0.0,-1.5699792431576753,4.68340451306562e-05,0.0,-2.2189707682862547e-05,-0.0010745109379444642,0.0,-1.7875875278683395e-05,-0.00034010378862998913,0.0,,,,,,
2024-08-03 22:01:01.304986,8.469822980572417e-05,0.001074600495226255,0.0,-1.5700005395673837,-0.0031735999148624124,0.0,-1.1764832072991283e-05,0.0013985787693107223,0.0,-1.5699792431576753,4.683404501160224e-05,0.0,-2.2189707682862547e-05,-0.0010745109377701466,0.0,-1.7875875278683395e-05,-0.00034010378854438595,0.0,,,,,,
2024-08-03 22:01:01.314429,8.469822980572417e-05,0.0010746004952461921,0.0,-1.5700005395673828,-0.0031735999148674037,0.0,-1.1764832073879461e-05,0.0013985787692138104,0.0,-1.5699792431576753,4.683404523549812e-05,0.0,-2.2189707683750726e-05,-0.0010745109380467463,0.0,-1.7875875278683395e-05,-0.0003401037884616479,0.0,,,,,,
2024-08-03 22:01:01.324633,8.469822980483599e-05,0.0010746004952326424,0.0,-1.5700005395673828,-0.0031735999149003534,0.0,-1.1764832072991283e-05,0.0013985787691928367,0.0,-1.5699792431576753,4.6834045249053574e-05,0.0,-2.2189707682862547e-05,-0.0010745109378677115,0.0,-1.7875875277795217e-05,-0.0003401037886025922,0.0,,,,,,
2024-08-03 22:01:01.334521,8.469822980483599e-05,0.0010746004952098848,0.0,-1.5700005395673828,-0.003173599914883015,0.0,-1.1764832073879461e-05,0.0013985787693471688,0.0,-1.5699792431576753,4.683404514348904e-05,0.0,-2.2189707683750726e-05,-0.0010745109379348787,0.0,-1.7875875277795217e-05,-0.0003401037885861116,0.0,,,,,,
2024-08-03 22:01:01.344747,8.469822980572417e-05,0.001074600495143639,0.0,-1.5700005395673846,-0.0031735999148894247,0.0,-1.1764832072991283e-05,0.0013985787693977939,0.0,-1.5699792431576753,4.683404518489721e-05,0.0,-2.2189707682862547e-05,-0.0010745109379763243,0.0,-1.7875875277795217e-05,-0.0003401037886846982,0.0,,,,,,
2024-08-03 22:01:01.354459,8.469822980572417e-05,0.0010746004952117759,0.0,-1.5700005395673828,-0.0031735999148605103,0.0,-1.1764832072991283e-05,0.0013985787693609041,0.0,-1.5699792431576745,4.683404519683113e-05,0.0,-2.2189707682862547e-05,-0.001074510937967204,0.0,-1.7875875278683395e-05,-0.0003401037886361845,0.0,,,,,,
2024-08-03 22:01:01.364726,8.469822980572417e-05,0.0010746004952221474,0.0,-1.5700005395673828,-0.0031735999148754706,0.0,-1.1764832073879461e-05,0.0013985787693299547,0.0,-1.5699792431576745,4.6834045228308775e-05,0.0,-2.2189707683750726e-05,-0.001074510937876763,0.0,-1.7875875278683395e-05,-0.00034010378872122377,0.0,,,,,,
2024-08-03 22:01:01.374349,8.469822980572417e-05,0.00107460049527514,0.0,-1.570000539567382,-0.0031735999149004974,0.0,-1.1764832073879461e-05,0.0013985787691835224,0.0,-1.5699792431576745,4.6834045409940394e-05,0.0,-2.2189707683750726e-05,-0.0010745109379187816,0.0,-1.7875875278683395e-05,-0.00034010378884161304,0.0,,,,,,
2024-08-03 22:01:01.384725,8.469822980483599e-05,0.0010746004952699505,0.0,-1.5700005395673837,-0.0031735999148504073,0.0,-1.1764832073879461e-05,0.0013985787692139253,0.0,-1.5699792431576753,4.68340451867731e-05,0.0,-2.2189707682862547e-05,-0.0010745109378774427,0.0,-1.7875875278683395e-05,-0.0003401037887331163,0.0,,,,,,
2024-08-03 22:01:01.394770,8.469822980483599e-05,0.0010746004952689057,0.0,-1.5700005395673846,-0.0031735999149153414,0.0,-1.1764832073879461e-05,0.0013985787693759038,0.0,-1.5699792431576745,4.683404520635498e-05,0.0,-2.2189707682862547e-05,-0.0010745109379870785,0.0,-1.7875875278683395e-05,-0.00034010378876886394,0.0,,,,,,
2024-08-03 22:01:01.404440,8.469822980483599e-05,0.0010746004952630521,0.0,-1.5700005395673828,-0.0031735999149096715,0.0,-1.1764832073879461e-05,0.0013985787693950235,0.0,-1.5699792431576753,4.6834045098147594e-05,0.0,-2.2189707682862547e-05,-0.0010745109379697564,0.0,-1.7875875278683395e-05,-0.000340103788536756,0.0,,,,,,
2024-08-03 22:01:01.414762,8.469822980572417e-05,0.0010746004952680082,0.0,-1.5700005395673828,-0.00317359991490029,0.0,-1.1764832072991283e-05,0.0013985787693486683,0.0,-1.5699792431576753,4.683404512296021e-05,0.0,-2.2189707682862547e-05,-0.0010745109380002344,0.0,-1.7875875278683395e-05,-0.00034010378855428905,0.0,,,,,,
2024-08-03 22:01:01.424792,8.469822980572417e-05,0.0010746004952081165,0.0,-1.570000539567382,-0.0031735999148716915,0.0,-1.1764832073879461e-05,0.0013985787691702908,0.0,-1.5699792431576745,4.683404521140617e-05,0.0,-2.2189707682862547e-05,-0.0010745109379890132,0.0,-1.7875875278683395e-05,-0.00034010378868632536,0.0,,,,,,
2024-08-03 22:01:01.434971,9.129333157620323e-05,0.001074174727045361,0.0,-1.5700037136143672,-0.003174023448642373,0.0,-1.0394575876482293e-05,0.001399308400877515,0.0,-1.5699791967276866,4.643230528739433e-05,0.0,-2.3003381621755636e-05,-0.0010740893871399016,0.0,-1.775998625497266e-05,-0.00033998219983277496,0.0,,,,,,
2024-08-03 22:01:01.444785,9.129334852353566e-05,0.0010741771479021577,0.0,-1.5700037136349498,-0.0031740440325611448,0.0,-1.0394574589511762e-05,0.0013993096481960492,0.0,-1.5699791967270142,4.6432977751948963e-05,0.0,-2.3003383430975077e-05,-0.0010740897489141883,0.0,-1.7759985646570442e-05,-0.0003399818520043608,0.0,,,,,,
2024-08-03 22:01:01.454908,9.770731745017969e-05,0.0010737515152641729,0.0,-1.57000688810841,-0.0031744705045196353,0.0,-9.0285198330875e-06,0.001400038274722809,0.0,-1.5699791506979475,4.6032057189939845e-05,0.0,-2.3840228899452143e-05,-0.001073668018553239,0.0,-1.764155048267213e-05,-0.00033986002062079564,0.0,,,,,,
2024-08-03 22:01:01.464578,9.7707320597884e-05,0.0010737537151269793,0.0,-1.5700068881267837,-0.00317448888008398,0.0,-9.028518820564102e-06,0.0014000392396785097,0.0,-1.5699791506973195,4.603268446068398e-05,0.0,-2.384022958068499e-05,-0.0010736681125919575,0.0,-1.7641549917790655e-05,-0.0003398596583068054,0.0,,,,,,
2024-08-03 22:01:01.474923,9.770732010494498e-05,0.0010737539601619324,0.0,-1.5700068881289446,-0.003174491041007424,0.0,-9.028518642928418e-06,0.0014000393979580559,0.0,-1.5699791506972653,4.603273891933132e-05,0.0,-2.3840229742333463e-05,-0.0010736681643929867,0.0,-1.7641549939106937e-05,-0.0003398596277070263,0.0,,,,,,
2024-08-03 22:01:01.484511,9.770731966263213e-05,0.0010737539772025762,0.0,-1.5700068881292217,-0.0031744913173796592,0.0,-9.028518610065817e-06,0.0014000394228702116,0.0,-1.5699791506972653,4.603273926082746e-05,0.0,-2.3840229830263127e-05,-0.0010736681758766093,0.0,-1.7641549990621286e-05,-0.0003398596251513173,0.0,,,,,,
2024-08-03 22:01:01.494704,9.770731936420418e-05,0.0010737539725724304,0.0,-1.570006888129275,-0.003174491370115694,0.0,-9.028518595854962e-06,0.0014000394295866736,0.0,-1.569979150697268,4.603273633175652e-05,0.0,-2.3840229882665653e-05,-0.0010736681802905699,0.0,-1.76415500270366e-05,-0.0003398596251313065,0.0,,,,,,
2024-08-03 22:01:01.504420,9.770731917235764e-05,0.0010737539680740773,0.0,-1.5700068881292937,-0.003174491389935353,0.0,-9.028518587861356e-06,0.0014000394334903689,0.0,-1.5699791506972707,4.6032733913490306e-05,0.0,-2.3840229914640076e-05,-0.0010736681830557366,0.0,-1.764155005012924e-05,-0.0003398596255146497,0.0,,,,,,
2024-08-03 22:01:01.514508,9.770731904978902e-05,0.001073753965094349,0.0,-1.5700068881293034,-0.0031744914010375727,0.0,-9.028518583420464e-06,0.0014000394359835412,0.0,-1.5699791506972725,4.603273205871529e-05,0.0,-2.384022993595636e-05,-0.0010736681848767646,0.0,-1.7641550065228273e-05,-0.00033985962570975395,0.0,,,,,,
2024-08-03 22:01:01.524911,9.770731897074114e-05,0.0010737539631641472,0.0,-1.5700068881293114,-0.0031744914079345063,0.0,-9.02851857986775e-06,0.0014000394376546229,0.0,-1.5699791506972733,4.603273112721248e-05,0.0,-2.3840229950167213e-05,-0.0010736681859901214,0.0,-1.7641550075886414e-05,-0.0003398596258870829,0.0,,,,,,
2024-08-03 22:01:01.534717,9.770731892100315e-05,0.0010737539619461343,0.0,-1.5700068881293168,-0.0031744914123611034,0.0,-9.028518578091393e-06,0.0014000394388668364,0.0,-1.5699791506972733,4.6032730281297344e-05,0.0,-2.384022995816082e-05,-0.0010736681866662012,0.0,-1.7641550080327306e-05,-0.0003398596257363785,0.0,,,,,,
2024-08-03 22:01:01.544555,9.770731888902873e-05,0.0010737539611756321,0.0,-1.5700068881293185,-0.0031744914150644518,0.0,-9.028518575426858e-06,0.0014000394394268199,0.0,-1.5699791506972742,4.603272993242288e-05,0.0,-2.384022996348989e-05,-0.0010736681871670291,0.0,-1.7641550086544555e-05,-0.00033985962595972966,0.0,,,,,,
2024-08-03 22:01:01.554744,9.77073188694888e-05,0.0010737539606841533,0.0,-1.5700068881293203,-0.0031744914168419115,0.0,-9.028518576315037e-06,0.0014000394398031974,0.0,-1.5699791506972751,4.603272962477314e-05,0.0,-2.384022996793078e-05,-0.0010736681875894412,0.0,-1.7641550087432734e-05,-0.00033985962594526695,0.0,,,,,,
2024-08-03 22:01:01.564982,9.770731885616613e-05,0.0010737539604355956,0.0,-1.570006888129322,-0.0031744914180116502,0.0,-9.02851857453868e-06,0.0014000394403187858,0.0,-1.5699791506972751,4.603272922883324e-05,0.0,-2.384022996881896e-05,-0.0010736681878561985,0.0,-1.764155009009727e-05,-0.0003398596258510731,0.0,,,,,,
2024-08-03 22:01:01.574867,9.770731884817252e-05,0.0010737539602307725,0.0,-1.570006888129322,-0.0031744914186811247,0.0,-9.028518573650501e-06,0.0014000394403943048,0.0,-1.5699791506972751,4.603272927895547e-05,0.0,-2.384022996970714e-05,-0.0010736681878354842,0.0,-1.7641550090985447e-05,-0.0003398596259767268,0.0,,,,,,
2024-08-03 22:01:01.584449,9.770731884195527e-05,0.0010737539600320198,0.0,-1.570006888129322,-0.003174491419150161,0.0,-9.02851857453868e-06,0.0014000394404816074,0.0,-1.5699791506972751,4.60327290836229e-05,0.0,-2.3840229971483495e-05,-0.0010736681878247857,0.0,-1.7641550090985447e-05,-0.00033985962597466303,0.0,,,,,,
2024-08-03 22:01:01.594802,9.770731883929074e-05,0.001073753959986496,0.0,-1.570006888129322,-0.003174491419443259,0.0,-9.028518573650501e-06,0.0014000394406347024,0.0,-1.5699791506972751,4.6032728984595124e-05,0.0,-2.3840229972371674e-05,-0.0010736681878418168,0.0,-1.7641550090985447e-05,-0.000339859625901012,0.0,,,,,,
2024-08-03 22:01:01.604542,9.770731883751438e-05,0.001073753959963892,0.0,-1.5700068881293239,-0.003174491419626127,0.0,-9.028518573650501e-06,0.001400039440569246,0.0,-1.5699791506972751,4.603272917541286e-05,0.0,-2.3840229973259852e-05,-0.001073668188032712,0.0,-1.7641550090985447e-05,-0.000339859626086286,0.0,,,,,,
2024-08-03 22:01:01.614802,9.770731883573802e-05,0.0010737539599175248,0.0,-1.5700068881293239,-0.0031744914197672155,0.0,-9.028518573650501e-06,0.0014000394406440426,0.0,-1.5699791506972751,4.603272920968894e-05,0.0,-2.384022997414803e-05,-0.001073668188161125,0.0,-1.7641550090985447e-05,-0.0003398596261400638,0.0,,,,,,
2024-08-03 22:01:01.624990,9.770731883396166e-05,0.0010737539599043001,0.0,-1.5700068881293239,-0.003174491419873177,0.0,-9.028518575426858e-06,0.0014000394406484254,0.0,-1.5699791506972751,4.603272923784719e-05,0.0,-2.384022997414803e-05,-0.0010736681881401999,0.0,-1.7641550092761804e-05,-0.00033985962606739115,0.0,,,,,,
2024-08-03 22:01:01.635372,0.00010393373506989434,0.001073327927214318,0.0,-1.5700100630685332,-0.0031749156739956353,0.0,-7.668554179218745e-06,0.0014007666642290861,0.0,-1.5699791050670235,4.5632569244194086e-05,0.0,-2.4698270703282788e-05,-0.0010732461635329837,0.0,-1.752049489045504e-05,-0.00033973770088034975,0.0,,,,,,
2024-08-03 22:01:01.645000,0.00010393373641104375,0.0010733299335442211,0.0,-1.5700100630848526,-0.003174931993265541,0.0,-7.66855341183259e-06,0.0014007673841151132,0.0,-1.5699791050664311,4.5633161645217504e-05,0.0,-2.4698270716605464e-05,-0.0010732460448031565,0.0,-1.752049429448732e-05,-0.000339737332634514,0.0,,,,,,
2024-08-03 22:01:01.655140,0.00010997642353149928,0.0010729040257344414,0.0,-1.5700132384501513,-0.0031753580825976775,0.0,-6.31784192517415e-06,0.0014014932998789153,0.0,-1.569979059835262,4.5234079059097384e-05,0.0,-2.5575659193144418e-05,-0.0010728238801799243,0.0,-1.7396744321551694e-05,-0.0003396153348139225,0.0,,,,,,
2024-08-03 22:01:01.664854,0.00010997642413190789,0.0010729059215563407,0.0,-1.570013238465372,-0.0031753733027545432,0.0,-6.317841289238402e-06,0.001401493872721868,0.0,-1.5699790598346928,4.5234648989847764e-05,0.0,-2.557565893912539e-05,-0.0010728236165912172,0.0,-1.7396743757558397e-05,-0.0003396149572470038,0.0,,,,,,
2024-08-03 22:01:01.675251,0.00010997642365850879,0.0010729061320318275,0.0,-1.5700132384671608,-0.0031753750921649972,0.0,-6.3178411595643524e-06,0.001401493978652466,0.0,-1.5699790598346413,4.523469932040194e-05,0.0,-2.5575659019061447e-05,-0.0010728236224162822,0.0,-1.739674376644018e-05,-0.00033961492331374113,0.0,,,,,,
2024-08-03 22:01:01.684887,0.000109976423246394,0.001072906146761927,0.0,-1.5700132384673882,-0.0031753753210654696,0.0,-6.317841128478108e-06,0.0014014939961837837,0.0,-1.5699790598346404,4.523470036024398e-05,0.0,-2.557565907945758e-05,-0.0010728236278500876,0.0,-1.739674380729639e-05,-0.00033961492010077304,0.0,,,,,,
2024-08-03 22:01:01.695156,0.00010997642297194687,0.001072906143036812,0.0,-1.5700132384674335,-0.0031753753647061796,0.0,-6.31784111604361e-06,0.001401494001463559,0.0,-1.569979059834644,4.5234697859744284e-05,0.0,-2.5575659116761074e-05,-0.0010728236312477941,0.0,-1.7396743837494455e-05,-0.00033961492002127186,0.0,,,,,,
2024-08-03 22:01:01.704896,0.00010997642279519937,0.0010729061393491915,0.0,-1.5700132384674503,-0.003175375381209368,0.0,-6.317841108050004e-06,0.0014014940045112066,0.0,-1.5699790598346448,4.5234695869224664e-05,0.0,-2.557565914074189e-05,-0.0010728236332636129,0.0,-1.739674385703438e-05,-0.00033961492031235423,0.0,,,,,,
2024-08-03 22:01:01.715517,0.00010997642268240071,0.0010729061368164902,0.0,-1.5700132384674592,-0.003175375390478948,0.0,-6.317841103609112e-06,0.0014014940066489918,0.0,-1.5699790598346475,4.523469451623804e-05,0.0,-2.5575659154952746e-05,-0.0010728236347947462,0.0,-1.7396743871245235e-05,-0.0003396149203965179,0.0,,,,,,
2024-08-03 22:01:01.725855,0.00010997642260957008,0.0010729061353225975,0.0,-1.5700132384674645,-0.003175375396200918,0.0,-6.31784109916822e-06,0.0014014940079508623,0.0,-1.5699790598346475,4.5234693661328905e-05,0.0,-2.557565916383453e-05,-0.0010728236357274283,0.0,-1.7396743877462484e-05,-0.000339614920477813,0.0,,,,,,
2024-08-03 22:01:01.735460,0.00011584389402852224,0.001072479901608472,0.0,-1.5700164142902515,-0.0031757992517726773,0.0,-4.982191214253362e-06,0.0014022178948035816,0.0,-1.5699790149999941,4.483697081448439e-05,0.0,-2.6470685197566013e-05,-0.0010724013175831585,0.0,-1.7270219412779397e-05,-0.0003394930015880993,0.0,,,,,,
2024-08-03 22:01:01.745156,0.0001158438947914675,0.0010724816760072997,0.0,-1.5700164143041782,-0.0031758131793949668,0.0,-4.982190723090696e-06,0.001402218318388282,0.0,-1.569979014999447,4.483751852580307e-05,0.0,-2.6470684708179704e-05,-0.0010724009274319913,0.0,-1.7270218823028927e-05,-0.00033949262176021086,0.0,,,,,,
2024-08-03 22:01:01.755313,0.00012154651540097205,0.0010720555564479595,0.0,-1.5700195905517098,-0.003176237923446238,0.0,-3.6738606175035216e-06,0.001402939398812511,0.0,-1.5699789705602765,4.444203414663789e-05,0.0,-2.73817706073487e-05,-0.0010719785070071389,0.0,-1.7140839152496312e-05,-0.00033937084539839167,0.0,,,,,,
2024-08-03 22:01:01.765060,0.00012154651588591747,0.0010720572642140883,0.0,-1.5700195905649659,-0.0031762511792636245,0.0,-3.673860180519739e-06,0.0014029397260402721,0.0,-1.5699789705597427,4.444256879331042e-05,0.0,-2.73817700229273e-05,-0.0010719780183404222,0.0,-1.7140838583173945e-05,-0.0003393704574846106,0.0,,,,,,
2024-08-03 22:01:01.775322,0.00012154651546758544,0.0010720574534476889,0.0,-1.5700195905665246,-0.003176252737431857,0.0,-3.6738600668329013e-06,0.0014029397994453768,0.0,-1.5699789705596956,4.444261659732973e-05,0.0,-2.7381770054901722e-05,-0.0010719779954127524,0.0,-1.7140838583173945e-05,-0.0003393704216678934,0.0,,,,,,
2024-08-03 22:01:01.785090,0.00012154651509987957,0.0010720574668291146,0.0,-1.5700195905667227,-0.0031762529367139625,0.0,-3.6738600295294077e-06,0.0014029398125697974,0.0,-1.569978970559693,4.4442617902855624e-05,0.0,-2.7381770097534286e-05,-0.001071977997084041,0.0,-1.7140838618701082e-05,-0.00033937041819462365,0.0,,,,,,
2024-08-03 22:01:01.795306,0.0001215465148556305,0.001072057463506414,0.0,-1.5700195905667618,-0.003176252974729032,0.0,-3.673860010877661e-06,0.0014029398168516594,0.0,-1.5699789705596956,4.44426160667986e-05,0.0,-2.7381770125067817e-05,-0.0010719779996929296,0.0,-1.7140838645346435e-05,-0.0003393704182226624,0.0,,,,,,
2024-08-03 22:01:01.805172,0.00012154651469842292,0.001072057460266669,0.0,-1.570019590566776,-0.003176252989116033,0.0,-3.67386000021952e-06,0.0014029398195403969,0.0,-1.5699789705596974,4.44426140326573e-05,0.0,-2.7381770142831385e-05,-0.0010719780013871646,0.0,-1.714083866399818e-05,-0.0003393704181996523,0.0,,,,,,
2024-08-03 22:01:01.815231,0.00012154651459717059,0.0010720574580560384,0.0,-1.570019590566783,-0.003176252997202959,0.0,-3.673859994002271e-06,0.0014029398213113642,0.0,-1.5699789705596991,4.444261315294422e-05,0.0,-2.7381770154377705e-05,-0.001071978002731574,0.0,-1.71408386755445e-05,-0.0003393704185254883,0.0,,,,,,
2024-08-03 22:01:01.824835,0.00012154651453410992,0.0010720574566694013,0.0,-1.5700195905667893,-0.003176253002248672,0.0,-3.673859989561379e-06,0.0014029398226785765,0.0,-1.5699789705596983,4.444261202223867e-05,0.0,-2.7381770161483132e-05,-0.0010719780035236938,0.0,-1.714083868087357e-05,-0.00033937041835686214,0.0,,,,,,
2024-08-03 22:01:01.835245,0.00012154651449325371,0.0010720574558716555,0.0,-1.570019590566791,-0.0031762530054166077,0.0,-3.6738599851204867e-06,0.0014029398234459301,0.0,-1.5699789705596991,4.4442611692644134e-05,0.0,-2.7381770165924024e-05,-0.0010719780040778638,0.0,-1.7140838685314463e-05,-0.00033937041859043865,0.0,,,,,,
2024-08-03 22:01:01.845461,0.00012154651446660836,0.0010720574552676593,0.0,-1.5700195905667937,-0.0031762530073595843,0.0,-3.6738599851204867e-06,0.0014029398239490522,0.0,-1.569978970559701,4.444261100589367e-05,0.0,-2.7381770171253095e-05,-0.0010719780043859826,0.0,-1.7140838688867177e-05,-0.0003393704184934881,0.0,,,,,,
2024-08-03 22:01:01.855254,0.00012154651444973297,0.0010720574549682293,0.0,-1.5700195905667937,-0.003176253008613005,0.0,-3.6738599824559515e-06,0.0014029398240990559,0.0,-1.5699789705597,4.444261132619128e-05,0.0,-2.7381770171253095e-05,-0.001071978004654104,0.0,-1.7140838689755356e-05,-0.00033937041871682355,0.0,,,,,,
2024-08-03 22:01:01.865405,0.000121546514439963,0.001072057454722159,0.0,-1.5700195905667955,-0.003176253009522912,0.0,-3.673859981567773e-06,0.0014029398243819821,0.0,-1.569978970559701,4.44426110040334e-05,0.0,-2.7381770172141273e-05,-0.0010719780048087054,0.0,-1.7140838690643534e-05,-0.0003393704185619248,0.0,,,,,,
2024-08-03 22:01:01.875174,0.00012154651443374576,0.0010720574546128714,0.0,-1.5700195905667964,-0.0031762530100486277,0.0,-3.6738599806795946e-06,0.0014029398245703148,0.0,-1.569978970559701,4.444261087880425e-05,0.0,-2.7381770172141273e-05,-0.0010719780049985809,0.0,-1.714083869330807e-05,-0.0003393704187208083,0.0,,,,,,
2024-08-03 22:01:01.885451,0.00012154651442841669,0.001072057454467967,0.0,-1.5700195905667973,-0.0031762530103040614,0.0,-3.673859979791416e-06,0.0014029398246880698,0.0,-1.569978970559701,4.4442610890291267e-05,0.0,-2.7381770172141273e-05,-0.0010719780048781538,0.0,-1.7140838694196248e-05,-0.0003393704187129075,0.0,,,,,,
2024-08-03 22:01:01.895122,0.00012154651442486397,0.0010720574544334982,0.0,-1.5700195905667973,-0.003176253010563951,0.0,-3.6738599806795946e-06,0.0014029398246939051,0.0,-1.569978970559701,4.444261083433787e-05,0.0,-2.738177017480581e-05,-0.001071978005084033,0.0,-1.714083869330807e-05,-0.00033937041858466375,0.0,,,,,,
2024-08-03 22:01:01.905319,0.00012154651442308761,0.0010720574543278561,0.0,-1.5700195905667964,-0.0031762530106609795,0.0,-3.673859981567773e-06,0.001402939824647796,0.0,-1.569978970559701,4.44426108033852e-05,0.0,-2.738177017480581e-05,-0.0010719780049654013,0.0,-1.7140838695084426e-05,-0.00033937041854350126,0.0,,,,,,
2024-08-03 22:01:01.915017,0.00012154651442219944,0.001072057454394101,0.0,-1.5700195905667973,-0.003176253010756915,0.0,-3.6738599806795946e-06,0.0014029398246608077,0.0,-1.569978970559701,4.44426109329363e-05,0.0,-2.738177017480581e-05,-0.0010719780050375133,0.0,-1.7140838694196248e-05,-0.0003393704185236453,0.0,,,,,,
2024-08-03 22:01:01.925345,0.00012154651442131126,0.0010720574543079961,0.0,-1.5700195905667982,-0.0031762530107981943,0.0,-3.6738599806795946e-06,0.0014029398246407881,0.0,-1.569978970559701,4.444261078901074e-05,0.0,-2.7381770175693987e-05,-0.00107197800500101,0.0,-1.714083869330807e-05,-0.00033937041837235084,0.0,,,,,,
2024-08-03 22:01:01.934946,0.00012154651442219944,0.0010720574543773493,0.0,-1.5700195905667973,-0.0031762530108570735,0.0,-3.6738599806795946e-06,0.0014029398246845062,0.0,-1.5699789705597,4.44426108416262e-05,0.0,-2.738177017391763e-05,-0.0010719780050991894,0.0,-1.7140838694196248e-05,-0.00033937041865287156,0.0,,,,,,
2024-08-03 22:01:01.945244,0.00012154651442219944,0.0010720574543135746,0.0,-1.5700195905667982,-0.003176253010854891,0.0,-3.6738599806795946e-06,0.0014029398247114564,0.0,-1.569978970559701,4.444261086023729e-05,0.0,-2.738177017391763e-05,-0.0010719780049478845,0.0,-1.7140838694196248e-05,-0.00033937041871778784,0.0,,,,,,
2024-08-03 22:01:01.954897,0.00012154651442131126,0.0010720574544100861,0.0,-1.5700195905667973,-0.0031762530109031807,0.0,-3.6738599806795946e-06,0.0014029398246720596,0.0,-1.569978970559701,4.444261084047933e-05,0.0,-2.7381770175693987e-05,-0.0010719780050066434,0.0,-1.7140838694196248e-05,-0.00033937041859196217,0.0,,,,,,
2024-08-03 22:01:01.965111,0.00012154651442131126,0.001072057454348836,0.0,-1.5700195905667973,-0.0031762530108608916,0.0,-3.6738599806795946e-06,0.0014029398246271575,0.0,-1.569978970559701,4.444261089489837e-05,0.0,-2.738177017480581e-05,-0.0010719780050847609,0.0,-1.7140838694196248e-05,-0.00033937041868509167,0.0,,,,,,
2024-08-03 22:01:01.974901,0.0001215465144195349,0.0010720574543440912,0.0,-1.5700195905667973,-0.0031762530109046803,0.0,-3.6738599806795946e-06,0.0014029398246910997,0.0,-1.5699789705597,4.4442610981745346e-05,0.0,-2.738177017480581e-05,-0.0010719780050219663,0.0,-1.7140838694196248e-05,-0.00033937041869220794,0.0,,,,,,
2024-08-03 22:01:01.985158,0.0001215465144195349,0.0010720574543642294,0.0,-1.5700195905667973,-0.0031762530108796387,0.0,-3.6738599806795946e-06,0.0014029398246633816,0.0,-1.5699789705597,4.4442610734487186e-05,0.0,-2.7381770175693987e-05,-0.0010719780050992,0.0,-1.7140838694196248e-05,-0.00033937041850949374,0.0,,,,,,
2024-08-03 22:01:01.995458,0.00012154651442131126,0.0010720574543519725,0.0,-1.5700195905667982,-0.0031762530109761223,0.0,-3.6738599806795946e-06,0.0014029398248674727,0.0,-1.5699789705597,4.444261079642039e-05,0.0,-2.738177017391763e-05,-0.0010719780050242923,0.0,-1.7140838694196248e-05,-0.0003393704186337136,0.0,,,,,,
2024-08-03 22:01:02.005049,0.00012154651442042308,0.0010720574542846355,0.0,-1.5700195905667982,-0.003176253010893657,0.0,-3.6738599806795946e-06,0.0014029398246218358,0.0,-1.5699789705597,4.444261101824046e-05,0.0,-2.738177017480581e-05,-0.001071978005042494,0.0,-1.7140838694196248e-05,-0.0003393704187323874,0.0,,,,,,
2024-08-03 22:01:02.015265,0.0001215465144195349,0.001072057454330605,0.0,-1.5700195905667973,-0.0031762530109702833,0.0,-3.6738599806795946e-06,0.001402939824823851,0.0,-1.569978970559701,4.4442610784693444e-05,0.0,-2.738177017480581e-05,-0.0010719780049386484,0.0,-1.7140838694196248e-05,-0.00033937041870682114,0.0,,,,,,
2024-08-03 22:01:02.025010,0.00012154651442131126,0.0010720574542745778,0.0,-1.5700195905667973,-0.00317625301096102,0.0,-3.6738599806795946e-06,0.0014029398247565614,0.0,-1.569978970559701,4.444261075963146e-05,0.0,-2.738177017391763e-05,-0.0010719780049372567,0.0,-1.7140838694196248e-05,-0.00033937041874984423,0.0,,,,,,
2024-08-03 22:01:02.035145,0.0001215465144195349,0.0010720574543232097,0.0,-1.5700195905667973,-0.003176253010956397,0.0,-3.6738599806795946e-06,0.0014029398247705895,0.0,-1.569978970559701,4.444261081696429e-05,0.0,-2.7381770175693987e-05,-0.001071978004974243,0.0,-1.7140838695084426e-05,-0.00033937041871543014,0.0,,,,,,
2024-08-03 22:01:02.044846,0.0001270950815754901,0.0010716310398060872,0.0,-1.5700227672649374,-0.0031766746056670365,0.0,-2.4248156380579644e-06,0.0014036557894816807,0.0,-1.5699789265110908,4.405092723990629e-05,0.0,-2.8307465240295926e-05,-0.0010715555583473342,0.0,-1.700851790875646e-05,-0.0003392490982752146,0.0,,,,,,
2024-08-03 22:01:02.055121,0.00012709508233044176,0.0010716326603409589,0.0,-1.5700227672772555,-0.0031766869240107145,0.0,-2.424815268575742e-06,0.0014036560094410665,0.0,-1.5699789265105721,4.4051446225342405e-05,0.0,-2.830746452975319e-05,-0.0010715549819518752,0.0,-1.700851730657149e-05,-0.0003392487090521618,0.0,,,,,,
2024-08-03 22:01:02.065256,0.00013250012195165084,0.0010712062887897511,0.0,-1.5700259443948308,-0.003177106359308843,0.0,-1.3522406980825963e-06,0.0014043613715195172,0.0,-1.5699788828454189,4.366798980825863e-05,0.0,-2.924644212054517e-05,-0.0010711325774068715,0.0,-1.6873168382502968e-05,-0.000339128369757011,0.0,,,,,,
2024-08-03 22:01:02.074932,0.00013250012247745246,0.0010712078556652036,0.0,-1.5700259444066649,-0.0031771181935257844,0.0,-1.3522402184662496e-06,0.0014043615040423576,0.0,-1.5699788828449037,4.3668503868850034e-05,0.0,-2.9246441352270836e-05,-0.0010711319210890628,0.0,-1.6873167790087962e-05,-0.0003391279684858598,0.0,,,,,,
2024-08-03 22:01:02.085184,0.00013250012213283924,0.0010712080291012563,0.0,-1.570025944408054,-0.0031771195832580312,0.0,-1.3522400550414204e-06,0.0014043615515157827,0.0,-1.5699788828448566,4.366855078155986e-05,0.0,-2.9246441346053587e-05,-0.0010711318762559635,0.0,-1.687316777942982e-05,-0.0003391279304379212,0.0,,,,,,
2024-08-03 22:01:02.095439,0.00013250012182286497,0.0010712080416985536,0.0,-1.5700259444082325,-0.003177119760016608,0.0,-1.35223998221079e-06,0.0014043615607598522,0.0,-1.5699788828448549,4.366855267254712e-05,0.0,-2.9246441376251653e-05,-0.0010711318748194212,0.0,-1.6873167809627887e-05,-0.00033912792690249805,0.0,,,,,,
2024-08-03 22:01:02.105121,0.0001325001216159194,0.0010712080391278975,0.0,-1.5700259444082636,-0.0031771197933759213,0.0,-1.3522399395782259e-06,0.0014043615642312332,0.0,-1.5699788828448575,4.3668550729476416e-05,0.0,-2.9246441397567935e-05,-0.001071131876800598,0.0,-1.6873167832720526e-05,-0.00033912792651445115,0.0,,,,,,
2024-08-03 22:01:02.115318,0.00013250012148180446,0.0010712080363173512,0.0,-1.570025944408277,-0.003177119805811551,0.0,-1.3522399129328733e-06,0.0014043615666154972,0.0,-1.5699788828448593,4.3668549147434085e-05,0.0,-2.924644141089061e-05,-0.0010711318781474843,0.0,-1.687316784781956e-05,-0.0003391279265847236,0.0,,,,,,
2024-08-03 22:01:02.125004,0.00013250012139565115,0.0010712080344592522,0.0,-1.570025944408284,-0.0031771198127718185,0.0,-1.3522398960574833e-06,0.0014043615679929097,0.0,-1.5699788828448602,4.36685483227009e-05,0.0,-2.9246441420660574e-05,-0.0010711318793440187,0.0,-1.687316785758952e-05,-0.00033912792652232224,0.0,,,,,,
2024-08-03 22:01:02.135326,0.00013250012134236044,0.0010712080333576575,0.0,-1.5700259444082885,-0.0031771198170112225,0.0,-1.3522398853993423e-06,0.0014043615691188482,0.0,-1.5699788828448602,4.366854746907839e-05,0.0,-2.9246441425101466e-05,-0.0010711318800162473,0.0,-1.6873167862918592e-05,-0.00033912792669273497,0.0,,,,,,
2024-08-03 22:01:02.144933,0.00013777156217642528,0.0010707828316996579,0.0,-1.5700291219615383,-0.0031775297158772933,0.0,9.451598508292136e-07,0.001405031217345846,0.0,-1.5699788395334373,4.33137399417651e-05,0.0,-3.0197489588879023e-05,-0.0010707104586608566,0.0,-1.6734708354171346e-05,-0.00033901208975414257,0.0,,,,,,
2024-08-03 22:01:02.155459,0.000137771563125888,0.0010707846604654425,0.0,-1.570029121973677,-0.003177541854927729,0.0,9.45159254861494e-07,0.0014050317246258204,0.0,-1.5699788395330323,4.3314145423917834e-05,0.0,-3.019748885435547e-05,-0.0010707098313239125,0.0,-1.6734707863896858e-05,-0.00033901178511599615,0.0,,,,,,
2024-08-03 22:01:02.165126,0.00014291859569670606,0.0010703568414253207,0.0,-1.5700323000198633,-0.003178034790836096,0.0,2.7007518541566355e-06,0.0014059642269222796,0.0,-1.5699787967822143,4.275354000244757e-05,0.0,-3.1159496961308264e-05,-0.0010702822581198862,0.0,-1.6593004342091433e-05,-0.0003388660119637961,0.0,,,,,,
2024-08-03 22:01:02.175522,0.00014291859582371558,0.0010703578695788873,0.0,-1.5700323000293908,-0.003178044319040995,0.0,2.7007506826493e-06,0.001405963752446355,0.0,-1.5699787967816192,4.275413570743801e-05,0.0,-3.115949603671453e-05,-0.001070281442441215,0.0,-1.6593003643983195e-05,-0.00033886552746423596,0.0,,,,,,
2024-08-03 22:01:02.185051,0.00014291859548265506,0.001070357983284125,0.0,-1.5700323000305108,-0.0031780454396419877,0.0,2.7007504996845455e-06,0.0014059637287412087,0.0,-1.5699787967815615,4.2754192530957964e-05,0.0,-3.115949599763468e-05,-0.001070281375879307,0.0,-1.65930036191142e-05,-0.0003388654795460442,0.0,,,,,,
2024-08-03 22:01:02.195362,0.00014291859520643158,0.0010703579901236164,0.0,-1.5700323000306555,-0.0031780455838190747,0.0,2.700750426853915e-06,0.0014059637299427051,0.0,-1.569978796781558,4.2754195799097196e-05,0.0,-3.115949601806278e-05,-0.0010702813719894414,0.0,-1.6593003643983195e-05,-0.0003388654746913919,0.0,,,,,,
2024-08-03 22:01:02.205026,0.00014291859502257864,0.001070357987239152,0.0,-1.570032300030684,-0.003178045612038733,0.0,2.7007503859977078e-06,0.001405963732377629,0.0,-1.5699787967815606,4.27541942075192e-05,0.0,-3.115949603582635e-05,-0.0010702813732788004,0.0,-1.6593003665299477e-05,-0.00033886547423887716,0.0,,,,,,
2024-08-03 22:01:02.215230,0.0001429185949053391,0.0010703579847632489,0.0,-1.5700323000306928,-0.0031780456230252104,0.0,2.700750359352355e-06,0.001405963734143789,0.0,-1.5699787967815606,4.2754193202402526e-05,0.0,-3.115949604648449e-05,-0.0010702813746458384,0.0,-1.6593003678622154e-05,-0.00033886547438350084,0.0,,,,,,
2024-08-03 22:01:02.225533,0.00014291859482984393,0.0010703579831353777,0.0,-1.5700323000307008,-0.003178045629148901,0.0,2.7007503433651436e-06,0.001405963735533205,0.0,-1.5699787967815615,4.2754192163430666e-05,0.0,-3.115949605270174e-05,-0.0010702813756495494,0.0,-1.659300368661576e-05,-0.0003388654743925691,0.0,,,,,,
2024-08-03 22:01:02.235282,0.0001429185947809941,0.0010703579821123108,0.0,-1.5700323000307044,-0.0031780456330223663,0.0,2.700750331818824e-06,0.001405963736516787,0.0,-1.5699787967815624,4.275419165189812e-05,0.0,-3.115949605803081e-05,-0.0010702813763652779,0.0,-1.6593003693721187e-05,-0.00033886547463596686,0.0,,,,,,
2024-08-03 22:01:02.245644,0.00014291859475079605,0.0010703579813732002,0.0,-1.5700323000307053,-0.0031780456355215586,0.0,2.7007503264897537e-06,0.001405963737231064,0.0,-1.5699787967815633,4.275419126932264e-05,0.0,-3.1159496061583525e-05,-0.0010702813767899165,0.0,-1.6593003696385722e-05,-0.00033886547468145,0.0,,,,,,
2024-08-03 22:01:02.255310,0.0001429185947321443,0.0010703579810064539,0.0,-1.5700323000307088,-0.003178045637072687,0.0,2.7007503220488616e-06,0.0014059637376555812,0.0,-1.5699787967815642,4.2754190809750044e-05,0.0,-3.11594960624717e-05,-0.001070281377233249,0.0,-1.6593003699938436e-05,-0.0003388654744893915,0.0,,,,,,
2024-08-03 22:01:02.265485,0.00014291859471793344,0.00107035798065995,0.0,-1.5700323000307088,-0.0031780456379677914,0.0,2.7007503176079695e-06,0.001405963737774789,0.0,-1.5699787967815642,4.2754190677993784e-05,0.0,-3.115949606335988e-05,-0.001070281377159088,0.0,-1.6593003700826614e-05,-0.0003388654746206303,0.0,,,,,,
2024-08-03 22:01:02.275754,0.00014291859471082802,0.0010703579805045943,0.0,-1.5700323000307097,-0.003178045638667747,0.0,2.7007503176079695e-06,0.001405963737884907,0.0,-1.5699787967815633,4.27541907700471e-05,0.0,-3.115949606424806e-05,-0.0010702813772233142,0.0,-1.6593003701714792e-05,-0.00033886547471558893,0.0,,,,,,
2024-08-03 22:01:02.285428,0.00014291859470549895,0.001070357980426306,0.0,-1.5700323000307106,-0.0031780456390408367,0.0,2.7007503158316126e-06,0.0014059637379646873,0.0,-1.5699787967815642,4.2754190589816055e-05,0.0,-3.115949606424806e-05,-0.0010702813774218047,0.0,-1.6593003700826614e-05,-0.00033886547454184044,0.0,,,,,,
2024-08-03 22:01:02.295952,0.0001429185947028344,0.001070357980359934,0.0,-1.5700323000307097,-0.0031780456392822374,0.0,2.700750314943434e-06,0.001405963738041991,0.0,-1.5699787967815642,4.2754190514363716e-05,0.0,-3.115949606513624e-05,-0.0010702813775950212,0.0,-1.6593003701714792e-05,-0.0003388654746635212,0.0,,,,,,
2024-08-03 22:01:02.305450,0.00014291859470105805,0.0010703579803071437,0.0,-1.5700323000307106,-0.003178045639494435,0.0,2.700750314943434e-06,0.0014059637382430282,0.0,-1.5699787967815642,4.275419073523391e-05,0.0,-3.115949606513624e-05,-0.001070281377426792,0.0,-1.659300370349115e-05,-0.000338865474913775,0.0,,,,,,
2024-08-03 22:01:02.316235,0.0001429185946992817,0.0010703579802394125,0.0,-1.5700323000307106,-0.0031780456396345216,0.0,2.700750314943434e-06,0.0014059637382876243,0.0,-1.5699787967815633,4.27541904804155e-05,0.0,-3.115949606602442e-05,-0.0010702813773268188,0.0,-1.659300370260297e-05,-0.0003388654747612112,0.0,,,,,,
2024-08-03 22:01:02.326039,0.00014291859469839352,0.0010703579802449096,0.0,-1.5700323000307106,-0.0031780456397186236,0.0,2.700750314943434e-06,0.0014059637381808072,0.0,-1.5699787967815633,4.275419058064262e-05,0.0,-3.115949606424806e-05,-0.0010702813774225125,0.0,-1.659300370260297e-05,-0.0003388654747290902,0.0,,,,,,
2024-08-03 22:01:02.336665,0.00014291859469839352,0.0010703579802834136,0.0,-1.5700323000307097,-0.0031780456397036802,0.0,2.7007503140552558e-06,0.0014059637381242133,0.0,-1.5699787967815642,4.275419055045106e-05,0.0,-3.115949606602442e-05,-0.0010702813775252695,0.0,-1.659300370349115e-05,-0.00033886547473524486,0.0,,,,,,
2024-08-03 22:01:02.346093,0.00014794965631104162,0.0010699308225981577,0.0,-1.5700354785256019,-0.0031784713591458402,0.0,4.035143449598877e-06,0.0014066935865308088,0.0,-1.5699787544326194,4.23512617573964e-05,0.0,-3.213146186542559e-05,-0.0010698580728318594,0.0,-1.644797833577627e-05,-0.0003387420333032925,0.0,,,,,,
2024-08-03 22:01:02.355767,0.00014794965702336071,0.001069932168421717,0.0,-1.5700354785356045,-0.003178481362167105,0.0,4.0351433723273544e-06,0.0014066934506334174,0.0,-1.5699787544321184,4.2351762066538605e-05,0.0,-3.2131460913298326e-05,-0.001069857239003678,0.0,-1.6447977679412418e-05,-0.00033874161487103813,0.0,,,,,,
2024-08-03 22:01:02.366156,0.00015287244644834885,0.0010695055356232778,0.0,-1.5700386574619942,-0.0031789128604026,0.0,5.445430124595418e-06,0.0014074331544450302,0.0,-1.5699787124933833,4.1941553019172973e-05,0.0,-3.311247314030652e-05,-0.0010694336734846323,0.0,-1.629952895410014e-05,-0.00033861719430246197,0.0,,,,,,
2024-08-03 22:01:02.375890,0.00015287244701678304,0.0010695069060233282,0.0,-1.5700386574719152,-0.0031789227817049853,0.0,5.4454300570938585e-06,0.001407433050831327,0.0,-1.5699787124929019,4.194203325138038e-05,0.0,-3.311247218551472e-05,-0.0010694328104589826,0.0,-1.629952832438164e-05,-0.0003386167875295814,0.0,,,,,,
2024-08-03 22:01:02.386042,0.00015287244676542855,0.0010695070576911513,0.0,-1.5700386574730814,-0.0031789239460293657,0.0,5.445430092620995e-06,0.001407433067061016,0.0,-1.5699787124928575,4.19420782650637e-05,0.0,-3.3112472136664906e-05,-0.0010694327389956688,0.0,-1.6299528306618072e-05,-0.00033861674820539773,0.0,,,,,,
2024-08-03 22:01:02.395713,0.00015287244652650855,0.0010695070692202727,0.0,-1.570038657473227,-0.0031789240936936636,0.0,5.445430105943672e-06,0.0014074330723010133,0.0,-1.5699787124928557,4.194208045328748e-05,0.0,-3.311247215176394e-05,-0.0010694327342543092,0.0,-1.629952832971071e-05,-0.0003386167443931872,0.0,,,,,,
2024-08-03 22:01:02.405916,0.0001528724463639719,0.0010695070672056184,0.0,-1.5700386574732563,-0.003178924121263826,0.0,5.445430111272742e-06,0.0014074330746994342,0.0,-1.5699787124928566,4.1942079140230284e-05,0.0,-3.311247216597479e-05,-0.0010694327352753384,0.0,-1.6299528350138814e-05,-0.0003386167440188833,0.0,,,,,,
2024-08-03 22:01:02.415604,0.00015287244626005503,0.001069507064988319,0.0,-1.570038657473266,-0.0031789241314923045,0.0,5.445430117489991e-06,0.0014074330764646055,0.0,-1.5699787124928584,4.194207778514215e-05,0.0,-3.311247217485658e-05,-0.0010694327365359836,0.0,-1.6299528361685134e-05,-0.00033861674394893904,0.0,,,,,,
2024-08-03 22:01:02.425911,0.00015287244619432983,0.0010695070634926813,0.0,-1.5700386574732705,-0.003178924137129317,0.0,5.445430119266348e-06,0.0014074330776957782,0.0,-1.5699787124928584,4.194207700901993e-05,0.0,-3.311247218018565e-05,-0.0010694327374073478,0.0,-1.629952836967874e-05,-0.0003386167440914543,0.0,,,,,,
2024-08-03 22:01:02.435682,0.00015287244615169726,0.0010695070625684664,0.0,-1.570038657473274,-0.003178924140567128,0.0,5.445430121042705e-06,0.0014074330786945236,0.0,-1.5699787124928601,4.194207634022743e-05,0.0,-3.311247218285018e-05,-0.0010694327378843699,0.0,-1.629952837500781e-05,-0.0003386167441780983,0.0,,,,,,
2024-08-03 22:01:02.445799,0.0001528724461250519,0.00106950706198358,0.0,-1.5700386574732768,-0.0031789241428092545,0.0,5.445430122819062e-06,0.0014074330791129985,0.0,-1.5699787124928601,4.19420759643224e-05,0.0,-3.31124721864029e-05,-0.0010694327382650471,0.0,-1.6299528378560524e-05,-0.00033861674406020616,0.0,,,,,,
