will-d-chen/ur3e-codebase/joint_states_20240803_221002.csv
time,shoulder_pan_joint_position,shoulder_pan_joint_velocity,shoulder_pan_joint_effort,shoulder_lift_joint_position,shoulder_lift_joint_velocity,shoulder_lift_joint_effort,elbow_joint_position,elbow_joint_velocity,elbow_joint_effort,wrist_1_joint_position,wrist_1_joint_velocity,wrist_1_joint_effort,wrist_2_joint_position,wrist_2_joint_velocity,wrist_2_joint_effort,wrist_3_joint_position,wrist_3_joint_velocity,wrist_3_joint_effort,force_x,force_y,force_z,torque_x,torque_y,torque_z
2024-08-03 22:10:03.902505,-0.9226235064547659,0.0020985059708823074,0.0,-1.4890705419390409,-0.0009909102800476398,0.0,1.77066728727009,0.045028047455956,0.0,-0.2816077102839065,-0.05473720396510409,0.0,0.6481736266274858,0.0029048595414062485,0.0,-4.660114180765618e-06,0.003585553362779481,0.0,,,,,,
2024-08-03 22:10:03.912824,-0.9226235064547614,0.0020985059750143844,0.0,-1.4890705419390604,-0.0009909102996495938,0.0,1.770667287270058,0.04502804742458454,0.0,-0.28160771028390563,-0.05473720396382937,0.0,0.6481736266274822,0.0029048595376861834,0.0,-4.66011425270807e-06,0.0035855534368586183,0.0,,,,,,
2024-08-03 22:10:03.922500,-0.922623506454757,0.002098505979047102,0.0,-1.48907054193908,-0.0009909103191647118,0.0,1.770667287270026,0.045028047393128774,0.0,-0.2816077102839065,-0.05473720396249792,0.0,0.6481736266274787,0.0029048595342485526,0.0,-4.660114321985986e-06,0.0035855535108845027,0.0,,,,,,
2024-08-03 22:10:03.932820,-0.9226235064547534,0.0020985059830215423,0.0,-1.4890705419390995,-0.0009909103386307077,0.0,1.770667287269994,0.04502804736193781,0.0,-0.2816077102839012,-0.054737203961259896,0.0,0.6481736266274751,0.002904859531286375,0.0,-4.660114391263903e-06,0.0035855535844081677,0.0,,,,,,
2024-08-03 22:10:03.942453,-0.922623506454749,0.0020985059872693245,0.0,-1.489070541939119,-0.0009909103578473015,0.0,1.7706672872699656,0.045028047330588544,0.0,-0.28160771028390297,-0.05473720396027342,0.0,0.6481736266274716,0.002904859527744738,0.0,-4.660114461429998e-06,0.0035855536582105104,0.0,,,,,,
2024-08-03 22:10:03.952701,-0.9226235064547446,0.002098505991242723,0.0,-1.4890705419391386,-0.0009909103771763713,0.0,1.7706672872699318,0.04502804729955992,0.0,-0.2816077102839003,-0.05473720395928068,0.0,0.6481736266274689,0.002904859524614627,0.0,-4.660114530707915e-06,0.0035855537316425022,0.0,,,,,,
2024-08-03 22:10:03.962359,-0.922623506454741,0.0020985059952527345,0.0,-1.4890705419391572,-0.0009909103965078084,0.0,1.7706672872699016,0.04502804726874532,0.0,-0.2816077102839012,-0.054737203958217136,0.0,0.6481736266274654,0.0029048595212415526,0.0,-4.660114599985832e-06,0.0035855538046885463,0.0,,,,,,
2024-08-03 22:10:03.972583,-0.9226235064547375,0.002098505999230118,0.0,-1.4890705419391776,-0.000990910415594085,0.0,1.7706672872698714,0.045028047237589096,0.0,-0.2816077102838985,-0.05473720395722144,0.0,0.6481736266274618,0.0029048595177784365,0.0,-4.660114670151927e-06,0.0035855538779149265,0.0,,,,,,
2024-08-03 22:10:03.982481,-0.922623506454733,0.0020985060031675877,0.0,-1.4890705419391963,-0.000990910434916483,0.0,1.7706672872698412,0.045028047206655666,0.0,-0.2816077102838985,-0.05473720395570058,0.0,0.6481736266274591,0.0029048595148102405,0.0,-4.660114737653487e-06,0.003585553950271889,0.0,,,,,,
2024-08-03 22:10:03.992804,-0.9226235064547286,0.002098506007358043,0.0,-1.4890705419392167,-0.0009909104539060217,0.0,1.7706672872698093,0.04502804717565306,0.0,-0.28160771028389764,-0.054737203954619396,0.0,0.6481736266274556,0.002904859511439756,0.0,-4.6601148069314036e-06,0.0035855540231347774,0.0,,,,,,
2024-08-03 22:10:04.002401,-0.922623506454725,0.0020985060112628084,0.0,-1.4890705419392345,-0.0009909104729095817,0.0,1.7706672872697773,0.045028047145006536,0.0,-0.281607710283895,-0.05473720395357937,0.0,0.648173626627452,0.0029048595083302495,0.0,-4.660114875321142e-06,0.0035855540954599563,0.0,,,,,,
2024-08-03 22:10:04.012664,-0.9226235064547215,0.0020985060152751154,0.0,-1.4890705419392523,-0.0009909104920553383,0.0,1.7706672872697489,0.04502804711458684,0.0,-0.28160771028389675,-0.05473720395245394,0.0,0.6481736266274485,0.0029048595049972724,0.0,-4.660114945487237e-06,0.0035855541676095607,0.0,,,,,,
2024-08-03 22:10:04.022339,-0.9226235064547179,0.0020985060192247372,0.0,-1.4890705419392736,-0.00099091051096867,0.0,1.770667287269717,0.04502804708401004,0.0,-0.2816077102838923,-0.05473720395125806,0.0,0.6481736266274458,0.002904859501565226,0.0,-4.660115013876975e-06,0.0035855542397506077,0.0,,,,,,
2024-08-03 22:10:04.032616,-0.9226235064547135,0.002098506023223677,0.0,-1.4890705419392913,-0.0009909105296919902,0.0,1.7706672872696867,0.045028047053238686,0.0,-0.2816077102838932,-0.0547372039503231,0.0,0.6481736266274423,0.0029048594984064334,0.0,-4.660115080490357e-06,0.003585554311602243,0.0,,,,,,
2024-08-03 22:10:04.042946,-0.922623506454709,0.0020985060271449894,0.0,-1.489070541939309,-0.0009909105486051238,0.0,1.7706672872696565,0.0450280470229242,0.0,-0.2816077102838923,-0.054737203949080895,0.0,0.6481736266274387,0.0029048594951523914,0.0,-4.660115147103738e-06,0.0035855543829674368,0.0,,,,,,
2024-08-03 22:10:04.052657,-0.9226235064547055,0.002098506031068863,0.0,-1.4890705419393286,-0.000990910567275084,0.0,1.7706672872696245,0.04502804699250769,0.0,-0.28160771028389053,-0.05473720394774361,0.0,0.6481736266274369,0.0029048594920248515,0.0,-4.660115216381655e-06,0.003585554454492111,0.0,,,,,,
2024-08-03 22:10:04.062798,-0.9226235064547019,0.0020985060348435508,0.0,-1.489070541939349,-0.0009909105861734381,0.0,1.770667287269596,0.0450280469626489,0.0,-0.28160771028388965,-0.054737203946907495,0.0,0.6481736266274325,0.0029048594889224417,0.0,-4.660115283883215e-06,0.0035855545254884647,0.0,,,,,,
2024-08-03 22:10:04.072610,-0.9226235064546984,0.0020985060389530252,0.0,-1.489070541939366,-0.0009909106047625673,0.0,1.770667287269566,0.045028046932399333,0.0,-0.28160771028388876,-0.054737203945932705,0.0,0.6481736266274298,0.002904859485854982,0.0,-4.660115350496596e-06,0.0035855545967710288,0.0,,,,,,
2024-08-03 22:10:04.083155,-0.922623506454693,0.0020985060427248354,0.0,-1.4890705419393837,-0.000990910623493219,0.0,1.7706672872695357,0.045028046902316966,0.0,-0.28160771028388787,-0.05473720394452846,0.0,0.6481736266274263,0.002904859482347719,0.0,-4.660115417998156e-06,0.0035855546673089355,0.0,,,,,,
2024-08-03 22:10:04.092641,-0.9226235064546904,0.0020985060467191207,0.0,-1.4890705419394032,-0.0009909106419713814,0.0,1.7706672872695037,0.045028046872281936,0.0,-0.2816077102838861,-0.054737203943496765,0.0,0.6481736266274236,0.002904859479409257,0.0,-4.660115484611538e-06,0.0035855547381062314,0.0,,,,,,
2024-08-03 22:10:04.102958,-0.9226235064546859,0.0020985060505794083,0.0,-1.4890705419394228,-0.000990910660421622,0.0,1.7706672872694753,0.04502804684200045,0.0,-0.2816077102838843,-0.05473720394222159,0.0,0.648173626627421,0.00290485947635838,0.0,-4.660115553001276e-06,0.0035855548085352447,0.0,,,,,,
2024-08-03 22:10:04.112565,-0.9226235064546815,0.0020985060544167853,0.0,-1.4890705419394406,-0.0009909106789329843,0.0,1.7706672872694469,0.045028046812540676,0.0,-0.2816077102838843,-0.0547372039414257,0.0,0.6481736266274165,0.0029048594732460657,0.0,-4.660115617838301e-06,0.0035855548786571587,0.0,,,,,,
2024-08-03 22:10:04.122809,-0.9226235064546779,0.0020985060582706713,0.0,-1.4890705419394583,-0.0009909106974791348,0.0,1.770667287269415,0.04502804678282239,0.0,-0.28160771028388165,-0.05473720394006137,0.0,0.6481736266274138,0.0029048594699107363,0.0,-4.660115684451682e-06,0.00358555494863722,0.0,,,,,,
2024-08-03 22:10:04.132695,-0.9226235064546735,0.002098506062268712,0.0,-1.4890705419394779,-0.0009909107157677576,0.0,1.7706672872693865,0.045028046753289086,0.0,-0.28160771028388254,-0.05473720393937627,0.0,0.6481736266274112,0.0029048594667914927,0.0,-4.660115750176885e-06,0.003585555018638626,0.0,,,,,,
2024-08-03 22:10:04.142797,-0.9226235064546708,0.0020985060659861523,0.0,-1.4890705419394956,-0.0009909107340909853,0.0,1.7706672872693563,0.045028046723623275,0.0,-0.28160771028388165,-0.05473720393819257,0.0,0.6481736266274067,0.002904859463323249,0.0,-4.660115815902088e-06,0.0035855550882053417,0.0,,,,,,
2024-08-03 22:10:04.152508,-0.9226235064546664,0.0020985060698529468,0.0,-1.4890705419395134,-0.0009909107523321983,0.0,1.770667287269326,0.04502804669423154,0.0,-0.2816077102838799,-0.054737203937237446,0.0,0.648173626627405,0.002904859460128386,0.0,-4.660115881627291e-06,0.0035855551576793898,0.0,,,,,,
2024-08-03 22:10:04.162732,-0.9226235064546628,0.0020985060736506515,0.0,-1.489070541939533,-0.0009909107706310516,0.0,1.7706672872692977,0.04502804666466774,0.0,-0.2816077102838781,-0.05473720393577591,0.0,0.6481736266274014,0.0029048594571902363,0.0,-4.660115948240673e-06,0.00358555522676846,0.0,,,,,,
2024-08-03 22:10:04.172956,-0.9226235064546593,0.002098506077562439,0.0,-1.4890705419395507,-0.0009909107886941514,0.0,1.7706672872692657,0.045028046635325024,0.0,-0.2816077102838772,-0.054737203934922894,0.0,0.6481736266273979,0.0029048594541948797,0.0,-4.660116013965876e-06,0.003585555296068221,0.0,,,,,,
2024-08-03 22:10:04.182644,-0.9226235064546557,0.0020985060811386366,0.0,-1.4890705419395684,-0.0009909108069942898,0.0,1.7706672872692408,0.04502804660631331,0.0,-0.2816077102838772,-0.05473720393368586,0.0,0.6481736266273943,0.002904859450819944,0.0,-4.660116077914722e-06,0.003585555364594904,0.0,,,,,,
2024-08-03 22:10:04.192969,-0.9226235064546513,0.0020985060850895764,0.0,-1.4890705419395862,-0.000990910824891498,0.0,1.7706672872692106,0.04502804657681957,0.0,-0.28160771028387543,-0.054737203932690465,0.0,0.6481736266273916,0.00290485944801774,0.0,-4.660116143639925e-06,0.0035855554334449135,0.0,,,,,,
2024-08-03 22:10:04.202662,-0.9226235064546477,0.0020985060886715735,0.0,-1.489070541939604,-0.0009909108430656277,0.0,1.7706672872691804,0.04502804654795357,0.0,-0.28160771028387366,-0.054737203931588166,0.0,0.648173626627389,0.0029048594446187907,0.0,-4.660116209365128e-06,0.003585555502029706,0.0,,,,,,
2024-08-03 22:10:04.212956,-0.9226235064546433,0.0020985060925812547,0.0,-1.4890705419396217,-0.0009909108609993337,0.0,1.770667287269152,0.045028046519018095,0.0,-0.28160771028387366,-0.05473720393032504,0.0,0.6481736266273863,0.0029048594415165005,0.0,-4.660116274202153e-06,0.0035855555702236975,0.0,,,,,,
2024-08-03 22:10:04.222610,-0.9226235064546406,0.002098506096327237,0.0,-1.4890705419396395,-0.0009909108789735882,0.0,1.7706672872691236,0.04502804649018941,0.0,-0.2816077102838719,-0.05473720392937853,0.0,0.6481736266273819,0.002904859438705424,0.0,-4.6601163390391775e-06,0.003585555638232721,0.0,,,,,,
2024-08-03 22:10:04.232451,-0.9226235064546362,0.0020985061000148146,0.0,-1.4890705419396573,-0.0009909108968023973,0.0,1.7706672872690934,0.045028046461290085,0.0,-0.2816077102838701,-0.05473720392843236,0.0,0.6481736266273792,0.0029048594358636872,0.0,-4.660116402988024e-06,0.0035855557062316828,0.0,,,,,,
2024-08-03 22:10:04.242650,-0.9226235064546326,0.0020985061038095104,0.0,-1.489070541939675,-0.0009909109146425147,0.0,1.7706672872690667,0.04502804643268487,0.0,-0.281607710283871,-0.05473720392746266,0.0,0.6481736266273765,0.0029048594328058325,0.0,-4.66011646693687e-06,0.003585555774008263,0.0,,,,,,
2024-08-03 22:10:04.252941,-0.9226235064546291,0.0020985061076219894,0.0,-1.4890705419396937,-0.0009909109323408222,0.0,1.7706672872690365,0.045028046403831096,0.0,-0.2816077102838692,-0.054737203926435656,0.0,0.6481736266273739,0.0029048594296476903,0.0,-4.660116530885716e-06,0.0035855558416537517,0.0,,,,,,
2024-08-03 22:10:04.262568,-0.9226235064546255,0.002098506111221547,0.0,-1.4890705419397106,-0.0009909109501133665,0.0,1.77066728726901,0.04502804637510545,0.0,-0.28160771028386744,-0.05473720392513695,0.0,0.6481736266273703,0.0029048594265530443,0.0,-4.660116593946384e-06,0.003585555909115469,0.0,,,,,,
2024-08-03 22:10:04.272869,-0.9226235064546211,0.00209850611484043,0.0,-1.4890705419397283,-0.0009909109679551045,0.0,1.7706672872689797,0.045028046346865136,0.0,-0.28160771028386655,-0.05473720392410539,0.0,0.6481736266273677,0.00290485942345918,0.0,-4.66011665789523e-06,0.0035855559761938287,0.0,,,,,,
2024-08-03 22:10:04.282458,-0.9226235064546184,0.0020985061186004207,0.0,-1.489070541939747,-0.0009909109854174237,0.0,1.770667287268953,0.04502804631803924,0.0,-0.2816077102838648,-0.054737203923040254,0.0,0.6481736266273641,0.002904859420303421,0.0,-4.6601167218440764e-06,0.003585556043186489,0.0,,,,,,
2024-08-03 22:10:04.292807,-0.922623506454614,0.0020985061222994197,0.0,-1.4890705419397638,-0.0009909110030019643,0.0,1.770667287268921,0.0450280462897851,0.0,-0.281607710283863,-0.05473720392202228,0.0,0.6481736266273614,0.0029048594172913387,0.0,-4.660116784016566e-06,0.0035855561102422218,0.0,,,,,,
2024-08-03 22:10:04.302464,-0.9226235064546104,0.0020985061259599226,0.0,-1.4890705419397816,-0.0009909110205508294,0.0,1.7706672872688944,0.04502804626162261,0.0,-0.281607710283863,-0.054737203921226565,0.0,0.6481736266273588,0.0029048594144717704,0.0,-4.660116847965412e-06,0.003585556176901215,0.0,,,,,,
2024-08-03 22:10:04.312831,-0.9226235064546069,0.0020985061297038644,0.0,-1.4890705419397994,-0.0009909110380853592,0.0,1.7706672872688678,0.04502804623333595,0.0,-0.281607710283863,-0.05473720392023795,0.0,0.6481736266273552,0.002904859411425767,0.0,-4.660116910137901e-06,0.0035855562433889684,0.0,,,,,,
2024-08-03 22:10:04.322548,-0.9226235064546042,0.002098506133222913,0.0,-1.4890705419398171,-0.000990911055524513,0.0,1.7706672872688394,0.04502804620523167,0.0,-0.2816077102838621,-0.05473720391912151,0.0,0.6481736266273526,0.002904859408426306,0.0,-4.660116974086748e-06,0.0035855563094327855,0.0,,,,,,
2024-08-03 22:10:04.332750,-0.9226235064545998,0.0020985061368774486,0.0,-1.489070541939835,-0.0009909110729220435,0.0,1.770667287268811,0.04502804617715147,0.0,-0.28160771028386034,-0.05473720391797683,0.0,0.6481736266273499,0.002904859405452148,0.0,-4.660117036259237e-06,0.0035855563755236193,0.0,,,,,,
2024-08-03 22:10:04.342509,-0.9226235064545962,0.0020985061405285658,0.0,-1.4890705419398527,-0.0009909110903460999,0.0,1.7706672872687825,0.045028046149281575,0.0,-0.28160771028385945,-0.054737203916834246,0.0,0.6481736266273463,0.0029048594023354532,0.0,-4.660117098431726e-06,0.003585556441436162,0.0,,,,,,
2024-08-03 22:10:04.352802,-0.9226235064545918,0.0020985061443090872,0.0,-1.4890705419398704,-0.0009909111075298866,0.0,1.770667287268754,0.04502804612138161,0.0,-0.28160771028386034,-0.05473720391590198,0.0,0.6481736266273437,0.002904859399820002,0.0,-4.660117161492394e-06,0.0035855565072204355,0.0,,,,,,
2024-08-03 22:10:04.362942,-0.9226235064545891,0.002098506147853146,0.0,-1.4890705419398864,-0.0009909111247994825,0.0,1.7706672872687275,0.04502804609350848,0.0,-0.2816077102838559,-0.05473720391486561,0.0,0.648173626627341,0.002904859396626143,0.0,-4.660117222776705e-06,0.00358555657276931,0.0,,,,,,
2024-08-03 22:10:04.372750,-0.9226235064545847,0.0020985061513349784,0.0,-1.4890705419399024,-0.0009909111419824583,0.0,1.7706672872686973,0.04502804606567312,0.0,-0.2816077102838568,-0.054737203913920326,0.0,0.6481736266273384,0.002904859393836444,0.0,-4.6601172849491945e-06,0.003585556638104013,0.0,,,,,,
2024-08-03 22:10:04.382837,-0.922623506454582,0.0020985061550042286,0.0,-1.4890705419399202,-0.0009909111590459194,0.0,1.7706672872686688,0.0450280460378198,0.0,-0.2816077102838559,-0.05473720391301047,0.0,0.6481736266273339,0.0029048593906570194,0.0,-4.6601173462335055e-06,0.0035855567035295265,0.0,,,,,,
2024-08-03 22:10:04.392814,-0.9226235064545785,0.002098506158662469,0.0,-1.489070541939938,-0.0009909111760782973,0.0,1.7706672872686422,0.045028046010159,0.0,-0.2816077102838541,-0.054737203911865664,0.0,0.6481736266273312,0.0029048593878496527,0.0,-4.660117408405995e-06,0.0035855567685785135,0.0,,,,,,
2024-08-03 22:10:04.402930,-0.9226235064545749,0.002098506162250448,0.0,-1.4890705419399557,-0.0009909111932903507,0.0,1.7706672872686156,0.04502804598292312,0.0,-0.28160771028385323,-0.05473720391107294,0.0,0.6481736266273286,0.0029048593850915416,0.0,-4.660117470578484e-06,0.003585556833324307,0.0,,,,,,
2024-08-03 22:10:04.412765,-0.9226235064545705,0.002098506165788907,0.0,-1.4890705419399717,-0.0009909112102834876,0.0,1.7706672872685871,0.04502804595538836,0.0,-0.28160771028385057,-0.05473720390982925,0.0,0.6481736266273259,0.0029048593817703494,0.0,-4.660117531862795e-06,0.0035855568977974134,0.0,,,,,,
2024-08-03 22:10:04.423007,-0.9226235064545669,0.002098506169336685,0.0,-1.4890705419399877,-0.0009909112272358644,0.0,1.7706672872685605,0.04502804592817668,0.0,-0.28160771028385234,-0.05473720390899625,0.0,0.6481736266273224,0.002904859378976593,0.0,-4.660117593147106e-06,0.0035855569623321347,0.0,,,,,,
2024-08-03 22:10:04.432696,-0.9226235064545634,0.002098506172899902,0.0,-1.4890705419400063,-0.0009909112441343652,0.0,1.770667287268532,0.045028045900575006,0.0,-0.2816077102838497,-0.0547372039077786,0.0,0.6481736266273197,0.0029048593761065115,0.0,-4.660117653543239e-06,0.0035855570268110253,0.0,,,,,,
2024-08-03 22:10:04.442790,-0.9226235064545598,0.0020985061763458958,0.0,-1.4890705419400232,-0.0009909112610293899,0.0,1.7706672872685054,0.04502804587347721,0.0,-0.2816077102838479,-0.05473720390691159,0.0,0.648173626627317,0.002904859372875368,0.0,-4.660117713939371e-06,0.003585557090820564,0.0,,,,,,
2024-08-03 22:10:04.452623,-0.9226235064545563,0.0020985061798949973,0.0,-1.4890705419400392,-0.0009909112779585708,0.0,1.7706672872684805,0.04502804584640433,0.0,-0.2816077102838488,-0.054737203905866234,0.0,0.6481736266273135,0.0029048593703031402,0.0,-4.660117774335504e-06,0.0035855571548892144,0.0,,,,,,
2024-08-03 22:10:04.462819,-0.9226235064545527,0.002098506183429874,0.0,-1.4890705419400552,-0.0009909112945808705,0.0,1.7706672872684521,0.045028045819320274,0.0,-0.2816077102838497,-0.05473720390494009,0.0,0.6481736266273108,0.002904859367622749,0.0,-4.660117834731636e-06,0.0035855572185598673,0.0,,,,,,
2024-08-03 22:10:04.472972,-0.9226235064545492,0.002098506186866289,0.0,-1.489070541940073,-0.0009909113115047449,0.0,1.7706672872684273,0.04502804579257044,0.0,-0.2816077102838461,-0.054737203903831716,0.0,0.6481736266273082,0.00290485936432598,0.0,-4.660117896015947e-06,0.0035855572821533164,0.0,,,,,,
2024-08-03 22:10:04.483041,-0.9226235064545456,0.002098506190345966,0.0,-1.4890705419400907,-0.000990911328163379,0.0,1.7706672872683988,0.04502804576543818,0.0,-0.2816077102838461,-0.05473720390282377,0.0,0.6481736266273055,0.0029048593618212987,0.0,-4.660117955523901e-06,0.003585557345657618,0.0,,,,,,
2024-08-03 22:10:04.493009,-0.9226235064545429,0.002098506193800571,0.0,-1.4890705419401067,-0.0009909113448435779,0.0,1.7706672872683722,0.04502804573853494,0.0,-0.28160771028384435,-0.054737203901741166,0.0,0.6481736266273028,0.0029048593588619407,0.0,-4.6601180150318555e-06,0.003585557408731113,0.0,,,,,,
2024-08-03 22:10:04.502654,-0.9226235064545394,0.0020985061974225583,0.0,-1.4890705419401227,-0.0009909113612257268,0.0,1.7706672872683455,0.04502804571160944,0.0,-0.2816077102838417,-0.05473720390077659,0.0,0.6481736266273002,0.002904859356194731,0.0,-4.6601180763161665e-06,0.00358555747191797,0.0,,,,,,
2024-08-03 22:10:04.512990,-0.922623506454535,0.0020985062008015078,0.0,-1.4890705419401387,-0.0009909113779328629,0.0,1.7706672872683171,0.045028045685153215,0.0,-0.28160771028384257,-0.054737203899852885,0.0,0.6481736266272975,0.0029048593533841567,0.0,-4.660118134935942e-06,0.003585557534612026,0.0,,,,,,
2024-08-03 22:10:04.522659,-0.9226235064545314,0.002098506204357056,0.0,-1.4890705419401564,-0.0009909113942520706,0.0,1.7706672872682923,0.04502804565811459,0.0,-0.2816077102838399,-0.054737203899001496,0.0,0.6481736266272939,0.002904859350696338,0.0,-4.660118194443896e-06,0.0035855575978014803,0.0,,,,,,
2024-08-03 22:10:04.532955,-0.9226235064545287,0.002098506207830959,0.0,-1.4890705419401724,-0.0009909114107568245,0.0,1.7706672872682638,0.045028045631857756,0.0,-0.2816077102838408,-0.05473720389832483,0.0,0.6481736266272922,0.0029048593478610786,0.0,-4.660118253063672e-06,0.0035855576602504017,0.0,,,,,,
2024-08-03 22:10:04.542632,-0.9226235064545252,0.0020985062111745834,0.0,-1.4890705419401902,-0.000990911427214128,0.0,1.770667287268239,0.04502804560547925,0.0,-0.28160771028383813,-0.054737203897046796,0.0,0.6481736266272886,0.0029048593448677724,0.0,-4.660118312571626e-06,0.0035855577225414664,0.0,,,,,,
2024-08-03 22:10:04.552978,-0.9226235064545216,0.002098506214527593,0.0,-1.4890705419402044,-0.000990911443738175,0.0,1.7706672872682105,0.045028045579058935,0.0,-0.281607710283839,-0.05473720389598599,0.0,0.648173626627286,0.00290485934228686,0.0,-4.660118371191402e-06,0.003585557784708921,0.0,,,,,,
2024-08-03 22:10:04.563256,-0.922623506454519,0.0020985062179424167,0.0,-1.4890705419402221,-0.0009909114599738267,0.0,1.7706672872681857,0.04502804555285996,0.0,-0.28160771028383813,-0.054737203895487634,0.0,0.6481736266272833,0.0029048593392384013,0.0,-4.660118430699356e-06,0.003585557846978581,0.0,,,,,,
2024-08-03 22:10:04.572902,-0.9226235064545145,0.00209850622146571,0.0,-1.4890705419402381,-0.0009909114762647268,0.0,1.7706672872681608,0.04502804552664064,0.0,-0.28160771028383547,-0.05473720389456098,0.0,0.6481736266272797,0.0029048593364400487,0.0,-4.660118488430953e-06,0.003585557908835334,0.0,,,,,,
2024-08-03 22:10:04.583339,-0.9226235064545119,0.002098506224810874,0.0,-1.4890705419402541,-0.0009909114925377197,0.0,1.7706672872681342,0.045028045500269134,0.0,-0.2816077102838346,-0.05473720389303396,0.0,0.648173626627278,0.0029048593336558778,0.0,-4.660118547938907e-06,0.003585557970263247,0.0,,,,,,
2024-08-03 22:10:04.592872,-0.9226235064545083,0.0020985062282221703,0.0,-1.48907054194027,-0.000990911508678143,0.0,1.7706672872681075,0.045028045474214434,0.0,-0.2816077102838346,-0.054737203892331054,0.0,0.6481736266272744,0.0029048593306857293,0.0,-4.660118603894148e-06,0.003585558031935015,0.0,,,,,,
2024-08-03 22:10:04.603034,-0.9226235064545047,0.002098506231577576,0.0,-1.489070541940286,-0.0009909115247889616,0.0,1.770667287268079,0.04502804544795414,0.0,-0.28160771028383635,-0.054737203891342456,0.0,0.6481736266272717,0.0029048593280723307,0.0,-4.660118663402102e-06,0.003585558093430915,0.0,,,,,,
2024-08-03 22:10:04.612908,-0.9226235064545012,0.0020985062350611433,0.0,-1.489070541940302,-0.000990911540879028,0.0,1.7706672872680542,0.045028045422105555,0.0,-0.281607710283831,-0.0547372038904632,0.0,0.6481736266272691,0.002904859325544012,0.0,-4.660118722021878e-06,0.003585558154497181,0.0,,,,,,
2024-08-03 22:10:04.623095,-0.9226235064544976,0.0020985062383079567,0.0,-1.489070541940318,-0.0009909115569731964,0.0,1.7706672872680294,0.04502804539620011,0.0,-0.2816077102838319,-0.05473720388911593,0.0,0.6481736266272664,0.0029048593227208415,0.0,-4.660118780641653e-06,0.003585558215540415,0.0,,,,,,
2024-08-03 22:10:04.632803,-0.9226235064544941,0.0020985062416872865,0.0,-1.489070541940334,-0.0009909115729527392,0.0,1.7706672872680045,0.04502804537014775,0.0,-0.28160771028382925,-0.05473720388832706,0.0,0.6481736266272637,0.0029048593199964556,0.0,-4.660118836596894e-06,0.0035855582764101296,0.0,,,,,,
2024-08-03 22:10:04.643265,-0.9226235064544914,0.002098506245030236,0.0,-1.48907054194035,-0.0009909115888944026,0.0,1.770667287267976,0.04502804534475476,0.0,-0.28160771028383014,-0.054737203887886623,0.0,0.6481736266272611,0.0029048593172350825,0.0,-4.660118894328491e-06,0.0035855583373128005,0.0,,,,,,
2024-08-03 22:10:04.652980,-0.9226235064544879,0.002098506248293265,0.0,-1.489070541940366,-0.0009909116049177605,0.0,1.7706672872679512,0.045028045318688245,0.0,-0.28160771028382836,-0.0547372038863494,0.0,0.6481736266272584,0.0029048593141734504,0.0,-4.660118952060088e-06,0.0035855583976616315,0.0,,,,,,
2024-08-03 22:10:04.663218,-0.9226235064544843,0.0020985062517514847,0.0,-1.489070541940383,-0.0009909116207519658,0.0,1.7706672872679246,0.04502804529320242,0.0,-0.28160771028382836,-0.05473720388585572,0.0,0.6481736266272558,0.0029048593118583947,0.0,-4.660119008903507e-06,0.003585558458311704,0.0,,,,,,
2024-08-03 22:10:04.673247,-0.9226235064544817,0.002098506255006538,0.0,-1.489070541940398,-0.0009909116365659156,0.0,1.7706672872678997,0.04502804526768447,0.0,-0.2816077102838275,-0.05473720388479866,0.0,0.6481736266272522,0.002904859308958917,0.0,-4.660119067523283e-06,0.003585558518312414,0.0,,,,,,
2024-08-03 22:10:04.684807,-0.922623506454479,0.00209850625823697,0.0,-1.489070541940414,-0.0009909116524537218,0.0,1.7706672872678766,0.04502804524219578,0.0,-0.2816077102838248,-0.05473720388364885,0.0,0.6481736266272495,0.0029048593061987912,0.0,-4.660119123478523e-06,0.0035855585781845462,0.0,,,,,,
2024-08-03 22:10:04.694631,-0.9226235064544746,0.0020985062615735232,0.0,-1.48907054194043,-0.0009909116681800416,0.0,1.7706672872678482,0.04502804521691514,0.0,-0.2816077102838248,-0.05473720388295451,0.0,0.6481736266272469,0.00290485930344151,0.0,-4.660119180321942e-06,0.003585558638246771,0.0,,,,,,
2024-08-03 22:10:04.704502,-0.922623506454471,0.002098506264792747,0.0,-1.489070541940446,-0.0009909116839696488,0.0,1.7706672872678233,0.04502804519126417,0.0,-0.2816077102838239,-0.054737203881662366,0.0,0.6481736266272451,0.0029048593006019315,0.0,-4.660119235389004e-06,0.003585558697966125,0.0,,,,,,
2024-08-03 22:10:04.714267,-0.9226235064544683,0.0020985062681299982,0.0,-1.4890705419404602,-0.0009909116995235185,0.0,1.7706672872677984,0.04502804516607365,0.0,-0.2816077102838257,-0.05473720388102292,0.0,0.6481736266272415,0.00290485929811359,0.0,-4.6601192931206015e-06,0.0035855587573693022,0.0,,,,,,
2024-08-03 22:10:04.724530,-0.9226235064544657,0.0020985062714943986,0.0,-1.4890705419404762,-0.0009909117151164863,0.0,1.7706672872677736,0.04502804514073676,0.0,-0.28160771028382126,-0.05473720387994137,0.0,0.6481736266272398,0.002904859295866056,0.0,-4.6601193481876635e-06,0.0035855588167952434,0.0,,,,,,
2024-08-03 22:10:04.734156,-0.9226235064544621,0.002098506274713424,0.0,-1.489070541940493,-0.0009909117308979584,0.0,1.7706672872677487,0.04502804511608346,0.0,-0.28160771028382214,-0.05473720387918113,0.0,0.6481736266272371,0.0029048592928847088,0.0,-4.660119405031082e-06,0.0035855588759621014,0.0,,,,,,
2024-08-03 22:10:04.743903,-0.9226235064544586,0.002098506277891903,0.0,-1.4890705419405064,-0.000990911746269989,0.0,1.7706672872677238,0.04502804509069671,0.0,-0.28160771028382037,-0.054737203878020044,0.0,0.6481736266272344,0.0029048592902299612,0.0,-4.66011946276268e-06,0.0035855589350597713,0.0,,,,,,
2024-08-03 22:10:04.754069,-0.9226235064544559,0.0020985062811961224,0.0,-1.4890705419405241,-0.000990911761746606,0.0,1.770667287267699,0.04502804506566713,0.0,-0.28160771028382037,-0.054737203877111416,0.0,0.6481736266272309,0.00290485928741722,0.0,-4.660119517829742e-06,0.0035855589938764867,0.0,,,,,,
2024-08-03 22:10:04.763721,-0.9226235064544523,0.002098506284397243,0.0,-1.4890705419405383,-0.0009909117771208687,0.0,1.770667287267674,0.045028045040612696,0.0,-0.2816077102838195,-0.05473720387633659,0.0,0.6481736266272282,0.002904859284746907,0.0,-4.660119572896804e-06,0.003585559052689906,0.0,,,,,,
2024-08-03 22:10:04.774081,-0.9226235064544488,0.0020985062877307676,0.0,-1.4890705419405526,-0.0009909117926309718,0.0,1.7706672872676492,0.04502804501593924,0.0,-0.2816077102838177,-0.05473720387541817,0.0,0.6481736266272264,0.0029048592825581935,0.0,-4.660119627963866e-06,0.003585559111239209,0.0,,,,,,
2024-08-03 22:10:04.783565,-0.9226235064544452,0.0020985062909624204,0.0,-1.4890705419405703,-0.0009909118079139592,0.0,1.7706672872676243,0.04502804499101553,0.0,-0.2816077102838168,-0.05473720387446669,0.0,0.6481736266272238,0.0029048592797990135,0.0,-4.660119683030928e-06,0.003585559169727931,0.0,,,,,,
2024-08-03 22:10:04.793846,-0.9226235064544426,0.002098506294036406,0.0,-1.4890705419405845,-0.0009909118233384856,0.0,1.7706672872675995,0.04502804496656171,0.0,-0.28160771028381504,-0.0547372038738219,0.0,0.6481736266272211,0.002904859276910258,0.0,-4.660119738986168e-06,0.0035855592278710422,0.0,,,,,,
2024-08-03 22:10:04.803668,-0.922623506454439,0.002098506297234239,0.0,-1.4890705419406014,-0.0009909118386932712,0.0,1.7706672872675746,0.045028044941720045,0.0,-0.28160771028381415,-0.05473720387260525,0.0,0.6481736266272184,0.00290485927423862,0.0,-4.660119793165052e-06,0.0035855592859380136,0.0,,,,,,
2024-08-03 22:10:04.813990,-0.9226235064544364,0.0020985063004923033,0.0,-1.4890705419406165,-0.0009909118539301077,0.0,1.7706672872675497,0.04502804491701017,0.0,-0.28160771028381326,-0.05473720387151147,0.0,0.6481736266272158,0.0029048592716703027,0.0,-4.660119848232114e-06,0.0035855593439920166,0.0,,,,,,
2024-08-03 22:10:04.823606,-0.9226235064544328,0.0020985063037436275,0.0,-1.4890705419406307,-0.0009909118691319163,0.0,1.7706672872675284,0.04502804489286917,0.0,-0.28160771028381326,-0.054737203871018505,0.0,0.6481736266272131,0.002904859269554259,0.0,-4.660119903299176e-06,0.0035855594017510893,0.0,,,,,,
2024-08-03 22:10:04.833874,-0.9226235064544301,0.0020985063068401397,0.0,-1.489070541940645,-0.0009909118842189295,0.0,1.7706672872675018,0.04502804486820987,0.0,-0.28160771028381326,-0.0547372038698054,0.0,0.6481736266272105,0.0029048592667242374,0.0,-4.660119959254416e-06,0.0035855594590855225,0.0,,,,,,
2024-08-03 22:10:04.843470,-0.9226235064544266,0.002098506309935622,0.0,-1.489070541940661,-0.0009909118993876975,0.0,1.7706672872674787,0.0450280448437934,0.0,-0.2816077102838097,-0.05473720386913637,0.0,0.6481736266272078,0.0029048592639179726,0.0,-4.6601200125451214e-06,0.003585559516869694,0.0,,,,,,
2024-08-03 22:10:04.853669,-0.9226235064544239,0.002098506313095632,0.0,-1.489070541940677,-0.0009909119145052087,0.0,1.7706672872674538,0.04502804481959069,0.0,-0.2816077102838106,-0.054737203868453405,0.0,0.648173626627206,0.002904859261595679,0.0,-4.660120065835827e-06,0.0035855595740932633,0.0,,,,,,
2024-08-03 22:10:04.863362,-0.9226235064544204,0.0020985063163878113,0.0,-1.489070541940691,-0.000990911929412492,0.0,1.770667287267429,0.04502804479506989,0.0,-0.2816077102838106,-0.054737203867454266,0.0,0.6481736266272033,0.002904859258925508,0.0,-4.66012012001471e-06,0.0035855596315643753,0.0,,,,,,
2024-08-03 22:10:04.873585,-0.9226235064544168,0.0020985063195523355,0.0,-1.4890705419407053,-0.0009909119443935008,0.0,1.770667287267404,0.04502804477087644,0.0,-0.2816077102838097,-0.0547372038665321,0.0,0.6481736266271998,0.0029048592564838334,0.0,-4.660120173305415e-06,0.003585559688412841,0.0,,,,,,
2024-08-03 22:10:04.883271,-0.9226235064544142,0.002098506322519464,0.0,-1.489070541940723,-0.000990911959496223,0.0,1.7706672872673792,0.04502804474702455,0.0,-0.28160771028380793,-0.0547372038655619,0.0,0.6481736266271971,0.0029048592539442594,0.0,-4.660120228372477e-06,0.0035855597450560593,0.0,,,,,,
2024-08-03 22:10:04.893446,-0.9226235064544106,0.00209850632563801,0.0,-1.4890705419407364,-0.000990911974339845,0.0,1.7706672872673561,0.04502804472317615,0.0,-0.2816077102838088,-0.05473720386495017,0.0,0.6481736266271954,0.0029048592512542367,0.0,-4.660120282551361e-06,0.003585559801678064,0.0,,,,,,
2024-08-03 22:10:04.903218,-0.9226235064544079,0.0020985063286120807,0.0,-1.4890705419407515,-0.0009909119892413428,0.0,1.770667287267333,0.04502804469891824,0.0,-0.28160771028380704,-0.054737203863647166,0.0,0.6481736266271927,0.0029048592486662357,0.0,-4.660120335842066e-06,0.003585559858068706,0.0,,,,,,
2024-08-03 22:10:04.913510,-0.9226235064544044,0.002098506331903516,0.0,-1.4890705419407657,-0.0009909120039654745,0.0,1.7706672872673082,0.04502804467502618,0.0,-0.2816077102838044,-0.0547372038630344,0.0,0.64817362662719,0.0029048592460755897,0.0,-4.660120389132771e-06,0.0035855599146052746,0.0,,,,,,
2024-08-03 22:10:04.923238,-0.9226235064544017,0.0020985063350038185,0.0,-1.48907054194078,-0.000990912018724705,0.0,1.7706672872672833,0.045028044650919204,0.0,-0.28160771028380527,-0.05473720386200409,0.0,0.6481736266271874,0.0029048592435041752,0.0,-4.660120441535298e-06,0.003585559970899241,0.0,,,,,,
2024-08-03 22:10:04.933613,-0.9226235064543982,0.0020985063381182487,0.0,-1.489070541940796,-0.0009909120335212449,0.0,1.770667287267262,0.04502804462727749,0.0,-0.2816077102838035,-0.05473720386131738,0.0,0.6481736266271847,0.002904859240941305,0.0,-4.660120495714182e-06,0.0035855600270406638,0.0,,,,,,
2024-08-03 22:10:04.943388,-0.9226235064543946,0.002098506341286369,0.0,-1.4890705419408101,-0.0009909120482154545,0.0,1.7706672872672353,0.04502804460347006,0.0,-0.2816077102838026,-0.054737203860435235,0.0,0.648173626627182,0.002904859238512673,0.0,-4.6601205481167085e-06,0.0035855600827832145,0.0,,,,,,
2024-08-03 22:10:04.953657,-0.9226235064543928,0.0020985063443759657,0.0,-1.4890705419408243,-0.0009909120628682766,0.0,1.7706672872672122,0.04502804457976098,0.0,-0.2816077102838026,-0.05473720385973092,0.0,0.6481736266271794,0.0029048592360697402,0.0,-4.660120600519235e-06,0.003585560138805231,0.0,,,,,,
2024-08-03 22:10:04.963310,-0.9226235064543893,0.002098506347293883,0.0,-1.4890705419408385,-0.0009909120774652044,0.0,1.770667287267191,0.04502804455641451,0.0,-0.2816077102838026,-0.05473720385877111,0.0,0.6481736266271776,0.002904859233726693,0.0,-4.6601206538099404e-06,0.003585560194115234,0.0,,,,,,
2024-08-03 22:10:04.973515,-0.9226235064543866,0.002098506350303734,0.0,-1.4890705419408545,-0.0009909120921809751,0.0,1.770667287267166,0.04502804453289408,0.0,-0.28160771028379994,-0.05473720385774256,0.0,0.6481736266271749,0.0029048592309176956,0.0,-4.660120706212467e-06,0.0035855602496142457,0.0,,,,,,
2024-08-03 22:10:04.983867,-0.922623506454384,0.002098506353323835,0.0,-1.4890705419408687,-0.0009909121068202114,0.0,1.7706672872671412,0.04502804450956876,0.0,-0.28160771028379994,-0.054737203856888336,0.0,0.6481736266271723,0.002904859228418216,0.0,-4.660120759503172e-06,0.0035855603049586657,0.0,,,,,,
2024-08-03 22:10:04.993488,-0.9226235064543804,0.0020985063565601364,0.0,-1.489070541940883,-0.0009909121210696513,0.0,1.7706672872671199,0.045028044485797836,0.0,-0.28160771028379905,-0.05473720385613971,0.0,0.6481736266271696,0.002904859226108347,0.0,-4.660120811017521e-06,0.00358556036006588,0.0,,,,,,
2024-08-03 22:10:05.003819,-0.9226235064543769,0.002098506359537803,0.0,-1.4890705419408972,-0.0009909121355095776,0.0,1.770667287267095,0.04502804446245466,0.0,-0.2816077102837955,-0.054737203855324205,0.0,0.6481736266271669,0.00290485922355001,0.0,-4.6601208634200475e-06,0.003585560414903204,0.0,,,,,,
2024-08-03 22:10:05.013490,-0.9226235064543742,0.0020985063625808954,0.0,-1.4890705419409114,-0.0009909121499811172,0.0,1.7706672872670737,0.04502804443935025,0.0,-0.2816077102837955,-0.05473720385467822,0.0,0.6481736266271652,0.0029048592209550313,0.0,-4.660120915822574e-06,0.003585560469894268,0.0,,,,,,
2024-08-03 22:10:05.023836,-0.9226235064543715,0.0020985063656197163,0.0,-1.4890705419409256,-0.0009909121644230382,0.0,1.7706672872670488,0.04502804441598559,0.0,-0.2816077102837964,-0.054737203853315465,0.0,0.6481736266271616,0.002904859218327387,0.0,-4.660120967336923e-06,0.0035855605243075486,0.0,,,,,,
2024-08-03 22:10:05.033391,-0.9226235064543689,0.002098506368503021,0.0,-1.4890705419409398,-0.0009909121788266627,0.0,1.7706672872670257,0.04502804439309281,0.0,-0.2816077102837955,-0.05473720385262831,0.0,0.6481736266271598,0.0029048592159495834,0.0,-4.660121019739449e-06,0.003585560578874787,0.0,,,,,,
2024-08-03 22:10:05.043754,-0.9226235064543653,0.002098506371617466,0.0,-1.489070541940954,-0.0009909121930949292,0.0,1.7706672872670026,0.045028044369660784,0.0,-0.2816077102837955,-0.05473720385168643,0.0,0.648173626627158,0.0029048592137934006,0.0,-4.660121069477441e-06,0.003585560633516885,0.0,,,,,,
2024-08-03 22:10:05.053361,-0.9226235064543618,0.002098506374524736,0.0,-1.4890705419409682,-0.0009909122072901254,0.0,1.7706672872669813,0.04502804434673206,0.0,-0.2816077102837946,-0.05473720385124055,0.0,0.6481736266271554,0.0029048592115566707,0.0,-4.660121120991789e-06,0.0035855606876702825,0.0,,,,,,
2024-08-03 22:10:05.063658,-0.92262350645436,0.0020985063773637513,0.0,-1.4890705419409842,-0.0009909122217482153,0.0,1.7706672872669564,0.04502804432412921,0.0,-0.28160771028379283,-0.054737203850131186,0.0,0.6481736266271527,0.0029048592086095577,0.0,-4.6601211725061376e-06,0.0035855607415372086,0.0,,,,,,
2024-08-03 22:10:05.074024,-0.9226235064543564,0.0020985063805192623,0.0,-1.4890705419409966,-0.0009909122357000687,0.0,1.7706672872669333,0.04502804430099826,0.0,-0.28160771028379195,-0.05473720384925035,0.0,0.648173626627151,0.002904859206767271,0.0,-4.660121224908664e-06,0.0035855607955021167,0.0,,,,,,
2024-08-03 22:10:05.083706,-0.9226235064543538,0.002098506383413731,0.0,-1.4890705419410109,-0.000990912249854541,0.0,1.7706672872669103,0.045028044278140944,0.0,-0.28160771028379106,-0.0547372038487088,0.0,0.6481736266271483,0.002904859204193891,0.0,-4.660121275534834e-06,0.003585560849573395,0.0,,,,,,
2024-08-03 22:10:05.094112,-0.9226235064543502,0.0020985063864491092,0.0,-1.489070541941025,-0.0009909122639668424,0.0,1.7706672872668872,0.045028044255228904,0.0,-0.2816077102837884,-0.054737203847608135,0.0,0.6481736266271456,0.0029048592017296834,0.0,-4.660121325272826e-06,0.003585560902989117,0.0,,,,,,
2024-08-03 22:10:05.103921,-0.9226235064543475,0.0020985063894265565,0.0,-1.4890705419410393,-0.000990912278109523,0.0,1.770667287266864,0.045028044232538804,0.0,-0.2816077102837884,-0.05473720384672789,0.0,0.6481736266271438,0.0029048591993462245,0.0,-4.660121375898996e-06,0.0035855609568240404,0.0,,,,,,
2024-08-03 22:10:05.114036,-0.922623506454344,0.002098506392250197,0.0,-1.4890705419410535,-0.0009909122921326152,0.0,1.7706672872668427,0.04502804420981252,0.0,-0.2816077102837884,-0.05473720384573171,0.0,0.6481736266271412,0.0029048591968316457,0.0,-4.660121426525166e-06,0.003585561009866828,0.0,,,,,,
2024-08-03 22:10:05.123853,-0.9226235064543413,0.0020985063951900443,0.0,-1.4890705419410677,-0.0009909123062054504,0.0,1.7706672872668214,0.04502804418749905,0.0,-0.2816077102837884,-0.05473720384522422,0.0,0.6481736266271385,0.0029048591945992066,0.0,-4.6601214771513355e-06,0.0035855610631988872,0.0,,,,,,
2024-08-03 22:10:05.134091,-0.9226235064543387,0.0020985063982318945,0.0,-1.4890705419410828,-0.000990912320012922,0.0,1.7706672872668001,0.045028044164822326,0.0,-0.28160771028378484,-0.05473720384436459,0.0,0.6481736266271358,0.002904859192106583,0.0,-4.660121526889327e-06,0.0035855611161871455,0.0,,,,,,
2024-08-03 22:10:05.143724,-0.922623506454336,0.002098506400994327,0.0,-1.489070541941097,-0.0009909123340682807,0.0,1.7706672872667752,0.0450280441426701,0.0,-0.28160771028378484,-0.054737203843627534,0.0,0.6481736266271332,0.002904859189486356,0.0,-4.660121577515497e-06,0.003585561169008495,0.0,,,,,,
2024-08-03 22:10:05.153987,-0.9226235064543333,0.0020985064040560616,0.0,-1.4890705419411103,-0.0009909123478273954,0.0,1.7706672872667522,0.04502804411987033,0.0,-0.2816077102837866,-0.0547372038428115,0.0,0.6481736266271314,0.00290485918713707,0.0,-4.66012162636531e-06,0.0035855612219772032,0.0,,,,,,
2024-08-03 22:10:05.163621,-0.9226235064543298,0.002098506406768935,0.0,-1.4890705419411228,-0.000990912361803845,0.0,1.7706672872667326,0.045028044097753975,0.0,-0.28160771028378484,-0.05473720384180337,0.0,0.6481736266271296,0.0029048591848805884,0.0,-4.66012167699148e-06,0.003585561274259704,0.0,,,,,,
2024-08-03 22:10:05.173981,-0.9226235064543271,0.0020985064096438063,0.0,-1.489070541941137,-0.0009909123756151668,0.0,1.7706672872667095,0.04502804407537307,0.0,-0.2816077102837822,-0.054737203840862544,0.0,0.6481736266271261,0.0029048591827411444,0.0,-4.66012172761765e-06,0.0035855613268986264,0.0,,,,,,
2024-08-03 22:10:05.183519,-0.9226235064543244,0.00209850641257635,0.0,-1.4890705419411512,-0.0009909123893484598,0.0,1.7706672872666864,0.04502804405304983,0.0,-0.2816077102837822,-0.054737203839884424,0.0,0.6481736266271243,0.002904859180145724,0.0,-4.66012177824382e-06,0.0035855613790479164,0.0,,,,,,
2024-08-03 22:10:05.193833,-0.9226235064543209,0.0020985064156044775,0.0,-1.4890705419411654,-0.0009909124030140525,0.0,1.7706672872666651,0.04502804403103897,0.0,-0.2816077102837822,-0.05473720383936907,0.0,0.6481736266271216,0.002904859178061296,0.0,-4.660121827981811e-06,0.003585561431431392,0.0,,,,,,
2024-08-03 22:10:05.203489,-0.9226235064543182,0.002098506418412139,0.0,-1.4890705419411778,-0.000990912416718054,0.0,1.7706672872666402,0.04502804400918193,0.0,-0.2816077102837813,-0.05473720383894401,0.0,0.6481736266271199,0.002904859175832924,0.0,-4.660121876831624e-06,0.0035855614835940395,0.0,,,,,,
2024-08-03 22:10:05.213772,-0.9226235064543156,0.002098506421205678,0.0,-1.489070541941192,-0.0009909124304766427,0.0,1.770667287266619,0.04502804398692084,0.0,-0.2816077102837813,-0.054737203837635334,0.0,0.6481736266271172,0.002904859173293795,0.0,-4.660121924793259e-06,0.0035855615354027093,0.0,,,,,,
2024-08-03 22:10:05.223425,-0.9226235064543129,0.0020985064240333588,0.0,-1.4890705419412062,-0.0009909124440637463,0.0,1.7706672872665976,0.045028043965106956,0.0,-0.2816077102837786,-0.05473720383696683,0.0,0.6481736266271154,0.0029048591708629784,0.0,-4.660121973643072e-06,0.0035855615870450763,0.0,,,,,,
2024-08-03 22:10:05.233646,-0.9226235064543094,0.0020985064269787353,0.0,-1.4890705419412205,-0.0009909124576699573,0.0,1.7706672872665745,0.04502804394296409,0.0,-0.28160771028377773,-0.05473720383600879,0.0,0.6481736266271128,0.0029048591686015287,0.0,-4.660122022492885e-06,0.0035855616386660607,0.0,,,,,,
2024-08-03 22:10:05.244601,-0.9226235064543067,0.0020985064296833193,0.0,-1.489070541941233,-0.0009909124712492614,0.0,1.770667287266555,0.04502804392132308,0.0,-0.28160771028377773,-0.05473720383538877,0.0,0.6481736266271101,0.002904859166130665,0.0,-4.660122072230877e-06,0.003585561690168505,0.0,,,,,,
2024-08-03 22:10:05.253742,-0.922623506454304,0.0020985064326104717,0.0,-1.4890705419412453,-0.0009909124844759535,0.0,1.77066728726653,0.045028043899135776,0.0,-0.28160771028377773,-0.05473720383457566,0.0,0.6481736266271083,0.002904859164043503,0.0,-4.660122120192511e-06,0.0035855617415954766,0.0,,,,,,
2024-08-03 22:10:05.264222,-0.9226235064543014,0.002098506435468576,0.0,-1.4890705419412595,-0.000990912498075565,0.0,1.7706672872665123,0.04502804387795071,0.0,-0.2816077102837742,-0.054737203833911625,0.0,0.6481736266271048,0.002904859161595642,0.0,-4.6601221690423245e-06,0.003585561792839508,0.0,,,,,,
2024-08-03 22:10:05.273990,-0.9226235064542987,0.002098506438224198,0.0,-1.4890705419412738,-0.000990912511575262,0.0,1.7706672872664875,0.04502804385611533,0.0,-0.2816077102837742,-0.05473720383306338,0.0,0.648173626627103,0.0029048591592779477,0.0,-4.660122216115781e-06,0.0035855618438271016,0.0,,,,,,
2024-08-03 22:10:05.284319,-0.9226214078307011,0.002098573301531385,0.0,-1.4890715317610856,-0.0009898246728612921,0.0,1.7707123144091135,0.04502714259765362,0.0,-0.2816624484917112,-0.05473820755357174,0.0,0.6481765316710089,0.0029050420087890815,0.0,-6.957291417641898e-06,0.003586232021972266,0.0,,,,,,
2024-08-03 22:10:05.293955,-0.9223119528557664,0.0021000834210103737,0.0,-1.4890129012362203,-0.0009843001979447036,0.0,1.7708168124383548,0.045021655694246925,0.0,-0.28182546461358804,-0.05473845423296384,0.0,0.6484855235223828,0.002906987485383339,0.0,-6.897380100845396e-06,0.0035853183463820976,0.0,,,,,,
2024-08-03 22:10:05.304253,-0.9214631502525528,0.002104150848111218,0.0,-1.4888520841320234,-0.0009694494945019405,0.0,1.771103439674551,0.04500666107481254,0.0,-0.28227260089297523,-0.05473921273731572,0.0,0.6493330558354122,0.002912258423075821,0.0,-6.7251804534151916e-06,0.0035829851601796997,0.0,,,,,,
2024-08-03 22:10:05.313966,-0.9200788331276524,0.002110681814789524,0.0,-1.4885898069616388,-0.0009456332999209555,0.0,1.7715709018277508,0.044982290605491713,0.0,-0.2830018382026207,-0.05474053481917616,0.0,0.6507153012553069,0.0029207710253618163,0.0,-6.455349926604015e-06,0.0035793559218135896,0.0,,,,,,
2024-08-03 22:10:05.324295,-0.9182006347607548,0.0021194591423625998,0.0,-1.4882339577604922,-0.000913632299559104,0.0,1.7722051400107546,0.04494928774273607,0.0,-0.2839912447687869,-0.054742377664942325,0.0,0.6525906888056658,0.0029322453958400612,0.0,-6.113546001884629e-06,0.0035745620323883796,0.0,,,,,,
2024-08-03 22:10:05.333971,-0.9158977549449911,0.002130155948138092,0.0,-1.4877976473501302,-0.0008746435019273474,0.0,1.7729827865384706,0.04490886889062692,0.0,-0.2852043671695501,-0.05474465671980308,0.0,0.6548901222484353,0.002946249457301814,0.0,-5.736142452583692e-06,0.0035687721155205606,0.0,,,,,,
2024-08-03 22:10:05.343916,-0.9132567263032838,0.0021423733438836255,0.0,-1.4872972704587022,-0.0008301332431424509,0.0,1.7738746206924816,0.04486254999785075,0.0,-0.2865956213004468,-0.05474726588307341,0.0,0.65752719845473,0.0029622537545650673,0.0,-5.364171589583577e-06,0.003562184921178344,0.0,,,,,,
2024-08-03 22:10:05.353687,-0.9103711805991761,0.002155683578131553,0.0,-1.486750566820995,-0.0007816694034844286,0.0,1.7748490244810835,0.044811968492063224,0.0,-0.28811568333499515,-0.0547500925136629,0.0,0.6604084257796741,0.0029796901450729217,0.0,-5.035482949722336e-06,0.003555012182406815,0.0,,,,,,
2024-08-03 22:10:05.364067,-0.9073316150471804,0.002169674158589574,0.0,-1.4861746822704152,-0.0007307475267151263,0.0,1.7758754383974882,0.04475870394265675,0.0,-0.2897168806818051,-0.05475302937232225,0.0,0.6634434424366455,0.0029980106015395237,0.0,-4.777035337077962e-06,0.003547456433069117,0.0,,,,,,
2024-08-03 22:10:05.374159,-0.90421515856311,0.0021840507279074,0.0,-1.485584229869392,-0.00067865095183909,0.0,1.7769278171853493,0.04470410488324651,0.0,-0.2913585829570744,-0.05475600109089618,0.0,0.6665552349421011,0.0030168149028606114,0.0,-4.600761835504841e-06,0.0035396655117039,0.0,,,,,,
2024-08-03 22:10:05.384106,-0.9010753382021663,0.0021985538483831673,0.0,-1.4849893509634995,-0.0006262396106248517,0.0,1.7779880855880439,0.044649100590492145,0.0,-0.2930125929077416,-0.054758942394722655,0.0,0.6696903563414001,0.0030357614465833117,0.0,-4.504954246975501e-06,0.00353176969929617,0.0,,,,,,
2024-08-03 22:10:05.394123,-0.8979337310386395,0.002213063140612903,0.0,-1.4843941335563409,-0.0005738315235289089,0.0,1.7790489573622423,0.04459406160359648,0.0,-0.2946675440501014,-0.05476181538490142,0.0,0.6728272618460522,0.0030546938101977134,0.0,7.4430073562226085e-06,0.0035238152577489086,0.0,,,,,,
2024-08-03 22:10:05.403831,-0.8947921239061349,0.0022275423762519843,0.0,-1.483798916211202,-0.0005214836103999906,0.0,1.7801098291529165,0.04453903804985034,0.0,-0.2963224951024852,-0.05476459887430025,0.0,0.6759641673071233,0.0030735832402190876,0.0,-4.907473925008787e-06,0.0035157687271411345,0.0,,,,,,
2024-08-03 22:10:05.414051,-0.8916505167917279,0.002242003502158572,0.0,-1.4832036989058686,-0.00046917563567730556,0.0,1.781170700950149,0.04448402111802945,0.0,-0.29797744607048315,-0.0547672979611919,0.0,0.6791010727343734,0.0030924388574646057,0.0,6.956664957868952e-06,0.003507638641733832,0.0,,,,,,
2024-08-03 22:10:05.423894,-0.8885089096569327,0.002256485025560424,0.0,-1.4826084815868759,-0.00041685395889397726,0.0,1.7822315727303355,0.04442898711679296,0.0,-0.299632396969324,-0.054769927897667534,0.0,0.682237978156274,0.003111289123939195,0.0,4.605983049188467e-06,0.003499448028342024,0.0,,,,,,
2024-08-03 22:10:05.433728,-0.8853673025002138,0.002270988414647338,0.0,-1.4820132642589907,-0.0003645230998250283,0.0,1.7832924444968796,0.04437393938665338,0.0,-0.3012873477969338,-0.05477248656150906,0.0,0.6853748835778575,0.003130138984618442,0.0,-4.39451345357611e-06,0.0034911830606052913,0.0,,,,,,
2024-08-03 22:10:05.444013,-0.8822256953211802,0.002285514163466216,0.0,-1.4814180469208187,-0.0003121821586068185,0.0,1.7843533162495895,0.04431887788539115,0.0,-0.3029422985541492,-0.05477497485999264,0.0,0.688511788999751,0.0031489892178309248,0.0,4.880950721819488e-06,0.0034828435153106394,0.0,,,,,,
2024-08-03 22:10:05.454194,-0.879084088120913,0.0023000611481190456,0.0,-1.4808228295680708,-0.000259826636930657,0.0,1.7854141879876302,0.044263801712433076,0.0,-0.30459724924154674,-0.054777393339278564,0.0,0.6916486944204037,0.003167838211376489,0.0,5.060589860050868e-06,0.003474430178665569,0.0,,,,,,
2024-08-03 22:10:05.463855,-0.8759424809020508,0.002314626656895326,0.0,-1.4802276121925313,-0.00020744807152383096,0.0,1.7864750597093657,0.04420870916958589,0.0,-0.3062521998584291,-0.05477974125427783,0.0,0.6947855998361367,0.0031866821903998492,0.0,4.377228763452479e-06,0.003465942653275769,0.0,,,,,,
2024-08-03 22:10:05.474069,-0.8728008736640023,0.0023292116577071998,0.0,-1.4796323948000258,-0.00015505222737834633,0.0,1.7875359314165706,0.044153601790404715,0.0,-0.3079071504062556,-0.05478202035601585,0.0,0.6979225052485587,0.003205523048886418,0.0,4.33894714557681e-06,0.0034573819432225103,0.0,,,,,,
2024-08-03 22:10:05.483982,-0.8696592663296974,0.0023438924409979853,0.0,-1.4790371774076057,-0.00010265634478705916,0.0,1.7885968031116342,0.044098482488335894,0.0,-0.30956210090244607,-0.05478424745923281,0.0,0.7010594107460699,0.0032244486082567345,0.0,4.701014476360399e-06,0.003448707083358807,0.0,,,,,,
2024-08-03 22:10:05.493813,-0.8665176589849404,0.0023585830240396588,0.0,-1.4784419600078393,-5.0255594628130507e-05,0.0,1.7896576747936397,0.044043351293495875,0.0,-0.31121705133254185,-0.05478640824752027,0.0,0.7041963162306422,0.0032433609217729638,0.0,5.06958614110431e-06,0.0034399715695616817,0.0,,,,,,
2024-08-03 22:10:05.504093,-0.8633760516273883,0.002373287301139212,0.0,-1.4778467426047903,2.1503240847224082e-06,0.0,1.7907185464661595,0.04398820955622921,0.0,-0.3128720016958706,-0.05478850265599667,0.0,0.7073332217064339,0.0032622650381558633,0.0,5.425349542953484e-06,0.003431167410669218,0.0,,,,,,
2024-08-03 22:10:05.513770,-0.8602344442480119,0.0023880134035870505,0.0,-1.4772515251855276,5.457245822362627e-05,0.0,1.7917794181228572,0.043933051999002166,0.0,-0.31452695199625946,-0.0547905341243279,0.0,0.710470127180594,0.003281167521338428,0.0,5.778223137298255e-06,0.0034222989249103053,0.0,,,,,,
2024-08-03 22:10:05.524042,-0.8570928368466832,0.0024027614612980954,0.0,-1.4766563077504473,0.00010701041207751951,0.0,1.7928402897641007,0.04387787898687817,0.0,-0.3161819022345771,-0.05479250352285676,0.0,0.7136070326533108,0.003300068561250939,0.0,6.129335680782333e-06,0.0034133663670154767,0.0,,,,,,
2024-08-03 22:10:05.534329,-0.853951229423271,0.002417531605050738,0.0,-1.4760610902996179,0.00015946411606166614,0.0,1.7939011613899183,0.0438226905458569,0.0,-0.31783685241184045,-0.05479441186448072,0.0,0.7167439381246012,0.0033189681740783132,0.0,6.479189758046289e-06,0.0034043708848136354,0.0,,,,,,
2024-08-03 22:10:05.543824,-0.8508096219776355,0.0024323239719679893,0.0,-1.4754658728330783,0.00021193353375597917,0.0,1.7949620330002922,0.04376748666029478,0.0,-0.3194918025290665,-0.05479626016682021,0.0,0.7198808435944475,0.0033378663426758093,0.0,6.828089826882433e-06,0.0033953137351970717,0.0,,,,,,
2024-08-03 22:10:05.554171,-0.8476680145096314,0.0024471387079802076,0.0,-1.4748706553508606,0.00026441863202232487,0.0,1.796022904595203,0.04371226731003281,0.0,-0.32114675258726155,-0.054798049435363864,0.0,0.7230177490628291,0.0033567630455317993,0.0,7.1762421862686665e-06,0.0033861961788766892,0.0,,,,,,
2024-08-03 22:10:05.563802,-0.8445264070229568,0.0024619720500434674,0.0,-1.4742754378423004,0.0003169303011988519,0.0,1.7970837761728848,0.043657030675751274,0.0,-0.3228017025847816,-0.05479977798350199,0.0,0.7261546545245237,0.0033756529745039075,0.0,7.5237922256832235e-06,0.00337701638148921,0.0,,,,,,
2024-08-03 22:10:05.574071,-0.841384799507539,0.0024768342630150184,0.0,-1.4736802203180568,0.0003694571851390223,0.0,1.7981446477348975,0.04360177848978316,0.0,-0.324456652526357,-0.0548014506704541,0.0,0.729291559991502,0.003394548352821167,0.0,7.870850227575943e-06,0.0033677752330476276,0.0,,,,,,
2024-08-03 22:10:05.583785,-0.8382431918978863,0.0024917905543411175,0.0,-1.4730850027807436,0.0004219971627314905,0.0,1.7992055192785408,0.043546507996492755,0.0,-0.3261116024267059,-0.05480308205390768,0.0,0.732428465536608,0.003413521715278088,0.0,8.217477881267143e-06,0.0033584422514826803,0.0,,,,,,
2024-08-03 22:10:05.594195,-0.8351015842796237,0.002506754730025401,0.0,-1.472489785237477,0.0004745414386151275,0.0,1.8002663908102399,0.04349122648719104,0.0,-0.32776655226988627,-0.054804655995189945,0.0,0.7355653710653893,0.0034324782974513844,0.0,8.563771688230304e-06,0.0033490596255364206,0.0,,,,,,
2024-08-03 22:10:05.603954,-0.8319599766441863,0.002521736911660441,0.0,-1.471894567686827,0.0005270949667365056,0.0,1.8013272623301688,0.0434359321553177,0.0,-0.329421502057313,-0.05480617449621421,0.0,0.7387022765873716,0.003451428599703928,0.0,8.909775403687092e-06,0.003339622164453282,0.0,,,,,,
2024-08-03 22:10:05.614297,-0.8288183689851989,0.0025367426441331767,0.0,-1.4712993501194418,0.0005796652321028227,0.0,1.8023881338337873,0.04338062151292256,0.0,-0.3310764517915068,-0.05480763976494286,0.0,0.741839182107574,0.003470377122437007,0.0,9.255532596341709e-06,0.0033301322530655503,0.0,,,,,,
2024-08-03 22:10:05.624010,-0.8256767613024785,0.002551772110958662,0.0,-1.4707041325355943,0.0006322519632644577,0.0,1.8034490053213617,0.04332529482411388,0.0,-0.33273140147324654,-0.05480905257535304,0.0,0.7449760876261822,0.0034893240481456878,0.0,9.601075993792563e-06,0.003320590170609318,0.0,,,,,,
2024-08-03 22:10:05.634220,-0.8225351535958652,0.002566825472021591,0.0,-1.4701089149352924,0.0006848551498580707,0.0,1.8045098767928796,0.04326995208049209,0.0,-0.33438635110339465,-0.054810413792708394,0.0,0.7481129931432156,0.003508269399671921,0.0,9.946432996343901e-06,0.003310996912016249,0.0,,,,,,
2024-08-03 22:10:05.643831,-0.8193935458652035,0.0025819028829082258,0.0,-1.4695136973185219,0.0007374748068498553,0.0,1.8055707482483019,0.043214593238222215,0.0,-0.33604130068281446,-0.05481172428181361,0.0,0.7512498986586698,0.0035272131698016957,0.0,1.0291626275638066e-05,0.003301353562509001,0.0,,,,,,
2024-08-03 22:10:05.653959,-0.8162519381124227,0.0025970022999023813,0.0,-1.468918479679793,0.0007901167970762193,0.0,1.8066316196867902,0.04315921737274098,0.0,-0.3376962502109828,-0.0548129834490462,0.0,0.7543868041697799,0.0035461524531313193,0.0,1.0636672872266217e-05,0.003291659338607608,0.0,,,,,,
2024-08-03 22:10:05.664404,-0.8131103303371621,0.0026121243870783403,0.0,-1.4683232620192157,0.0008427800205710431,0.0,1.807692491108357,0.043103824732846546,0.0,-0.33935119968877725,-0.054814192353363066,0.0,0.7575237096767973,0.003565087877967328,0.0,1.0981588332903414e-05,0.0032819153213834284,0.0,,,,,,
2024-08-03 22:10:05.674066,-0.8099687225004839,0.0026273078125721517,0.0,-1.4677280443422782,0.0008954596149330679,0.0,1.8087533625112222,0.04304841342351019,0.0,-0.34100614912608407,-0.05481536073170352,0.0,0.7606606152231228,0.003584062536456144,0.0,1.1326373943632007e-05,0.003272107257204751,0.0,,,,,,
2024-08-03 22:10:05.683879,-0.8068271146042401,0.0026425507174255647,0.0,-1.4671328266500188,0.0009481545402068884,0.0,1.8098142338950254,0.042992983081147414,0.0,-0.3426610985240073,-0.054816489691283964,0.0,0.7637975208062295,0.0036030738995604045,0.0,1.167104461874402e-05,0.0032622399906111705,0.0,,,,,,
2024-08-03 22:10:05.694069,-0.8036855066955662,0.002657805397229649,0.0,-1.4665376089538247,0.0010008517900628234,0.0,1.8108751052682912,0.04293754311770226,0.0,-0.3443160478730549,-0.05481756956345185,0.0,0.7669344263760713,0.0036220716023405096,0.0,1.2015620659333592e-05,0.003252328026857214,0.0,,,,,,
2024-08-03 22:10:05.704027,-0.8005438987646629,0.0026730830625732757,0.0,-1.4659423912444136,0.0010535640903684414,0.0,1.8119359766266463,0.04288208720532655,0.0,-0.34597099717570146,-0.054818603277729534,0.0,0.7700713319416126,0.003641065458183304,0.0,1.2360109390208152e-05,0.003242373191855769,0.0,,,,,,
2024-08-03 22:10:05.714290,-0.7974022908083658,0.0026883861253495494,0.0,-1.465347173517246,0.0011062941471507732,0.0,1.8129968479679377,0.042826614230077546,0.0,-0.3476259464333218,-0.0548195919645524,0.0,0.7732082375053828,0.003660057542130697,0.0,1.2704518509210061e-05,0.0032323759747313,0.0,,,,,,
2024-08-03 22:10:05.723869,-0.7942606828265069,0.0027037147503043975,0.0,-1.4647519557724606,0.001159041825380425,0.0,1.8140577192922898,0.042771124314688214,0.0,-0.34928089564661313,-0.05482053631996615,0.0,0.7763451430674975,0.003679047971797241,0.0,1.3048853694463958e-05,0.00322233683909564,0.0,,,,,,
2024-08-03 22:10:05.734165,-0.791119074818937,0.0027190690891479487,0.0,-1.4641567380100111,0.0012118071697190458,0.0,1.815118590599651,0.04271561740504971,0.0,-0.35093584481630824,-0.05482143707681571,0.0,0.7794820486279805,0.003698036765455476,0.0,1.3393120307902961e-05,0.0032122566754467967,0.0,,,,,,
2024-08-03 22:10:05.743823,-0.787977466786006,0.0027344486332768303,0.0,-1.4635615202285768,0.001264591996819006,0.0,1.8161794618897922,0.04266009316740393,0.0,-0.3525907939428077,-0.054822294546170595,0.0,0.782618954186173,0.003717023078565791,0.0,1.3737322621665271e-05,0.0032021358137691238,0.0,,,,,,
2024-08-03 22:10:05.754019,-0.7848358587309097,0.0027498505759572726,0.0,-1.4629663024198603,0.0013174033676313433,0.0,1.8172403331616245,0.042604550780844665,0.0,-0.3542457430247472,-0.05482310758915172,0.0,0.7857558597378054,0.003736003113701212,0.0,1.4081461669590567e-05,0.003191972423917994,0.0,,,,,,
2024-08-03 22:10:05.764546,-0.7816942506489903,0.0027652793458391198,0.0,-1.462371084594097,0.0013702317899493312,0.0,1.8183012044164304,0.042548991370726076,0.0,-0.35590069206543706,-0.054823879380095,0.0,0.788892765288618,0.003754982328873063,0.0,1.4425544663687617e-05,0.0031817705606537097,0.0,,,,,,
2024-08-03 22:10:05.774386,-0.7785526424688696,0.0027808061570828977,0.0,-1.461775866746868,0.0014230816851881112,0.0,1.8193620756464028,0.04249340719830794,0.0,-0.3575556410804186,-0.054824625399696555,0.0,0.7920296709167163,0.0037740386884292784,0.0,1.476954858414814e-05,0.0031715005779916223,0.0,,,,,,
2024-08-03 22:10:05.784068,-0.7754110342691831,0.00279635216246168,0.0,-1.4611806488848467,0.001475945408946158,0.0,1.8204229468590576,0.04243780625969816,0.0,-0.3592105900552607,-0.05482533117880628,0.0,0.7951665765351201,0.0037930851383999624,0.0,1.5113511619091469e-05,0.0031612024460678854,0.0,,,,,,
2024-08-03 22:10:05.794342,-0.7722694260523522,0.0028119154558354648,0.0,-1.4605854310199422,0.0015288123835697281,0.0,1.821483818061978,0.04238219537753907,0.0,-0.3608655389885955,-0.054825995493387465,0.0,0.7983034821443207,0.003812122461793078,0.0,1.5457422556153233e-05,0.0031508641992717117,0.0,,,,,,
2024-08-03 22:10:05.804223,-0.7691278178086245,0.0028275059677414587,0.0,-1.4599902131357314,0.00158169949238044,0.0,1.8225446892466337,0.04232656576123102,0.0,-0.3625204878831818,-0.0548266211381377,0.0,0.8014403877515628,0.0038311580143662394,0.0,1.580128976552686e-05,0.0031404925426224348,0.0,,,,,,
2024-08-03 22:10:05.814021,-0.7659862095376715,0.00284312370930217,0.0,-1.4593949952322285,0.001634605895888434,0.0,1.8236055604131494,0.042270918005427455,0.0,-0.3641754367396137,-0.05482720863138989,0.0,0.8045772933571822,0.003850191943052368,0.0,1.6145114650534254e-05,0.0031300870816472026,0.0,,,,,,
2024-08-03 22:10:05.824216,-0.7628446012393884,0.002858768781591975,0.0,-1.458799777309461,0.001687531564731355,0.0,1.8246664315615142,0.0422152520966609,0.0,-0.365830385558513,-0.05482775858506134,0.0,0.8077141989611842,0.0038692242540760884,0.0,1.6488899115429945e-05,0.003119648515633117,0.0,,,,,,
2024-08-03 22:10:05.834024,-0.7597029929136445,0.002874441316707921,0.0,-1.4582045593673454,0.0017404765839100131,0.0,1.8257273026916323,0.042159567940316986,0.0,-0.36748533434048536,-0.05482827161230436,0.0,0.8108511045635698,0.0038882549468508554,0.0,1.6832645036046756e-05,0.0031091776636102517,0.0,,,,,,
2024-08-03 22:10:05.844275,-0.7565613845635522,0.0028901380777050824,0.0,-1.4576093413982691,0.0017934489480521763,0.0,1.8267881738026581,0.042103864611041486,0.0,-0.3691402830842163,-0.054828746326654534,0.0,0.8139880101602737,0.003907279807370197,0.0,1.7176350851855204e-05,0.003098672045371813,0.0,,,,,,
2024-08-03 22:10:05.854109,-0.7534197761864876,0.0029058620154148737,0.0,-1.457014123407342,0.0018464425420229554,0.0,1.8278490448950748,0.04204814280457326,0.0,-0.37079523179163587,-0.05482918484186521,0.0,0.8171249157544027,0.003926302335972718,0.0,1.752002008004183e-05,0.003088134564137164,0.0,,,,,,
2024-08-03 22:10:05.864314,-0.7502781677509427,0.0029216443671466344,0.0,-1.4564189053943577,0.001899458195791656,0.0,1.8289099159648003,0.04199239833912292,0.0,-0.3724501804703575,-0.05482959463136214,0.0,0.8202618213802877,0.003945356559868031,0.0,1.786364505385052e-05,0.003077555296730515,0.0,,,,,,
2024-08-03 22:10:05.874050,-0.7471365592476005,0.002937494420033864,0.0,-1.4558236873591264,0.001952496094249987,0.0,1.829970787009957,0.041936629355445475,0.0,-0.3741051291233495,-0.05482997865660942,0.0,0.8233987270475884,0.003964452114502767,0.0,1.8207226700539536e-05,0.0030669341144272852,0.0,,,,,,
2024-08-03 22:10:05.884459,-0.7439949507248338,0.002953363276211067,0.0,-1.4552284693090145,0.002005547125097673,0.0,1.831031658038043,0.041880844289802634,0.0,-0.37576007774138187,-0.054830327604104535,0.0,0.8265356327037985,0.003983536232398034,0.0,1.8550783425830275e-05,0.0030562900175498346,0.0,,,,,,
2024-08-03 22:10:05.894096,-0.7408533421805803,0.0029692543372686914,0.0,-1.4546332512514455,0.0020586076002061223,0.0,1.8320925290538845,0.0418250458546368,0.0,-0.3774150263245657,-0.05483064184198453,0.0,0.8296725383533241,0.00400261406384439,0.0,1.889430493573485e-05,0.003045614317634892,0.0,,,,,,
2024-08-03 22:10:05.904542,-0.7377117336091317,0.002985172596633943,0.0,-1.4540380331757639,0.0021116861897170374,0.0,1.8331534000510477,0.04176922874060313,0.0,-0.3790699748748052,-0.054830923134904,0.0,0.8328094439996541,0.004021688699201865,0.0,1.9237799816274048e-05,0.003034913883634395,0.0,,,,,,
2024-08-03 22:10:05.914053,-0.734570125051996,0.0030010765679461624,0.0,-1.4534428151539325,0.0021647109433616356,0.0,1.8342142710619633,0.041713425359729286,0.0,-0.3807249233854364,-0.05483116482429298,0.0,0.8359463496129313,0.004040730295574576,0.0,1.958125150824941e-05,0.0030241737917839897,0.0,,,,,,
2024-08-03 22:10:05.924424,-0.7314285164944758,0.0030169809147467938,0.0,-1.4528475971606214,0.002217707038096383,0.0,1.8352751420727884,0.04165762195761021,0.0,-0.3823798718614926,-0.05483137193729671,0.0,0.8390832552012499,0.004059746942929161,0.0,1.9924680743521606e-05,0.0030134134474180787,0.0,,,,,,
2024-08-03 22:10:05.934450,-0.7282869079120413,0.003032910013601305,0.0,-1.4522523791499642,0.0022707210524178564,0.0,1.836336013065612,0.04160180041867011,0.0,-0.38403482030592784,-0.05483154733817002,0.0,0.8422201607832465,0.004078757061876055,0.0,2.026808817312542e-05,0.003002631928118565,0.0,,,,,,
2024-08-03 22:10:05.944516,-0.7251452993014755,0.0030488674330544025,0.0,-1.4516571611187092,0.002323755170304075,0.0,1.837396884039748,0.04154596027492182,0.0,-0.38568976871880345,-0.05483169127731581,0.0,0.845357066362495,0.004097764642395271,0.0,2.061146931353619e-05,0.0029918247607879254,0.0,,,,,,
2024-08-03 22:10:05.954225,-0.7220036906595899,0.003064856222404761,0.0,-1.4510619430689775,0.0023768075814029166,0.0,1.8384577549947547,0.041490101047596636,0.0,-0.3873447171019828,-0.054831805542986396,0.0,0.8484939719424638,0.004116773006255414,0.0,2.09548266019155e-05,0.002980993969499527,0.0,,,,,,
2024-08-03 22:10:05.964427,-0.7188620819280942,0.0030809344893241945,0.0,-1.4504667249902405,0.0024298889894513267,0.0,1.839518625919645,0.04143421177986558,0.0,-0.38899966546788445,-0.05483190248479361,0.0,0.8516308775856931,0.004135844514092745,0.0,2.1298142168113543e-05,0.0029701194992600754,0.0,,,,,,
2024-08-03 22:10:05.974044,-0.7157204731615803,0.003097047748190087,0.0,-1.44987150689108,0.0024829908180991488,0.0,1.8405794968229152,0.041378300911051394,0.0,-0.3906546138064959,-0.05483197212845504,0.0,0.854767783232619,0.004154919693897898,0.0,2.1641439279740382e-05,0.0029592262095684166,0.0,,,,,,
2024-08-03 22:10:05.984383,-0.712578864370828,0.00311318467899073,0.0,-1.4492762887765955,0.0025361062596415537,0.0,1.8416403677089228,0.04132237374692949,0.0,-0.3923095621156145,-0.05483201221688122,0.0,0.8579046888725737,0.004173987603088833,0.0,2.1984716751077826e-05,0.0029483123659910697,0.0,,,,,,
2024-08-03 22:10:05.994547,-0.7094372555543282,0.003129348017506253,0.0,-1.4486810706496625,0.0025892361083874656,0.0,1.8427012385799362,0.04126643047649429,0.0,-0.39396451039562397,-0.05483202327006613,0.0,0.8610415945083032,0.004193051634719997,0.0,2.2327968659752173e-05,0.002937373851010381,0.0,,,,,,
2024-08-03 22:10:06.004298,-0.7062956467066792,0.0031455425090080973,0.0,-1.448085852498729,0.0026423899587124417,0.0,1.843762109429619,0.04121046587983254,0.0,-0.39561945864773573,-0.05483200642655851,0.0,0.8641785001432813,0.004212114913744853,0.0,2.2671200929913482e-05,0.002926415284795073,0.0,,,,,,
2024-08-03 22:10:06.014021,-0.7031540378252483,0.0031617708940506876,0.0,-1.447490634326736,0.002695564753265975,0.0,1.8448229802585985,0.041154480604232276,0.0,-0.39727440687314264,-0.054831962906890186,0.0,0.8673154057807242,0.004231180782238168,0.0,2.3014413065070016e-05,0.0029154359826845545,0.0,,,,,,
2024-08-03 22:10:06.024499,-0.7000124289064633,0.0031780364520966916,0.0,-1.446895416122781,0.002748771769913594,0.0,1.8458838510613003,0.04109846897783687,0.0,-0.39892935507289806,-0.05483189368103319,0.0,0.8704523114219977,0.004250250260593863,0.0,2.3357611687480073e-05,0.002904442417646455,0.0,,,,,,
2024-08-03 22:10:06.034197,-0.6968708200226086,0.0031942669754920785,0.0,-1.4463001979927135,0.0028019051543770996,0.0,1.846944721882874,0.041042476209396765,0.0,-0.40058430323809535,-0.05483178983866084,0.0,0.8735892170047768,0.004269261135873748,0.0,2.3700804300474942e-05,0.0028934440048588644,0.0,,,,,,
2024-08-03 22:10:06.044317,-0.69372921112058,0.0032105159391063727,0.0,-1.4457049798602746,0.00285504028169091,0.0,1.8480055926933368,0.04098647243274137,0.0,-0.4022392513748354,-0.05483165765929733,0.0,0.876726122576879,0.004288261628865679,0.0,2.404397392208324e-05,0.002882422612385336,0.0,,,,,,
2024-08-03 22:10:06.054662,-0.6905876021709298,0.0032268124984006605,0.0,-1.4451097616970656,0.002908206179675313,0.0,1.8490664634788772,0.04093044374774715,0.0,-0.40389419948840377,-0.054831502297061144,0.0,0.8798630281656044,0.004307278719560052,0.0,2.4387117801616398e-05,0.0028713742554662266,0.0,,,,,,
2024-08-03 22:10:06.064343,-0.6874459931306207,0.0032431995842719117,0.0,-1.4445145434998101,0.0029614061025449267,0.0,1.8501273342305282,0.04087438125909033,0.0,-0.40554914758863436,-0.05483133355803763,0.0,0.8829999338166612,0.004326358028900094,0.0,2.4730229156944006e-05,0.002860290842789574,0.0,,,,,,
2024-08-03 22:10:06.074106,-0.6843043840675138,0.0032596094730935003,0.0,-1.4439193252816647,0.0030146269174220787,0.0,1.851188204961522,0.040818298111534576,0.0,-0.4072040956628289,-0.05483113878539032,0.0,0.8861368394568707,0.004345426492643857,0.0,2.5073332817093785e-05,0.002849198926632565,0.0,,,,,,
2024-08-03 22:10:06.084424,-0.6811627749770812,0.0032760461729654787,0.0,-1.4433241070471492,0.0030678624256287174,0.0,1.8522490756745853,0.04076219798734482,0.0,-0.40885904371189774,-0.05483091886946997,0.0,0.8892737450925443,0.0043644901611509055,0.0,2.5416420334600787e-05,0.0028380892118685798,0.0,,,,,,
2024-08-03 22:10:06.094219,-0.6780211658577375,0.0032925123890321212,0.0,-1.4427288887956855,0.0031211168114853175,0.0,1.8533099463699472,0.040706079062779545,0.0,-0.410513991736309,-0.054830674317535896,0.0,0.8924106507256448,0.004383551557565193,0.0,2.5759489102661348e-05,0.00282696084384237,0.0,,,,,,
2024-08-03 22:10:06.104336,-0.6748795567055588,0.0033090114458609707,0.0,-1.442133670518073,0.00317439734879841,0.0,1.854370817042449,0.040649937279109996,0.0,-0.41216893973676694,-0.05483040581445024,0.0,0.8955475563584994,0.004402612709451972,0.0,2.6102544020467633e-05,0.0028158176271107266,0.0,,,,,,
2024-08-03 22:10:06.114562,-0.6717379475207315,0.003325543153459829,0.0,-1.4415384522148995,0.003227703448182698,0.0,1.8554316876923451,0.04059377289224186,0.0,-0.4138238877136029,-0.05483011368680653,0.0,0.8986844619909382,0.0044216734450197425,0.0,2.6445585356249524e-05,0.0028046598232255044,0.0,,,,,,
2024-08-03 22:10:06.124305,-0.668596338304031,0.0033421065294982214,0.0,-1.4409432338845043,0.003281037346295496,0.0,1.8564925583195286,0.040537585692615716,0.0,-0.41547883566675203,-0.05482979777439312,0.0,0.9018213676219657,0.00444073253064618,0.0,2.6788612622397068e-05,0.0027934867369916673,0.0,,,,,,
2024-08-03 22:10:06.134560,-0.6654547290584238,0.0033586991059607685,0.0,-1.4403480155208175,0.0033344037309920305,0.0,1.8575534289237545,0.04048137567115538,0.0,-0.4171337835951361,-0.05482945723143075,0.0,0.9049582732480559,0.004459787009000916,0.0,2.7131622688081336e-05,0.0027822958301146495,0.0,,,,,,
2024-08-03 22:10:06.144192,-0.6623131197792667,0.0033753252367395192,0.0,-1.4397527971318593,0.003387795391202139,0.0,1.8586142995050317,0.04042514269789997,0.0,-0.41878873150105456,-0.05482909421888532,0.0,0.9080951788744791,0.004478841819330372,0.0,2.747462071273077e-05,0.002771091826416721,0.0,,,,,,
2024-08-03 22:10:06.154468,-0.6591715104327642,0.003392018635546767,0.0,-1.439157578709329,0.00344122060873844,0.0,1.8596751700544765,0.040368877947131114,0.0,-0.420443679391469,-0.0548287156792709,0.0,0.9112320845368185,0.004497932478726125,0.0,2.7817599334234444e-05,0.002759866584575008,0.0,,,,,,
2024-08-03 22:10:06.164249,-0.656029901021915,0.0034087763021965656,0.0,-1.438562360254539,0.0034946780692421747,0.0,1.8607360405720428,0.040312581374643754,0.0,-0.42209862726633407,-0.054828321576178014,0.0,0.9143689902313463,0.00451705525895872,0.0,2.8160563096513158e-05,0.0027486246843579907,0.0,,,,,,
2024-08-03 22:10:06.174552,-0.6528882915841843,0.003425560855669392,0.0,-1.4379671417753543,0.00354815992406111,0.0,1.8617969110665555,0.04025626174593684,0.0,-0.4237535751185826,-0.054827904858414454,0.0,0.9175058959180813,0.004536170247148075,0.0,2.850352254935018e-05,0.002737377518712816,0.0,,,,,,
2024-08-03 22:10:06.184224,-0.6497466821177937,0.0034423736025702917,0.0,-1.437371923278581,0.0036016577375515323,0.0,1.8628577815422247,0.04019992419267654,0.0,-0.42540852294896947,-0.05482746630234444,0.0,0.9206428016008852,0.004555281083872804,0.0,2.8846468866028374e-05,0.0027261155627776724,0.0,,,,,,
2024-08-03 22:10:06.194594,-0.6466050726198196,0.003459218488737287,0.0,-1.4367767047591824,0.0036551800684977687,0.0,1.8639186519965776,0.04014356425713754,0.0,-0.42706347075796813,-0.05482700633145527,0.0,0.9237797072821534,0.004574390644160712,0.0,2.9189402560803046e-05,0.002714840936975233,0.0,,,,,,
2024-08-03 22:10:06.204670,-0.6434634630876328,0.003476097592130644,0.0,-1.4361814862105982,0.0037087315872483873,0.0,1.8649795224258945,0.04008717928394355,0.0,-0.42871841854592674,-0.05482652531902166,0.0,0.9269166129633675,0.004593500150244501,0.0,2.9532327125103564e-05,0.0027035561732455657,0.0,,,,,,
2024-08-03 22:10:06.214308,-0.6403218535213755,0.0034930107702909486,0.0,-1.4355862676332565,0.0037623118651212424,0.0,1.8660403928303282,0.04003076942926704,0.0,-0.4303733663131073,-0.0548260235282613,0.0,0.9300535186443879,0.004612609463671177,0.0,2.9875242812948954e-05,0.0026922615389763957,0.0,,,,,,
2024-08-03 22:10:06.224661,-0.637180243924151,0.0035099547372881754,0.0,-1.4349910490213966,0.0038159271426716095,0.0,1.8671012632099284,0.039974334663937856,0.0,-0.4320283140584591,-0.05482549983382759,0.0,0.9331904243216238,0.004631714789800292,0.0,3.021814608938911e-05,0.0026809533761379166,0.0,,,,,,
2024-08-03 22:10:06.234252,-0.6340386342940345,0.0035269318673694177,0.0,-1.4343958303778004,0.0038695734503127236,0.0,1.8681621335644483,0.03991787492754288,0.0,-0.43368326178294936,-0.05482495538691529,0.0,0.9363273299971944,0.004650818744021205,0.0,3.0561039191745465e-05,0.002669634382966396,0.0,,,,,,
2024-08-03 22:10:06.244491,-0.6308970246292365,0.0035439436820515198,0.0,-1.4338006117052122,0.003923248751934548,0.0,1.8692230038936017,0.03986138982305939,0.0,-0.4353382094875142,-0.05482439101057264,0.0,0.9394642356730145,0.004669922947441264,0.0,3.090392462823388e-05,0.0026583067384232835,0.0,,,,,,
2024-08-03 22:10:06.254776,-0.6277554148692861,0.0035610505105098697,0.0,-1.4332053929874913,0.003976969150001626,0.0,1.8702838741795134,0.0398048615804699,0.0,-0.4369931571838235,-0.05482381835229367,0.0,0.9426011414122355,0.004689090436621062,0.0,3.12467917868986e-05,0.002646958665076032,0.0,,,,,,
2024-08-03 22:10:06.264376,-0.6246138050051329,0.0035782615363712782,0.0,-1.4326101740247654,0.004030934546475512,0.0,1.87134474429703,0.03974816495689368,0.0,-0.4386481048193369,-0.05482318489762133,0.0,0.9457380472108978,0.004708317350813973,0.0,3.15896566371876e-05,0.002635607094452214,0.0,,,,,,
2024-08-03 22:10:06.274604,-0.6214721942336929,0.0035963800226738135,0.0,-1.4320149511133964,0.004088848590688704,0.0,1.8724056119580457,0.03968901182988804,0.0,-0.4403030517908251,-0.05482188741307252,0.0,0.9488749536850545,0.004728219760443981,0.0,3.1932741608287074e-05,0.0026244747254673116,0.0,,,,,,
2024-08-03 22:10:06.284290,-0.6183305836015052,0.003614358850295344,0.0,-1.4314197282741803,0.004146688915264888,0.0,1.8734664796503235,0.03962989085168574,0.0,-0.4419579987690865,-0.05482059676777409,0.0,0.9520118599924832,0.004747955256719934,0.0,3.227597337396304e-05,0.0026134874670850376,0.0,,,,,,
2024-08-03 22:10:06.294601,-0.6151889729280597,0.003632379444505283,0.0,-1.4308245057847768,0.004204181254012086,0.0,1.8745273474500248,0.03957087626425823,0.0,-0.4436129457762288,-0.054819334934101835,0.0,0.955148766323676,0.004767714736936235,0.0,3.2619292654523235e-05,0.0026025872369509905,0.0,,,,,,
2024-08-03 22:10:06.304715,-0.6120473622100713,0.0036504445876296455,0.0,-1.4302292833062153,0.004261662750886909,0.0,1.8755882152430061,0.039511854959544714,0.0,-0.44526789276259837,-0.05481805232585183,0.0,0.9582856726431137,0.004787462461624413,0.0,3.2962619683551964e-05,0.0025916937517749244,0.0,,,,,,
2024-08-03 22:10:06.314421,-0.6089057514031406,0.0036685986682889033,0.0,-1.4296340609090918,0.0043190628586745146,0.0,1.8766490830713085,0.03945286896383677,0.0,-0.4469228397376277,-0.05481675837121727,0.0,0.9614225789660784,0.004807213701871951,0.0,3.330595130712766e-05,0.0025808038567371487,0.0,,,,,,
2024-08-03 22:10:06.324664,-0.6057641405563139,0.0036867925023621236,0.0,-1.429038838481287,0.004376493974678022,0.0,1.8777099508553796,0.03939383870200705,0.0,-0.44857778666381254,-0.05481541552199249,0.0,0.9645594852821597,0.004826957898748894,0.0,3.364926975102378e-05,0.0025698998309524055,0.0,,,,,,
2024-08-03 22:10:06.334568,-0.6026225296607359,0.0037050353345458894,0.0,-1.4284436160568121,0.0044339211731597135,0.0,1.8787708185835044,0.03933475256492849,0.0,-0.450232733523138,-0.054814005895379006,0.0,0.9676963915992243,0.0048467033385143155,0.0,3.399258479230838e-05,0.0025589917670075114,0.0,,,,,,
2024-08-03 22:10:06.344970,-0.5994809187230361,0.0037233202914532418,0.0,-1.4278483936156448,0.004491365067379452,0.0,1.8798316862698137,0.0392756246147356,0.0,-0.4518876803392935,-0.05481255309763087,0.0,0.9708332979272685,0.004866459753167653,0.0,3.433589415902105e-05,0.002548077154183744,0.0,,,,,,
2024-08-03 22:10:06.354612,-0.5963393076796848,0.0037417107545899995,0.0,-1.4272531711329959,0.004548850392043018,0.0,1.8808925538909538,0.03921643161297897,0.0,-0.4535426271170264,-0.054811061859739475,0.0,0.9739702043476308,0.004886308368490302,0.0,3.467919237909456e-05,0.0025371494222483507,0.0,,,,,,
2024-08-03 22:10:06.364807,-0.5931976965004351,0.003760237124686454,0.0,-1.4266579485967161,0.004606389345357407,0.0,1.8819534214934368,0.039157219954627905,0.0,-0.45519757386392534,-0.05480953978834434,0.0,0.977107110764293,0.004906153283198657,0.0,3.5022493482195216e-05,0.0025262238185360542,0.0,,,,,,
2024-08-03 22:10:06.374552,-0.5900560853931491,0.003778691540586966,0.0,-1.4260627260383278,0.004663950408099818,0.0,1.8830142890441817,0.03909795655873953,0.0,-0.45685252057478287,-0.05480798167600909,0.0,0.9802440172160996,0.00492603334231879,0.0,3.536581321217369e-05,0.002515316110751571,0.0,,,,,,
2024-08-03 22:10:06.384977,-0.5869144742430485,0.003797188379620536,0.0,-1.4254675034402495,0.004721549564111142,0.0,1.8840751565678566,0.039038666992032636,0.0,-0.45850746725806246,-0.05480639608255824,0.0,0.9833809236735958,0.004945918929999373,0.0,3.5709121668503485e-05,0.002504395745029498,0.0,,,,,,
2024-08-03 22:10:06.394695,-0.583772863034973,0.0038157436695329013,0.0,-1.424872280833341,0.004779159410756304,0.0,1.8851360240604151,0.03897934526597217,0.0,-0.4601624139057803,-0.05480477481727429,0.0,0.9865178301484692,0.004965822086229264,0.0,3.6052429138067055e-05,0.0024934744939017857,0.0,,,,,,
2024-08-03 22:10:06.404967,-0.5806312517877803,0.003834338083615598,0.0,-1.4242770581677522,0.0048368279414281335,0.0,1.886196891523312,0.03891999386970092,0.0,-0.46181736053410116,-0.05480313415349625,0.0,0.9896547366246295,0.00498572652789867,0.0,3.639572827474069e-05,0.0024825441311996403,0.0,,,,,,
2024-08-03 22:10:06.414561,-0.5774896404848695,0.003852987969343644,0.0,-1.423681835490468,0.004894508792235207,0.0,1.8872577589583237,0.038860614522691135,0.0,-0.4634723071363158,-0.05480146730606343,0.0,0.9927916431153907,0.005005645301293448,0.0,3.6739029036780835e-05,0.002471614151215419,0.0,,,,,,
2024-08-03 22:10:06.424834,-0.5743480291507908,0.0038716693665079107,0.0,-1.4230866127396842,0.004952262311454927,0.0,1.8883186263542964,0.038801196230710475,0.0,-0.46512725371190644,-0.05479977393511529,0.0,0.9959285495970152,0.005025555296986144,0.0,3.708231321919442e-05,0.002460667382625376,0.0,,,,,,
2024-08-03 22:10:06.434502,-0.5712064177611307,0.003890406352834121,0.0,-1.422491389970881,0.005010033847653161,0.0,1.8893794937072173,0.03874173488454701,0.0,-0.4667822002508215,-0.054798043889561866,0.0,0.9990654560879833,0.005045474635702975,0.0,3.7425599585638736e-05,0.0024497219023986126,0.0,,,,,,
2024-08-03 22:10:06.444667,-0.568064806335177,0.003909179640119239,0.0,-1.4218961671414598,0.005067866012067954,0.0,1.8904403610189107,0.0386822323071922,0.0,-0.4684371467640487,-0.05479628815504488,0.0,1.002202362576087,0.00506539110689453,0.0,3.776887662354511e-05,0.002438766338775959,0.0,,,,,,
2024-08-03 22:10:06.455003,-0.5649231947976823,0.00392806432437024,0.0,-1.4213009442524152,0.00512575773217572,0.0,1.8915012282592851,0.03862265854153199,0.0,-0.47009209325237933,-0.05479450751533757,0.0,1.0053392691365026,0.005085379776849965,0.0,3.811214792115436e-05,0.0024278032806888893,0.0,,,,,,
2024-08-03 22:10:06.464721,-0.5617815832259634,0.003946983241545522,0.0,-1.4207057213167535,0.00518369607157609,0.0,1.8925620954566078,0.03856304172468391,0.0,-0.4717470397102774,-0.0547926964408791,0.0,1.008476175691297,0.005105362823890945,0.0,3.845542056701845e-05,0.0024168408513140765,0.0,,,,,,
2024-08-03 22:10:06.475066,-0.5586399716172927,0.003965939117540611,0.0,-1.42011049832724,0.0052416882638921455,0.0,1.8936229626072816,0.038503378259066606,0.0,-0.47340198613769413,-0.054790854886498284,0.0,1.011613082245563,0.005125345342513355,0.0,3.879869355660759e-05,0.0024058781863778894,0.0,,,,,,
2024-08-03 22:10:06.484664,-0.5554983599626153,0.003984940627559717,0.0,-1.4195152753050138,0.0052997115221663565,0.0,1.894683829712653,0.038443670404985426,0.0,-0.47505693253093906,-0.05478897929506158,0.0,1.0147499888085862,0.00514533647665116,0.0,3.9141965461730877e-05,0.0023949131904215637,0.0,,,,,,
2024-08-03 22:10:06.494424,-0.5523567482777176,0.00400397281205893,0.0,-1.418920052222744,0.005357796738181403,0.0,1.8957446967774665,0.03838392092833439,0.0,-0.47671187889955213,-0.05478707892044689,0.0,1.0178868953666536,0.005165322822418846,0.0,3.9485224935909e-05,0.0023839360064304795,0.0,,,,,,
2024-08-03 22:10:06.505046,-0.5492151365417817,0.004023056045517194,0.0,-1.4183248291038362,0.005415918597499565,0.0,1.8968055637905827,0.038324119749264945,0.0,-0.4783668252330715,-0.05478514344790819,0.0,1.021023801937882,0.005185322330197958,0.0,3.982849174199998e-05,0.002372965712989722,0.0,,,,,,
2024-08-03 22:10:06.514970,-0.5460735247690698,0.0040421757984921885,0.0,-1.4177296059191133,0.005474106889186866,0.0,1.8978664307558013,0.0382642706247183,0.0,-0.48002177153978565,-0.05478318110809966,0.0,1.0241607085088775,0.005205321329015361,0.0,4.0171752051954e-05,0.0023619880134426088,0.0,,,,,,
2024-08-03 22:10:06.524598,-0.5429319129623451,0.004061329919204035,0.0,-1.4171343826698573,0.0055323588980881085,0.0,1.8989272976740583,0.038204374605725615,0.0,-0.48167671781775745,-0.054781190107224646,0.0,1.0272976150766162,0.0052253174349024215,0.0,4.0515005553132255e-05,0.0023510035340022764,0.0,,,,,,
2024-08-03 22:10:06.534850,-0.5397903011079848,0.004080531684613765,0.0,-1.4165391593717487,0.00559065974940918,0.0,1.8999881645400443,0.038144426316101,0.0,-0.48333166406457817,-0.05477916795509413,0.0,1.030434521654212,0.0052453233976622275,0.0,4.085826329625064e-05,0.0023400228328716906,0.0,,,,,,
2024-08-03 22:10:06.545343,-0.5366486892220133,0.004099765071315084,0.0,-1.4159439360021648,0.0056490320891065945,0.0,1.901049031359463,0.038084431455130005,0.0,-0.48498661028720136,-0.054777121603843605,0.0,1.0335714282268995,0.005265324452707697,0.0,4.120151374209513e-05,0.0023290342827281527,0.0,,,,,,
2024-08-03 22:10:06.554767,-0.5335070772303707,0.004119103992874067,0.0,-1.4153487125613917,0.005707475546344251,0.0,1.9021098981010915,0.03802435893469562,0.0,-0.486641556487597,-0.05477505302783464,0.0,1.0367083348678445,0.005285393655915329,0.0,4.154477137152668e-05,0.0023180517479183507,0.0,,,,,,
2024-08-03 22:10:06.565147,-0.5303654652052892,0.004138475966048649,0.0,-1.4147534890637024,0.00576597395195316,0.0,1.9031707647953944,0.03796424006713501,0.0,-0.4882965026609485,-0.05477295754356375,0.0,1.0398452415054482,0.00530545937166467,0.0,4.188802969729011e-05,0.002307068938807708,0.0,,,,,,
2024-08-03 22:10:06.574700,-0.5272238531518898,0.004157876698894057,0.0,-1.4141582655017035,0.005824538845135787,0.0,1.9042316314455867,0.03790407601304873,0.0,-0.48995144881042574,-0.054770838036043906,0.0,1.0429821481351604,0.005325517353593477,0.0,4.2231283342353265e-05,0.002296081518774248,0.0,,,,,,
2024-08-03 22:10:06.584967,-0.5240822410459947,0.004177329575146525,0.0,-1.4135630418907128,0.005883151020656133,0.0,1.9052924980384311,0.037843855567246835,0.0,-0.4916063949289535,-0.05476868775267871,0.0,1.046119054778175,0.005345588516717563,0.0,4.2574551162744e-05,0.0022851072467010044,0.0,,,,,,
2024-08-03 22:10:06.595546,-0.5209406289134897,0.004196809496827921,0.0,-1.4129678182253966,0.005941819512789225,0.0,1.906353364592924,0.03778359565185299,0.0,-0.49326134102488606,-0.05476651467459189,0.0,1.0492559614138415,0.005365652475395008,0.0,4.291780707355031e-05,0.0022741214052890164,0.0,,,,,,
2024-08-03 22:10:06.604947,-0.5177990167691569,0.004216301256531722,0.0,-1.4123725945439458,0.006000504062519703,0.0,1.9074142311201072,0.037723308467799144,0.0,-0.4949162870951307,-0.05476431591861893,0.0,1.0523928680310348,0.005385697971212238,0.0,4.32610580585191e-05,0.002263130412855326,0.0,,,,,,
2024-08-03 22:10:06.615020,-0.514657404604562,0.004235813317809713,0.0,-1.411777370870421,0.006059180764707966,0.0,1.9084750976200944,0.03766299402958314,0.0,-0.4965712331367813,-0.05476208855730445,0.0,1.055529774639325,0.00540573457750967,0.0,4.360431036953827e-05,0.0022521407058360976,0.0,,,,,,
2024-08-03 22:10:06.625175,-0.5115157924153202,0.004255349832838062,0.0,-1.4111821471233685,0.006117931364343797,0.0,1.9095359640758023,0.03760263532245431,0.0,-0.49822617915431966,-0.05475983705180682,0.0,1.0586666812358239,0.005425759195586078,0.0,4.3947551504608384e-05,0.002241139102670673,0.0,,,,,,
2024-08-03 22:10:06.635000,-0.508374180187035,0.0042749255985228,0.0,-1.410586923307635,0.006176750200589309,0.0,1.910596830479463,0.03754222457710761,0.0,-0.4998811251470352,-0.05475756075521407,0.0,1.0618035878332694,0.005445784952970157,0.0,4.429079502887845e-05,0.0022301396988665266,0.0,,,,,,
2024-08-03 22:10:06.645055,-0.5052325679064049,0.004294553875499027,0.0,-1.4099916994351307,0.006235625645996951,0.0,1.911657696827401,0.03748175811574672,0.0,-0.5015360711145203,-0.054755259258132113,0.0,1.0649404944453824,0.005465825550711771,0.0,4.463404742605093e-05,0.0022191486788257285,0.0,,,,,,
2024-08-03 22:10:06.654784,-0.5020909555422159,0.004314265410553816,0.0,-1.40939647546383,0.006294599904981452,0.0,1.9127185631021497,0.037421218590890135,0.0,-0.503191017065129,-0.05475294085592172,0.0,1.068077401104195,0.005485912549329459,0.0,4.497729440089415e-05,0.002208151207504093,0.0,,,,,,
2024-08-03 22:10:06.665135,-0.49894934319098105,0.004333964025156016,0.0,-1.4088012515361663,0.006353530274929844,0.0,1.9137794293696508,0.03736067193891885,0.0,-0.5048459629903084,-0.05475059705875769,0.0,1.0712143077214762,0.005505958078899807,0.0,4.5320563308415274e-05,0.002197175542964087,0.0,,,,,,
2024-08-03 22:10:06.674900,-0.4958077307928761,0.004353709517428796,0.0,-1.4082060275405215,0.006412528598703749,0.0,1.91484029558125,0.03730006940152354,0.0,-0.5065009088902981,-0.05474822807786199,0.0,1.0743512143476721,0.005526012525908301,0.0,4.566383536097618e-05,0.0021862025574811332,0.0,,,,,,
2024-08-03 22:10:06.685374,-0.4926661183600114,0.00437348978472238,0.0,-1.4076108034624972,0.006471609296423538,0.0,1.915901161740738,0.03723941474616472,0.0,-0.5081558547673461,-0.05474583615350785,0.0,1.0774881209710712,0.0055460641779967925,0.0,4.600710118296547e-05,0.0021752228778138326,0.0,,,,,,
2024-08-03 22:10:06.695408,-0.4895245058932822,0.004393303628728114,0.0,-1.4070155793160681,0.006530756877872421,0.0,1.9169620278525414,0.03717871325499841,0.0,-0.5098108006219455,-0.0547434219654267,0.0,1.0806250275918714,0.00556611314519556,0.0,4.635036203826104e-05,0.0021642372476069287,0.0,,,,,,
2024-08-03 22:10:06.705082,-0.48638289337870155,0.004413165688123196,0.0,-1.40642035510574,0.006589970159828844,0.0,1.9180228939094164,0.037117955840557715,0.0,-0.5114657464522168,-0.054740983235546464,0.0,1.0837619342226459,0.005586172190861747,0.0,4.669362777676156e-05,0.0021532566907172357,0.0,,,,,,
2024-08-03 22:10:06.715231,-0.4832412808293647,0.004433062516974718,0.0,-1.4058251308136025,0.006649265246278927,0.0,1.9190837599130308,0.037057145165719056,0.0,-0.5131206922593821,-0.054738521399741905,0.0,1.086898840850357,0.005606228174771132,0.0,4.7036890578944224e-05,0.002142272750726428,0.0,,,,,,
2024-08-03 22:10:06.725532,-0.4800996682518699,0.004452987292042408,0.0,-1.4052299064376468,0.006708644662827596,0.0,1.9201446258668504,0.03699628466601984,0.0,-0.5147756380436261,-0.05473603661172483,0.0,1.0900357474687636,0.005626274625032996,0.0,4.738014485372588e-05,0.002131279570611779,0.0,,,,,,
2024-08-03 22:10:06.735144,-0.4769580556239861,0.004472962775529899,0.0,-1.4046346819877653,0.006768097305302968,0.0,1.9212054917610164,0.03693536454841448,0.0,-0.51643058380282,-0.05473352681320245,0.0,1.0931726540981064,0.005646332327177649,0.0,4.772340598346858e-05,0.002120293201566821,0.0,,,,,,
2024-08-03 22:10:06.745249,-0.4738164429596994,0.004492974668594453,0.0,-1.4040394574567088,0.006827631131559079,0.0,1.9222663576007744,0.0368743900229247,0.0,-0.5180855295390057,-0.05473099400469572,0.0,1.0963095607259703,0.005666388543860009,0.0,4.806666587064967e-05,0.0021093051465620686,0.0,,,,,,
2024-08-03 22:10:06.754925,-0.47067483024333967,0.004513038595797206,0.0,-1.4034442328321661,0.006887258426103757,0.0,1.9233272233772354,0.036813352245327134,0.0,-0.5197404752545252,-0.05472844053566911,0.0,1.0994464673681037,0.0056864589912422065,0.0,4.840992347165951e-05,0.0020983141663225087,0.0,,,,,,
2024-08-03 22:10:06.765223,-0.4675332174493727,0.004533180054916747,0.0,-1.4028490081150016,0.006946978268934498,0.0,1.9243880890781675,0.03675223903851802,0.0,-0.5213954209489629,-0.05472586600232468,0.0,1.1025833740481916,0.005706567331588617,0.0,4.875319094121977e-05,0.002087332235384062,0.0,,,,,,
2024-08-03 22:10:06.774920,-0.4643916046189176,0.004553358010240296,0.0,-1.4022537833176612,0.0070067782906780614,0.0,1.9254489547222313,0.03669106896862602,0.0,-0.5230503666186914,-0.05472326675823015,0.0,1.1057202807253352,0.005726672724793387,0.0,4.909646450990124e-05,0.0020763559881197815,0.0,,,,,,
2024-08-03 22:10:06.785048,-0.4612499917565227,0.00457356792623334,0.0,-1.4016585584380754,0.007066660570704574,0.0,1.9265098203123507,0.036629844936962766,0.0,-0.5247053122650964,-0.054720644188722425,0.0,1.1088571873961568,0.005746771801980186,0.0,4.943973813809066e-05,0.002065379425271375,0.0,,,,,,
2024-08-03 22:10:06.795297,-0.45810837886220046,0.004593809783057057,0.0,-1.4010633334765934,0.007126624734243761,0.0,1.9275706858492274,0.036568567673260256,0.0,-0.526360257888606,-0.054717998728903955,0.0,1.1119940940610276,0.005766864927554264,0.0,4.978300989666451e-05,0.0020544005932381076,0.0,,,,,,
2024-08-03 22:10:06.804914,-0.4549667659205756,0.004614098698042214,0.0,-1.4004681084460138,0.007186656549095474,0.0,1.9286315513306285,0.036507235723761994,0.0,-0.5280152034896748,-0.054715331021397286,0.0,1.1151310007353539,0.005786967448693611,0.0,5.012628444855949e-05,0.0020434236723854606,0.0,,,,,,
2024-08-03 22:10:06.815166,-0.4518251529445587,0.004634422319593347,0.0,-1.399872883328175,0.007246777348558471,0.0,1.9296924167564171,0.03644584722520634,0.0,-0.5296701490680205,-0.0547126403586314,0.0,1.1182679074060493,0.005807066409311384,0.0,5.04695554761625e-05,0.002032443419272527,0.0,,,,,,
2024-08-03 22:10:06.824991,-0.44868353993773713,0.004654776493098279,0.0,-1.399277658127757,0.007306981320935564,0.0,1.9307532821290625,0.036384405561936915,0.0,-0.5313250946237176,-0.054709927032643754,0.0,1.121404814070007,0.005827158362566925,0.0,5.08128236642591e-05,0.0020214595893857674,0.0,,,,,,
2024-08-03 22:10:06.835202,-0.4455419268961007,0.004675165853446111,0.0,-1.3986824328363399,0.007367275511710337,0.0,1.9318141474451611,0.036322907370926846,0.0,-0.5329800401559908,-0.05470719029997908,0.0,1.1245417207298152,0.00584724652499793,0.0,5.115608741235178e-05,0.002010471472714304,0.0,,,,,,
2024-08-03 22:10:06.844936,-0.4424003138091006,0.00469560059031112,0.0,-1.3980872074576494,0.007427656973473869,0.0,1.932875012699654,0.03626134757642919,0.0,-0.534634985664856,-0.05470443016056849,0.0,1.127678627395678,0.005867340739398734,0.0,5.149935463499844e-05,0.0019994864198119213,0.0,,,,,,
2024-08-03 22:10:06.855174,-0.4392587006905133,0.004716066923931418,0.0,-1.3974919819919405,0.007488125487911809,0.0,1.9339358778990459,0.03619973266698318,0.0,-0.5362899311510763,-0.05470164737324956,0.0,1.1308155340553157,0.005887428723850908,0.0,5.1842618650432826e-05,0.0019884978097091974,0.0,,,,,,
2024-08-03 22:10:06.864830,-0.436117087494992,0.004736610094432799,0.0,-1.3968967564160113,0.007548704118050707,0.0,1.934996743017404,0.03613803686046837,0.0,-0.537944876617285,-0.054698844601688675,0.0,1.1339524407528794,0.005907554555765715,0.0,5.218588715294459e-05,0.0019775129070000765,0.0,,,,,,
2024-08-03 22:10:06.875035,-0.4329754742517915,0.004757200936443984,0.0,-1.3963015307502429,0.0076093725636870255,0.0,1.936057608070083,0.036076275396938744,0.0,-0.5395998220593423,-0.054696017688695656,0.0,1.1370893474576276,0.00592768755883525,0.0,5.2529166364223556e-05,0.0019665382496000063,0.0,,,,,,
2024-08-03 22:10:06.884803,-0.4298338609700334,0.004777830353492042,0.0,-1.3957063049942418,0.007670131240438343,0.0,1.9371184730620499,0.03601445322860397,0.0,-0.5412547674775237,-0.05469316689728816,0.0,1.1402262541614272,0.005947819611462294,0.0,5.287244874807584e-05,0.0019555664081368634,0.0,,,,,,
2024-08-03 22:10:06.895041,-0.4266922476580586,0.0047984899998156335,0.0,-1.3951110791500818,0.007730978108673143,0.0,1.9381793379985535,0.03595257558517681,0.0,-0.542909712872909,-0.05469029331009473,0.0,1.1433631608576231,0.005967944056533142,0.0,5.321572763072879e-05,0.0019445907487224637,0.0,,,,,,
2024-08-03 22:10:06.905355,-0.42355063431515294,0.004819180541949282,0.0,-1.3945158532183288,0.007791912184446239,0.0,1.9392402028782598,0.035890641346284384,0.0,-0.5445646582449308,-0.05468739641469732,0.0,1.1465000675462873,0.005988060970537484,0.0,5.355900742731734e-05,0.0019336155721096301,0.0,,,,,,
2024-08-03 22:10:06.914985,-0.420409020932369,0.004839910863627214,0.0,-1.3939206272095974,0.007852922554430495,0.0,1.9403010677030252,0.03582865253468131,0.0,-0.5462196035956381,-0.05468447830403238,0.0,1.1496369742374446,0.006008180349441576,0.0,5.3902286146545464e-05,0.0019226387882513712,0.0,,,,,,
2024-08-03 22:10:06.925305,-0.4172674075088967,0.004860682107391698,0.0,-1.3933254011057687,0.007914029347846548,0.0,1.9413619324654015,0.03576660061895223,0.0,-0.5478745489232031,-0.054681536853845795,0.0,1.1527738809301873,0.006028301356693423,0.0,5.4245564737875895e-05,0.0019116619452876496,0.0,,,,,,
2024-08-03 22:10:06.934972,-0.41412579405628414,0.004881482246380639,0.0,-1.392730174910877,0.007975227734509711,0.0,1.942422797172263,0.03570449319405156,0.0,-0.5495294942283611,-0.054678573005141055,0.0,1.1559107876146149,0.0060484137943259105,0.0,5.458883672915249e-05,0.0019006778335414224,0.0,,,,,,
2024-08-03 22:10:06.945178,-0.4109841805772225,0.004902309190568395,0.0,-1.3921349486212964,0.008036520112091628,0.0,1.9434836618233842,0.03564233002153917,0.0,-0.5511844395106253,-0.05467558625683151,0.0,1.1590476942873238,0.006068514843843604,0.0,5.4932102520943715e-05,0.001889687749036772,0.0,,,,,,
2024-08-03 22:10:06.955019,-0.4078425670576813,0.004923176638191355,0.0,-1.3915397222399253,0.00809790427012896,0.0,1.9445445264119137,0.035580104255058226,0.0,-0.5528393847694044,-0.054672576018016096,0.0,1.1621846009611305,0.006088616997533668,0.0,5.5275372552898716e-05,0.0018787015740835146,0.0,,,,,,
2024-08-03 22:10:06.965191,-0.40470095349751656,0.004944084726810346,0.0,-1.3909444957624026,0.00815938458609454,0.0,1.9456053909369917,0.03551781503683889,0.0,-0.5544943300048919,-0.05466954248527266,0.0,1.1653215076361985,0.006108720410469628,0.0,5.5618644035249076e-05,0.0018677165232057888,0.0,,,,,,
2024-08-03 22:10:06.974990,-0.4015593398516213,0.004965078432763095,0.0,-1.3903492691608228,0.00822098886241331,0.0,1.9466662553710457,0.03545543494140556,0.0,-0.556149275219326,-0.054666487945268905,0.0,1.1684584143575192,0.00612886998399064,0.0,5.596192006951384e-05,0.00185673528242608,0.0,,,,,,
2024-08-03 22:10:06.985269,-0.3984177261830997,0.004986094783403515,0.0,-1.389754042469576,0.008282682796555479,0.0,1.9477271197488637,0.035392998616291194,0.0,-0.5578042204094658,-0.05466340911090634,0.0,1.1715953210626697,0.006149003391252013,0.0,5.630519898769393e-05,0.0018457566629033525,0.0,,,,,,
2024-08-03 22:10:06.995213,-0.39527611248350425,0.005007142220416007,0.0,-1.3891588156873096,0.0083444677565352,0.0,1.9487879840666853,0.03533050229971352,0.0,-0.5594591655754,-0.054660306072124444,0.0,1.1747322277597227,0.006169128692701525,0.0,5.664848242314946e-05,0.0018347822647991944,0.0,,,,,,
2024-08-03 22:10:07.005293,-0.39213449873525086,0.005028238342275918,0.0,-1.3885635888051693,0.008406352572029815,0.0,1.9498488483157672,0.035267937243102634,0.0,-0.5611141107174227,-0.05465717912284827,0.0,1.1778691344650127,0.006189262238786533,0.0,5.6991770971848155e-05,0.0018238126507666946,0.0,,,,,,
2024-08-03 22:10:07.015565,-0.3889928849560613,0.005049365423746432,0.0,-1.3879683618275294,0.008468332913947583,0.0,1.9509097125056822,0.03520531301051588,0.0,-0.5627690558367924,-0.05465402951901248,0.0,1.1810060411635552,0.006209389037260469,0.0,5.7335054571616695e-05,0.001812837840311271,0.0,,,,,,
2024-08-03 22:10:07.025168,-0.3858512711504707,0.00507051871379618,0.0,-1.3873731347642744,0.008530397387968553,0.0,1.9519705766418696,0.03514263583979542,0.0,-0.5644240009346895,-0.05465085867754517,0.0,1.1841429478519938,0.00622950570774438,0.0,5.7678332444410785e-05,0.0018018566468588773,0.0,,,,,,
2024-08-03 22:10:07.035380,-0.3827096573176618,0.0050916994948702055,0.0,-1.386777907610602,0.0085925540289023,0.0,1.9530314407214426,0.035079901119065386,0.0,-0.5660789460101441,-0.05464766511548395,0.0,1.1872798545302494,0.00624961222373027,0.0,5.802160726187111e-05,0.0017908726550133688,0.0,,,,,,
2024-08-03 22:10:07.045033,-0.37956804344211115,0.005112922745868043,0.0,-1.3861826803582333,0.008654809899505844,0.0,1.9540923047342886,0.03501709971168191,0.0,-0.5677338910616205,-0.054644447605780515,0.0,1.190416761211397,0.0062697213551123464,0.0,5.83648867440445e-05,0.0017798925847372533,0.0,,,,,,
2024-08-03 22:10:07.055253,-0.37642642953224303,0.005134180715371227,0.0,-1.385587452999619,0.008717171321348055,0.0,1.955153168684678,0.03495423579677962,0.0,-0.5693888360907629,-0.054641207721082115,0.0,1.1935536678883905,0.006289826690595256,0.0,5.870815700070864e-05,0.001768903611272553,0.0,,,,,,
2024-08-03 22:10:07.064967,-0.37328482744968206,0.005143611387045324,0.0,-1.3849922235615721,0.00878161216964245,0.0,1.9562140305213909,0.03488925821063468,0.0,-0.5710437807227553,-0.05463757068453462,0.0,1.196690574757433,0.006310124073641683,0.0,5.905124741278911e-05,0.0017577340746703406,0.0,,,,,,
2024-08-03 22:10:07.075233,-0.37014321919746873,0.005159211693049093,0.0,-1.384396995100804,0.008845075747576847,0.0,1.9572748942650087,0.03482618753236431,0.0,-0.572698725847733,-0.054634426635409614,0.0,1.199827481683494,0.0063304784662758145,0.0,5.939381700148516e-05,0.001746042078424815,0.0,,,,,,
2024-08-03 22:10:07.084938,-0.3670016080773326,0.00517767986628804,0.0,-1.383801767041614,0.008908137658656761,0.0,1.9583357584993522,0.034763607694710166,0.0,-0.5743536710269481,-0.054631336863216536,0.0,1.2029643885717913,0.006350795027859022,0.0,5.973656495328328e-05,0.0017345278041194941,0.0,,,,,,
2024-08-03 22:10:07.095238,-0.3638599942184708,0.005198886966110101,0.0,-1.3832065391131632,0.0089710687682702,0.0,1.9593966229417337,0.03470123594306613,0.0,-0.5760086161185836,-0.05462815952823302,0.0,1.2061012954758743,0.006371127361484557,0.0,6.007995938261956e-05,0.0017236600935837494,0.0,,,,,,
2024-08-03 22:10:07.105475,-0.3607183718378151,0.005228616053330644,0.0,-1.3826113111299179,0.009034054669034557,0.0,1.960457488942641,0.03464042273025811,0.0,-0.5776635616329271,-0.054625404906451895,0.0,1.2092382025905861,0.006391670300908744,0.0,6.0423155067823586e-05,0.0017125931019382834,0.0,,,,,,
2024-08-03 22:10:07.115231,-0.3575767505870022,0.005257215395668029,0.0,-1.3820160823919865,0.009097795269164257,0.0,1.9615183543441823,0.034579010135607734,0.0,-0.5793185069397344,-0.05462244274359159,0.0,1.212375109693265,0.006412201213149684,0.0,6.076661565668218e-05,0.0017017914825924177,0.0,,,,,,
2024-08-03 22:10:07.125426,-0.3544351270535513,0.005288096934975719,0.0,-1.3814208540762942,0.00916111377565391,0.0,1.9625792202880277,0.034518139819432,0.0,-0.5809734521116843,-0.05461934572501084,0.0,1.2155120164060076,0.006432342181915874,0.0,6.1110074877746e-05,0.0016909892563680708,0.0,,,,,,
2024-08-03 22:10:07.135314,-0.35129329203997806,0.00553051113628382,0.0,-1.380824458782987,0.010391411484115768,0.0,1.9636393557993639,0.03372683680661089,0.0,-0.5826281476211248,-0.05436658605808024,0.0,1.218649079500553,0.006608865120248146,0.0,6.14923234278919e-05,0.0017190018569001467,0.0,,,,,,
2024-08-03 22:10:07.145108,-0.3481517286907341,0.005501209387018349,0.0,-1.3802292363163058,0.010448880569308025,0.0,1.9647002188642269,0.03366308718007303,0.0,-0.584283082503827,-0.05435319953843574,0.0,1.2217859422113762,0.006585003942103583,0.0,6.187343399144396e-05,0.0017458647366289035,0.0,,,,,,
